(.../pcb-gcode-3_6_0_4/pcb-gcode.ulp)
(Copyright 2005 - 2012 by John Johnson)
(See readme.txt for licensing terms.)
(This file generated from the board:)
(.../APA104-Breakout/atiny13u-breakout.brd)
(Current profile is .../pcb-gcode-3_6_0_4/profiles/generic.pp  )
(This file generated 9/16/2018 6:15 PM)
(Settings from pcb-machine.h)
(  Tool Size)
(0.1778 )
(Z Axis Settings)
(  High     Up        Down     Drill)
(12.7000 	2.5400 	-0.1778 	-0.8128 )
(spindle on time = 3.0000)
(milling depth = -0.2540)
(text depth = -0.1270)
(tool change at 12.7000 15.2400 25.4000 )
(feed rate xy = F408.00 )
(feed rate z  = F254.00 )
(Settings from pcb-defaults.h)
(isolate min = 0.0254)
(isolate max = 0.5080)
(isolate step = 0.1270)
(Generated bottom outlines, bottom drill, )
(Unit of measure: mm)
(Metric Mode)
G21
(Absolute Coordinates)
G90
G00 X0.0000 Y0.0000 
M03
G04 P3.000000
G00 Z2.5400 
G00 X-15.8889 Y93.0631 
G01 Z-0.1778 F254.00 
G01 X-13.9638 Y93.0631 F408.00 
G01 X-13.9218 Y93.0457 
G01 X-13.8896 Y93.0135 
G01 X-13.8722 Y92.9715 
G01 X-13.8722 Y91.0464 
G01 X-13.8896 Y91.0044 
G01 X-13.9218 Y90.9723 
G01 X-13.9638 Y90.9549 
G01 X-15.8889 Y90.9549 
G01 X-15.9309 Y90.9723 
G01 X-15.9630 Y91.0044 
G01 X-15.9804 Y91.0464 
G01 X-15.9804 Y92.9715 
G01 X-15.9630 Y93.0135 
G01 X-15.9309 Y93.0457 
G01 X-15.8889 Y93.0631 
G00 Z2.5400 
G00 X-18.5204 Y91.9260 
G01 Z-0.1778 F254.00 
G01 X-18.5204 Y92.0919 F408.00 
G01 X-18.4945 Y92.2558 
G01 X-18.4432 Y92.4136 
G01 X-18.3679 Y92.5614 
G01 X-18.2704 Y92.6957 
G01 X-18.1530 Y92.8130 
G01 X-18.0188 Y92.9105 
G01 X-17.8710 Y92.9858 
G01 X-17.7132 Y93.0371 
G01 X-17.5493 Y93.0631 
G01 X-17.3834 Y93.0631 
G01 X-17.2195 Y93.0371 
G01 X-17.0617 Y92.9858 
G01 X-16.9139 Y92.9105 
G01 X-16.7796 Y92.8130 
G01 X-16.6623 Y92.6957 
G01 X-16.5648 Y92.5614 
G01 X-16.4895 Y92.4136 
G01 X-16.4382 Y92.2558 
G01 X-16.4122 Y92.0919 
G01 X-16.4122 Y91.9260 
G01 X-16.4382 Y91.7621 
G01 X-16.4895 Y91.6043 
G01 X-16.5648 Y91.4565 
G01 X-16.6623 Y91.3223 
G01 X-16.7796 Y91.2049 
G01 X-16.9139 Y91.1074 
G01 X-17.0617 Y91.0321 
G01 X-17.2195 Y90.9808 
G01 X-17.3834 Y90.9549 
G01 X-17.5493 Y90.9549 
G01 X-17.7132 Y90.9808 
G01 X-17.8710 Y91.0321 
G01 X-18.0188 Y91.1074 
G01 X-18.1530 Y91.2049 
G01 X-18.2704 Y91.3223 
G01 X-18.3679 Y91.4565 
G01 X-18.4432 Y91.6043 
G01 X-18.4945 Y91.7621 
G01 X-18.5204 Y91.9260 
G00 Z2.5400 
G00 X-21.0604 Y91.9260 
G01 Z-0.1778 F254.00 
G01 X-21.0604 Y92.0919 F408.00 
G01 X-21.0345 Y92.2558 
G01 X-20.9832 Y92.4136 
G01 X-20.9079 Y92.5614 
G01 X-20.8104 Y92.6957 
G01 X-20.6930 Y92.8130 
G01 X-20.5588 Y92.9105 
G01 X-20.4110 Y92.9858 
G01 X-20.2532 Y93.0371 
G01 X-20.0893 Y93.0631 
G01 X-19.9234 Y93.0631 
G01 X-19.7595 Y93.0371 
G01 X-19.6017 Y92.9858 
G01 X-19.4539 Y92.9105 
G01 X-19.3196 Y92.8130 
G01 X-19.2023 Y92.6957 
G01 X-19.1048 Y92.5614 
G01 X-19.0295 Y92.4136 
G01 X-18.9782 Y92.2558 
G01 X-18.9522 Y92.0919 
G01 X-18.9522 Y91.9260 
G01 X-18.9782 Y91.7621 
G01 X-19.0295 Y91.6043 
G01 X-19.1048 Y91.4565 
G01 X-19.2023 Y91.3223 
G01 X-19.3196 Y91.2049 
G01 X-19.4539 Y91.1074 
G01 X-19.6017 Y91.0321 
G01 X-19.7595 Y90.9808 
G01 X-19.9234 Y90.9549 
G01 X-20.0893 Y90.9549 
G01 X-20.2532 Y90.9808 
G01 X-20.4110 Y91.0321 
G01 X-20.5588 Y91.1074 
G01 X-20.6930 Y91.2049 
G01 X-20.8104 Y91.3223 
G01 X-20.9079 Y91.4565 
G01 X-20.9832 Y91.6043 
G01 X-21.0345 Y91.7621 
G01 X-21.0604 Y91.9260 
G00 Z2.5400 
G00 X-23.6004 Y91.9260 
G01 Z-0.1778 F254.00 
G01 X-23.6004 Y92.0919 F408.00 
G01 X-23.5745 Y92.2558 
G01 X-23.5232 Y92.4136 
G01 X-23.4479 Y92.5614 
G01 X-23.3504 Y92.6957 
G01 X-23.2330 Y92.8130 
G01 X-23.0988 Y92.9105 
G01 X-22.9510 Y92.9858 
G01 X-22.7932 Y93.0371 
G01 X-22.6293 Y93.0631 
G01 X-22.4634 Y93.0631 
G01 X-22.2995 Y93.0371 
G01 X-22.1417 Y92.9858 
G01 X-21.9939 Y92.9105 
G01 X-21.8596 Y92.8130 
G01 X-21.7423 Y92.6957 
G01 X-21.6448 Y92.5614 
G01 X-21.5695 Y92.4136 
G01 X-21.5182 Y92.2558 
G01 X-21.4922 Y92.0919 
G01 X-21.4922 Y91.9260 
G01 X-21.5182 Y91.7621 
G01 X-21.5695 Y91.6043 
G01 X-21.6448 Y91.4565 
G01 X-21.7423 Y91.3223 
G01 X-21.8596 Y91.2049 
G01 X-21.9939 Y91.1074 
G01 X-22.1417 Y91.0321 
G01 X-22.2995 Y90.9808 
G01 X-22.4634 Y90.9549 
G01 X-22.6293 Y90.9549 
G01 X-22.7932 Y90.9808 
G01 X-22.9510 Y91.0321 
G01 X-23.0988 Y91.1074 
G01 X-23.2330 Y91.2049 
G01 X-23.3504 Y91.3223 
G01 X-23.4479 Y91.4565 
G01 X-23.5232 Y91.6043 
G01 X-23.5745 Y91.7621 
G01 X-23.6004 Y91.9260 
G00 Z2.5400 
G00 X-26.1404 Y91.9260 
G01 Z-0.1778 F254.00 
G01 X-26.1404 Y92.0919 F408.00 
G01 X-26.1145 Y92.2558 
G01 X-26.0632 Y92.4136 
G01 X-25.9879 Y92.5614 
G01 X-25.8904 Y92.6957 
G01 X-25.7730 Y92.8130 
G01 X-25.6388 Y92.9105 
G01 X-25.4910 Y92.9858 
G01 X-25.3332 Y93.0371 
G01 X-25.1693 Y93.0631 
G01 X-25.0034 Y93.0631 
G01 X-24.8395 Y93.0371 
G01 X-24.6817 Y92.9858 
G01 X-24.5339 Y92.9105 
G01 X-24.3996 Y92.8130 
G01 X-24.2823 Y92.6957 
G01 X-24.1848 Y92.5614 
G01 X-24.1095 Y92.4136 
G01 X-24.0582 Y92.2558 
G01 X-24.0322 Y92.0919 
G01 X-24.0322 Y91.9260 
G01 X-24.0582 Y91.7621 
G01 X-24.1095 Y91.6043 
G01 X-24.1848 Y91.4565 
G01 X-24.2823 Y91.3223 
G01 X-24.3996 Y91.2049 
G01 X-24.5339 Y91.1074 
G01 X-24.6817 Y91.0321 
G01 X-24.8395 Y90.9808 
G01 X-25.0034 Y90.9549 
G01 X-25.1693 Y90.9549 
G01 X-25.3332 Y90.9808 
G01 X-25.4910 Y91.0321 
G01 X-25.6388 Y91.1074 
G01 X-25.7730 Y91.2049 
G01 X-25.8904 Y91.3223 
G01 X-25.9879 Y91.4565 
G01 X-26.0632 Y91.6043 
G01 X-26.1145 Y91.7621 
G01 X-26.1404 Y91.9260 
G00 Z2.5400 
G00 X-28.6804 Y91.9260 
G01 Z-0.1778 F254.00 
G01 X-28.6804 Y92.0919 F408.00 
G01 X-28.6545 Y92.2558 
G01 X-28.6032 Y92.4136 
G01 X-28.5279 Y92.5614 
G01 X-28.4304 Y92.6957 
G01 X-28.3130 Y92.8130 
G01 X-28.1788 Y92.9105 
G01 X-28.0310 Y92.9858 
G01 X-27.8732 Y93.0371 
G01 X-27.7093 Y93.0631 
G01 X-27.5434 Y93.0631 
G01 X-27.3795 Y93.0371 
G01 X-27.2217 Y92.9858 
G01 X-27.0739 Y92.9105 
G01 X-26.9396 Y92.8130 
G01 X-26.8223 Y92.6957 
G01 X-26.7248 Y92.5614 
G01 X-26.6495 Y92.4136 
G01 X-26.5982 Y92.2558 
G01 X-26.5722 Y92.0919 
G01 X-26.5722 Y91.9260 
G01 X-26.5982 Y91.7621 
G01 X-26.6495 Y91.6043 
G01 X-26.7248 Y91.4565 
G01 X-26.8223 Y91.3223 
G01 X-26.9396 Y91.2049 
G01 X-27.0739 Y91.1074 
G01 X-27.2217 Y91.0321 
G01 X-27.3795 Y90.9808 
G01 X-27.5434 Y90.9549 
G01 X-27.7093 Y90.9549 
G01 X-27.8732 Y90.9808 
G01 X-28.0310 Y91.0321 
G01 X-28.1788 Y91.1074 
G01 X-28.3130 Y91.2049 
G01 X-28.4304 Y91.3223 
G01 X-28.5279 Y91.4565 
G01 X-28.6032 Y91.6043 
G01 X-28.6545 Y91.7621 
G01 X-28.6804 Y91.9260 
G00 Z2.5400 
G00 X-31.2204 Y91.9260 
G01 Z-0.1778 F254.00 
G01 X-31.2204 Y92.0919 F408.00 
G01 X-31.1945 Y92.2558 
G01 X-31.1432 Y92.4136 
G01 X-31.0679 Y92.5614 
G01 X-30.9704 Y92.6957 
G01 X-30.8530 Y92.8130 
G01 X-30.7188 Y92.9105 
G01 X-30.5710 Y92.9858 
G01 X-30.4132 Y93.0371 
G01 X-30.2493 Y93.0631 
G01 X-30.0834 Y93.0631 
G01 X-29.9195 Y93.0371 
G01 X-29.7617 Y92.9858 
G01 X-29.6139 Y92.9105 
G01 X-29.4796 Y92.8130 
G01 X-29.3623 Y92.6957 
G01 X-29.2648 Y92.5614 
G01 X-29.1895 Y92.4136 
G01 X-29.1382 Y92.2558 
G01 X-29.1122 Y92.0919 
G01 X-29.1122 Y91.9260 
G01 X-29.1382 Y91.7621 
G01 X-29.1895 Y91.6043 
G01 X-29.2648 Y91.4565 
G01 X-29.3623 Y91.3223 
G01 X-29.4796 Y91.2049 
G01 X-29.6139 Y91.1074 
G01 X-29.7617 Y91.0321 
G01 X-29.9195 Y90.9808 
G01 X-30.0834 Y90.9549 
G01 X-30.2493 Y90.9549 
G01 X-30.4132 Y90.9808 
G01 X-30.5710 Y91.0321 
G01 X-30.7188 Y91.1074 
G01 X-30.8530 Y91.2049 
G01 X-30.9704 Y91.3223 
G01 X-31.0679 Y91.4565 
G01 X-31.1432 Y91.6043 
G01 X-31.1945 Y91.7621 
G01 X-31.2204 Y91.9260 
G00 Z2.5400 
G00 X-33.7604 Y91.9260 
G01 Z-0.1778 F254.00 
G01 X-33.7604 Y92.0919 F408.00 
G01 X-33.7345 Y92.2558 
G01 X-33.6832 Y92.4136 
G01 X-33.6079 Y92.5614 
G01 X-33.5104 Y92.6957 
G01 X-33.3930 Y92.8130 
G01 X-33.2588 Y92.9105 
G01 X-33.1110 Y92.9858 
G01 X-32.9532 Y93.0371 
G01 X-32.7893 Y93.0631 
G01 X-32.6234 Y93.0631 
G01 X-32.4595 Y93.0371 
G01 X-32.3017 Y92.9858 
G01 X-32.1539 Y92.9105 
G01 X-32.0196 Y92.8130 
G01 X-31.9023 Y92.6957 
G01 X-31.8048 Y92.5614 
G01 X-31.7295 Y92.4136 
G01 X-31.6782 Y92.2558 
G01 X-31.6522 Y92.0919 
G01 X-31.6522 Y91.9260 
G01 X-31.6782 Y91.7621 
G01 X-31.7295 Y91.6043 
G01 X-31.8048 Y91.4565 
G01 X-31.9023 Y91.3223 
G01 X-32.0196 Y91.2049 
G01 X-32.1539 Y91.1074 
G01 X-32.3017 Y91.0321 
G01 X-32.4595 Y90.9808 
G01 X-32.6234 Y90.9549 
G01 X-32.7893 Y90.9549 
G01 X-32.9532 Y90.9808 
G01 X-33.1110 Y91.0321 
G01 X-33.2588 Y91.1074 
G01 X-33.3930 Y91.2049 
G01 X-33.5104 Y91.3223 
G01 X-33.6079 Y91.4565 
G01 X-33.6832 Y91.6043 
G01 X-33.7345 Y91.7621 
G01 X-33.7604 Y91.9260 
G00 Z2.5400 
G00 X-8.1994 Y84.2566 
G01 Z-0.1778 F254.00 
G01 X-8.1994 Y84.4225 F408.00 
G01 X-8.1734 Y84.5864 
G01 X-8.1221 Y84.7442 
G01 X-8.0468 Y84.8920 
G01 X-7.9493 Y85.0263 
G01 X-7.8320 Y85.1436 
G01 X-7.6977 Y85.2411 
G01 X-7.5499 Y85.3165 
G01 X-7.3921 Y85.3677 
G01 X-7.2282 Y85.3937 
G01 X-7.0623 Y85.3937 
G01 X-6.8984 Y85.3677 
G01 X-6.7406 Y85.3165 
G01 X-6.5928 Y85.2411 
G01 X-6.4586 Y85.1436 
G01 X-6.3412 Y85.0263 
G01 X-6.2437 Y84.8920 
G01 X-6.1684 Y84.7442 
G01 X-6.1171 Y84.5864 
G01 X-6.0912 Y84.4225 
G01 X-6.0912 Y84.2566 
G01 X-6.1171 Y84.0927 
G01 X-6.1684 Y83.9349 
G01 X-6.2437 Y83.7871 
G01 X-6.3412 Y83.6529 
G01 X-6.4586 Y83.5356 
G01 X-6.5928 Y83.4380 
G01 X-6.7406 Y83.3627 
G01 X-6.8984 Y83.3114 
G01 X-7.0623 Y83.2855 
G01 X-7.2282 Y83.2855 
G01 X-7.3921 Y83.3114 
G01 X-7.5499 Y83.3627 
G01 X-7.6977 Y83.4380 
G01 X-7.8320 Y83.5356 
G01 X-7.9493 Y83.6529 
G01 X-8.0468 Y83.7871 
G01 X-8.1221 Y83.9349 
G01 X-8.1734 Y84.0927 
G01 X-8.1994 Y84.2566 
G00 Z2.5400 
G00 X-8.1994 Y86.7966 
G01 Z-0.1778 F254.00 
G01 X-8.1994 Y86.9625 F408.00 
G01 X-8.1734 Y87.1264 
G01 X-8.1221 Y87.2842 
G01 X-8.0468 Y87.4320 
G01 X-7.9493 Y87.5663 
G01 X-7.8320 Y87.6836 
G01 X-7.6977 Y87.7811 
G01 X-7.5499 Y87.8565 
G01 X-7.3921 Y87.9077 
G01 X-7.2282 Y87.9337 
G01 X-7.0623 Y87.9337 
G01 X-6.8984 Y87.9077 
G01 X-6.7406 Y87.8565 
G01 X-6.5928 Y87.7811 
G01 X-6.4586 Y87.6836 
G01 X-6.3412 Y87.5663 
G01 X-6.2437 Y87.4320 
G01 X-6.1684 Y87.2842 
G01 X-6.1171 Y87.1264 
G01 X-6.0912 Y86.9625 
G01 X-6.0912 Y86.7966 
G01 X-6.1171 Y86.6327 
G01 X-6.1684 Y86.4749 
G01 X-6.2437 Y86.3271 
G01 X-6.3412 Y86.1929 
G01 X-6.4586 Y86.0756 
G01 X-6.5928 Y85.9780 
G01 X-6.7406 Y85.9027 
G01 X-6.8984 Y85.8514 
G01 X-7.0623 Y85.8255 
G01 X-7.2282 Y85.8255 
G01 X-7.3921 Y85.8514 
G01 X-7.5499 Y85.9027 
G01 X-7.6977 Y85.9780 
G01 X-7.8320 Y86.0756 
G01 X-7.9493 Y86.1929 
G01 X-8.0468 Y86.3271 
G01 X-8.1221 Y86.4749 
G01 X-8.1734 Y86.6327 
G01 X-8.1994 Y86.7966 
G00 Z2.5400 
G00 X-41.1170 Y86.2909 
G01 Z-0.1778 F254.00 
G01 X-41.1170 Y86.4808 F408.00 
G01 X-41.0873 Y86.6684 
G01 X-41.0286 Y86.8490 
G01 X-40.9424 Y87.0182 
G01 X-40.8307 Y87.1718 
G01 X-40.6965 Y87.3061 
G01 X-40.5428 Y87.4177 
G01 X-40.3736 Y87.5039 
G01 X-40.1930 Y87.5626 
G01 X-40.0054 Y87.5923 
G01 X-39.8155 Y87.5923 
G01 X-39.6280 Y87.5626 
G01 X-39.4473 Y87.5039 
G01 X-39.2781 Y87.4177 
G01 X-39.1245 Y87.3061 
G01 X-38.9902 Y87.1718 
G01 X-38.8786 Y87.0182 
G01 X-38.7924 Y86.8490 
G01 X-38.7337 Y86.6684 
G01 X-38.7040 Y86.4808 
G01 X-38.7040 Y86.2909 
G01 X-38.7337 Y86.1033 
G01 X-38.7924 Y85.9227 
G01 X-38.8786 Y85.7535 
G01 X-38.9902 Y85.5999 
G01 X-39.1245 Y85.4656 
G01 X-39.2781 Y85.3539 
G01 X-39.4473 Y85.2677 
G01 X-39.6280 Y85.2091 
G01 X-39.8155 Y85.1793 
G01 X-40.0054 Y85.1793 
G01 X-40.1930 Y85.2091 
G01 X-40.3736 Y85.2677 
G01 X-40.5428 Y85.3539 
G01 X-40.6965 Y85.4656 
G01 X-40.8307 Y85.5999 
G01 X-40.9424 Y85.7535 
G01 X-41.0286 Y85.9227 
G01 X-41.0873 Y86.1033 
G01 X-41.1170 Y86.2909 
G00 Z2.5400 
G00 X-41.1170 Y79.7631 
G01 Z-0.1778 F254.00 
G01 X-41.1170 Y79.9530 F408.00 
G01 X-41.0873 Y80.1406 
G01 X-41.0286 Y80.3212 
G01 X-40.9424 Y80.4904 
G01 X-40.8307 Y80.6440 
G01 X-40.6965 Y80.7783 
G01 X-40.5428 Y80.8899 
G01 X-40.3736 Y80.9761 
G01 X-40.1930 Y81.0348 
G01 X-40.0054 Y81.0645 
G01 X-39.8155 Y81.0645 
G01 X-39.6280 Y81.0348 
G01 X-39.4473 Y80.9761 
G01 X-39.2781 Y80.8899 
G01 X-39.1245 Y80.7783 
G01 X-38.9902 Y80.6440 
G01 X-38.8786 Y80.4904 
G01 X-38.7924 Y80.3212 
G01 X-38.7337 Y80.1406 
G01 X-38.7040 Y79.9530 
G01 X-38.7040 Y79.7631 
G01 X-38.7337 Y79.5755 
G01 X-38.7924 Y79.3949 
G01 X-38.8786 Y79.2257 
G01 X-38.9902 Y79.0721 
G01 X-39.1245 Y78.9378 
G01 X-39.2781 Y78.8261 
G01 X-39.4473 Y78.7399 
G01 X-39.6280 Y78.6813 
G01 X-39.8155 Y78.6515 
G01 X-40.0054 Y78.6515 
G01 X-40.1930 Y78.6813 
G01 X-40.3736 Y78.7399 
G01 X-40.5428 Y78.8261 
G01 X-40.6965 Y78.9378 
G01 X-40.8307 Y79.0721 
G01 X-40.9424 Y79.2257 
G01 X-41.0286 Y79.3949 
G01 X-41.0873 Y79.5755 
G01 X-41.1170 Y79.7631 
G00 Z2.5400 
G00 X-15.9141 Y93.1901 
G01 Z-0.1778 F254.00 
G01 X-13.9385 Y93.1901 F408.00 
G01 X-13.8498 Y93.1533 
G01 X-13.7820 Y93.0854 
G01 X-13.7452 Y92.9968 
G01 X-13.7452 Y91.0212 
G01 X-13.7820 Y90.9325 
G01 X-13.8498 Y90.8646 
G01 X-13.9385 Y90.8279 
G01 X-15.9141 Y90.8279 
G01 X-16.0028 Y90.8646 
G01 X-16.0707 Y90.9325 
G01 X-16.1074 Y91.0212 
G01 X-16.1074 Y92.9968 
G01 X-16.0707 Y93.0854 
G01 X-16.0028 Y93.1533 
G01 X-15.9141 Y93.1901 
G00 Z2.5400 
G00 X-18.6474 Y91.9160 
G01 Z-0.1778 F254.00 
G01 X-18.6474 Y92.1019 F408.00 
G01 X-18.6184 Y92.2855 
G01 X-18.5609 Y92.4623 
G01 X-18.4765 Y92.6280 
G01 X-18.3672 Y92.7784 
G01 X-18.2358 Y92.9099 
G01 X-18.0854 Y93.0191 
G01 X-17.9197 Y93.1035 
G01 X-17.7429 Y93.1610 
G01 X-17.5593 Y93.1901 
G01 X-17.3734 Y93.1901 
G01 X-17.1898 Y93.1610 
G01 X-17.0130 Y93.1035 
G01 X-16.8473 Y93.0191 
G01 X-16.6969 Y92.9099 
G01 X-16.5654 Y92.7784 
G01 X-16.4562 Y92.6280 
G01 X-16.3718 Y92.4623 
G01 X-16.3143 Y92.2855 
G01 X-16.2852 Y92.1019 
G01 X-16.2852 Y91.9160 
G01 X-16.3143 Y91.7324 
G01 X-16.3718 Y91.5556 
G01 X-16.4562 Y91.3899 
G01 X-16.5654 Y91.2395 
G01 X-16.6969 Y91.1081 
G01 X-16.8473 Y90.9988 
G01 X-17.0130 Y90.9144 
G01 X-17.1898 Y90.8569 
G01 X-17.3734 Y90.8279 
G01 X-17.5593 Y90.8279 
G01 X-17.7429 Y90.8569 
G01 X-17.9197 Y90.9144 
G01 X-18.0854 Y90.9988 
G01 X-18.2358 Y91.1081 
G01 X-18.3672 Y91.2395 
G01 X-18.4765 Y91.3899 
G01 X-18.5609 Y91.5556 
G01 X-18.6184 Y91.7324 
G01 X-18.6474 Y91.9160 
G00 Z2.5400 
G00 X-21.1874 Y91.9160 
G01 Z-0.1778 F254.00 
G01 X-21.1874 Y92.1019 F408.00 
G01 X-21.1584 Y92.2855 
G01 X-21.1009 Y92.4623 
G01 X-21.0165 Y92.6280 
G01 X-20.9072 Y92.7784 
G01 X-20.7758 Y92.9099 
G01 X-20.6254 Y93.0191 
G01 X-20.4597 Y93.1035 
G01 X-20.2829 Y93.1610 
G01 X-20.0993 Y93.1901 
G01 X-19.9134 Y93.1901 
G01 X-19.7298 Y93.1610 
G01 X-19.5529 Y93.1035 
G01 X-19.3873 Y93.0191 
G01 X-19.2369 Y92.9099 
G01 X-19.1054 Y92.7784 
G01 X-18.9962 Y92.6280 
G01 X-18.9118 Y92.4623 
G01 X-18.8543 Y92.2855 
G01 X-18.8252 Y92.1019 
G01 X-18.8252 Y91.9160 
G01 X-18.8543 Y91.7324 
G01 X-18.9118 Y91.5556 
G01 X-18.9962 Y91.3899 
G01 X-19.1054 Y91.2395 
G01 X-19.2369 Y91.1081 
G01 X-19.3873 Y90.9988 
G01 X-19.5529 Y90.9144 
G01 X-19.7298 Y90.8569 
G01 X-19.9134 Y90.8279 
G01 X-20.0993 Y90.8279 
G01 X-20.2829 Y90.8569 
G01 X-20.4597 Y90.9144 
G01 X-20.6254 Y90.9988 
G01 X-20.7758 Y91.1081 
G01 X-20.9072 Y91.2395 
G01 X-21.0165 Y91.3899 
G01 X-21.1009 Y91.5556 
G01 X-21.1584 Y91.7324 
G01 X-21.1874 Y91.9160 
G00 Z2.5400 
G00 X-23.7274 Y91.9160 
G01 Z-0.1778 F254.00 
G01 X-23.7274 Y92.1019 F408.00 
G01 X-23.6984 Y92.2855 
G01 X-23.6409 Y92.4623 
G01 X-23.5565 Y92.6280 
G01 X-23.4472 Y92.7784 
G01 X-23.3158 Y92.9099 
G01 X-23.1654 Y93.0191 
G01 X-22.9997 Y93.1035 
G01 X-22.8229 Y93.1610 
G01 X-22.6393 Y93.1901 
G01 X-22.4534 Y93.1901 
G01 X-22.2698 Y93.1610 
G01 X-22.0930 Y93.1035 
G01 X-21.9273 Y93.0191 
G01 X-21.7769 Y92.9099 
G01 X-21.6454 Y92.7784 
G01 X-21.5362 Y92.6280 
G01 X-21.4518 Y92.4623 
G01 X-21.3943 Y92.2855 
G01 X-21.3652 Y92.1019 
G01 X-21.3652 Y91.9160 
G01 X-21.3943 Y91.7324 
G01 X-21.4518 Y91.5556 
G01 X-21.5362 Y91.3899 
G01 X-21.6454 Y91.2395 
G01 X-21.7769 Y91.1081 
G01 X-21.9273 Y90.9988 
G01 X-22.0930 Y90.9144 
G01 X-22.2698 Y90.8569 
G01 X-22.4534 Y90.8279 
G01 X-22.6393 Y90.8279 
G01 X-22.8229 Y90.8569 
G01 X-22.9997 Y90.9144 
G01 X-23.1654 Y90.9988 
G01 X-23.3158 Y91.1081 
G01 X-23.4472 Y91.2395 
G01 X-23.5565 Y91.3899 
G01 X-23.6409 Y91.5556 
G01 X-23.6984 Y91.7324 
G01 X-23.7274 Y91.9160 
G00 Z2.5400 
G00 X-26.2674 Y91.9160 
G01 Z-0.1778 F254.00 
G01 X-26.2674 Y92.1019 F408.00 
G01 X-26.2384 Y92.2855 
G01 X-26.1809 Y92.4623 
G01 X-26.0965 Y92.6280 
G01 X-25.9872 Y92.7784 
G01 X-25.8558 Y92.9099 
G01 X-25.7054 Y93.0191 
G01 X-25.5397 Y93.1035 
G01 X-25.3629 Y93.1610 
G01 X-25.1793 Y93.1901 
G01 X-24.9934 Y93.1901 
G01 X-24.8098 Y93.1610 
G01 X-24.6330 Y93.1035 
G01 X-24.4673 Y93.0191 
G01 X-24.3169 Y92.9099 
G01 X-24.1854 Y92.7784 
G01 X-24.0762 Y92.6280 
G01 X-23.9918 Y92.4623 
G01 X-23.9343 Y92.2855 
G01 X-23.9052 Y92.1019 
G01 X-23.9052 Y91.9160 
G01 X-23.9343 Y91.7324 
G01 X-23.9918 Y91.5556 
G01 X-24.0762 Y91.3899 
G01 X-24.1854 Y91.2395 
G01 X-24.3169 Y91.1081 
G01 X-24.4673 Y90.9988 
G01 X-24.6330 Y90.9144 
G01 X-24.8098 Y90.8569 
G01 X-24.9934 Y90.8279 
G01 X-25.1793 Y90.8279 
G01 X-25.3629 Y90.8569 
G01 X-25.5397 Y90.9144 
G01 X-25.7054 Y90.9988 
G01 X-25.8558 Y91.1081 
G01 X-25.9872 Y91.2395 
G01 X-26.0965 Y91.3899 
G01 X-26.1809 Y91.5556 
G01 X-26.2384 Y91.7324 
G01 X-26.2674 Y91.9160 
G00 Z2.5400 
G00 X-28.8074 Y91.9160 
G01 Z-0.1778 F254.00 
G01 X-28.8074 Y92.1019 F408.00 
G01 X-28.7784 Y92.2855 
G01 X-28.7209 Y92.4623 
G01 X-28.6365 Y92.6280 
G01 X-28.5272 Y92.7784 
G01 X-28.3958 Y92.9099 
G01 X-28.2454 Y93.0191 
G01 X-28.0797 Y93.1035 
G01 X-27.9029 Y93.1610 
G01 X-27.7193 Y93.1901 
G01 X-27.5334 Y93.1901 
G01 X-27.3498 Y93.1610 
G01 X-27.1730 Y93.1035 
G01 X-27.0073 Y93.0191 
G01 X-26.8569 Y92.9099 
G01 X-26.7254 Y92.7784 
G01 X-26.6162 Y92.6280 
G01 X-26.5318 Y92.4623 
G01 X-26.4743 Y92.2855 
G01 X-26.4452 Y92.1019 
G01 X-26.4452 Y91.9160 
G01 X-26.4743 Y91.7324 
G01 X-26.5318 Y91.5556 
G01 X-26.6162 Y91.3899 
G01 X-26.7254 Y91.2395 
G01 X-26.8569 Y91.1081 
G01 X-27.0073 Y90.9988 
G01 X-27.1730 Y90.9144 
G01 X-27.3498 Y90.8569 
G01 X-27.5334 Y90.8279 
G01 X-27.7193 Y90.8279 
G01 X-27.9029 Y90.8569 
G01 X-28.0797 Y90.9144 
G01 X-28.2454 Y90.9988 
G01 X-28.3958 Y91.1081 
G01 X-28.5272 Y91.2395 
G01 X-28.6365 Y91.3899 
G01 X-28.7209 Y91.5556 
G01 X-28.7784 Y91.7324 
G01 X-28.8074 Y91.9160 
G00 Z2.5400 
G00 X-31.3474 Y91.9160 
G01 Z-0.1778 F254.00 
G01 X-31.3474 Y92.1019 F408.00 
G01 X-31.3184 Y92.2855 
G01 X-31.2609 Y92.4623 
G01 X-31.1765 Y92.6280 
G01 X-31.0672 Y92.7784 
G01 X-30.9358 Y92.9099 
G01 X-30.7854 Y93.0191 
G01 X-30.6197 Y93.1035 
G01 X-30.4429 Y93.1610 
G01 X-30.2593 Y93.1901 
G01 X-30.0734 Y93.1901 
G01 X-29.8898 Y93.1610 
G01 X-29.7130 Y93.1035 
G01 X-29.5473 Y93.0191 
G01 X-29.3969 Y92.9099 
G01 X-29.2654 Y92.7784 
G01 X-29.1562 Y92.6280 
G01 X-29.0718 Y92.4623 
G01 X-29.0143 Y92.2855 
G01 X-28.9852 Y92.1019 
G01 X-28.9852 Y91.9160 
G01 X-29.0143 Y91.7324 
G01 X-29.0718 Y91.5556 
G01 X-29.1562 Y91.3899 
G01 X-29.2654 Y91.2395 
G01 X-29.3969 Y91.1081 
G01 X-29.5473 Y90.9988 
G01 X-29.7130 Y90.9144 
G01 X-29.8898 Y90.8569 
G01 X-30.0734 Y90.8279 
G01 X-30.2593 Y90.8279 
G01 X-30.4429 Y90.8569 
G01 X-30.6197 Y90.9144 
G01 X-30.7854 Y90.9988 
G01 X-30.9358 Y91.1081 
G01 X-31.0672 Y91.2395 
G01 X-31.1765 Y91.3899 
G01 X-31.2609 Y91.5556 
G01 X-31.3184 Y91.7324 
G01 X-31.3474 Y91.9160 
G00 Z2.5400 
G00 X-33.8874 Y91.9160 
G01 Z-0.1778 F254.00 
G01 X-33.8874 Y92.1019 F408.00 
G01 X-33.8584 Y92.2855 
G01 X-33.8009 Y92.4623 
G01 X-33.7165 Y92.6280 
G01 X-33.6072 Y92.7784 
G01 X-33.4758 Y92.9099 
G01 X-33.3254 Y93.0191 
G01 X-33.1597 Y93.1035 
G01 X-32.9829 Y93.1610 
G01 X-32.7993 Y93.1901 
G01 X-32.6134 Y93.1901 
G01 X-32.4298 Y93.1610 
G01 X-32.2529 Y93.1035 
G01 X-32.0873 Y93.0191 
G01 X-31.9369 Y92.9099 
G01 X-31.8054 Y92.7784 
G01 X-31.6962 Y92.6280 
G01 X-31.6118 Y92.4623 
G01 X-31.5543 Y92.2855 
G01 X-31.5252 Y92.1019 
G01 X-31.5252 Y91.9160 
G01 X-31.5543 Y91.7324 
G01 X-31.6118 Y91.5556 
G01 X-31.6962 Y91.3899 
G01 X-31.8054 Y91.2395 
G01 X-31.9369 Y91.1081 
G01 X-32.0873 Y90.9988 
G01 X-32.2529 Y90.9144 
G01 X-32.4298 Y90.8569 
G01 X-32.6134 Y90.8279 
G01 X-32.7993 Y90.8279 
G01 X-32.9829 Y90.8569 
G01 X-33.1597 Y90.9144 
G01 X-33.3254 Y90.9988 
G01 X-33.4758 Y91.1081 
G01 X-33.6072 Y91.2395 
G01 X-33.7165 Y91.3899 
G01 X-33.8009 Y91.5556 
G01 X-33.8584 Y91.7324 
G01 X-33.8874 Y91.9160 
G00 Z2.5400 
G00 X-8.3264 Y84.2466 
G01 Z-0.1778 F254.00 
G01 X-8.3264 Y84.4325 F408.00 
G01 X-8.2973 Y84.6162 
G01 X-8.2398 Y84.7930 
G01 X-8.1554 Y84.9586 
G01 X-8.0462 Y85.1090 
G01 X-7.9147 Y85.2405 
G01 X-7.7643 Y85.3497 
G01 X-7.5986 Y85.4341 
G01 X-7.4218 Y85.4916 
G01 X-7.2382 Y85.5207 
G01 X-7.0523 Y85.5207 
G01 X-6.8687 Y85.4916 
G01 X-6.6919 Y85.4341 
G01 X-6.5262 Y85.3497 
G01 X-6.3758 Y85.2405 
G01 X-6.2444 Y85.1090 
G01 X-6.1351 Y84.9586 
G01 X-6.0507 Y84.7930 
G01 X-5.9932 Y84.6162 
G01 X-5.9642 Y84.4325 
G01 X-5.9642 Y84.2466 
G01 X-5.9932 Y84.0630 
G01 X-6.0507 Y83.8862 
G01 X-6.1351 Y83.7206 
G01 X-6.2444 Y83.5701 
G01 X-6.3758 Y83.4387 
G01 X-6.5262 Y83.3294 
G01 X-6.6919 Y83.2450 
G01 X-6.8687 Y83.1876 
G01 X-7.0523 Y83.1585 
G01 X-7.2382 Y83.1585 
G01 X-7.4218 Y83.1876 
G01 X-7.5986 Y83.2450 
G01 X-7.7643 Y83.3294 
G01 X-7.9147 Y83.4387 
G01 X-8.0462 Y83.5701 
G01 X-8.1554 Y83.7206 
G01 X-8.2398 Y83.8862 
G01 X-8.2973 Y84.0630 
G01 X-8.3264 Y84.2466 
G00 Z2.5400 
G00 X-8.3264 Y86.7866 
G01 Z-0.1778 F254.00 
G01 X-8.3264 Y86.9725 F408.00 
G01 X-8.2973 Y87.1562 
G01 X-8.2398 Y87.3330 
G01 X-8.1554 Y87.4986 
G01 X-8.0462 Y87.6490 
G01 X-7.9147 Y87.7805 
G01 X-7.7643 Y87.8897 
G01 X-7.5986 Y87.9741 
G01 X-7.4218 Y88.0316 
G01 X-7.2382 Y88.0607 
G01 X-7.0523 Y88.0607 
G01 X-6.8687 Y88.0316 
G01 X-6.6919 Y87.9741 
G01 X-6.5262 Y87.8897 
G01 X-6.3758 Y87.7805 
G01 X-6.2444 Y87.6490 
G01 X-6.1351 Y87.4986 
G01 X-6.0507 Y87.3330 
G01 X-5.9932 Y87.1562 
G01 X-5.9642 Y86.9725 
G01 X-5.9642 Y86.7866 
G01 X-5.9932 Y86.6030 
G01 X-6.0507 Y86.4262 
G01 X-6.1351 Y86.2606 
G01 X-6.2444 Y86.1101 
G01 X-6.3758 Y85.9787 
G01 X-6.5262 Y85.8694 
G01 X-6.6919 Y85.7850 
G01 X-6.8687 Y85.7276 
G01 X-7.0523 Y85.6985 
G01 X-7.2382 Y85.6985 
G01 X-7.4218 Y85.7276 
G01 X-7.5986 Y85.7850 
G01 X-7.7643 Y85.8694 
G01 X-7.9147 Y85.9787 
G01 X-8.0462 Y86.1101 
G01 X-8.1554 Y86.2606 
G01 X-8.2398 Y86.4262 
G01 X-8.2973 Y86.6030 
G01 X-8.3264 Y86.7866 
G00 Z2.5400 
G00 X-41.2440 Y86.2809 
G01 Z-0.1778 F254.00 
G01 X-41.2440 Y86.4908 F408.00 
G01 X-41.2111 Y86.6981 
G01 X-41.1463 Y86.8977 
G01 X-41.0510 Y87.0847 
G01 X-40.9276 Y87.2546 
G01 X-40.7792 Y87.4030 
G01 X-40.6094 Y87.5264 
G01 X-40.4224 Y87.6216 
G01 X-40.2227 Y87.6865 
G01 X-40.0154 Y87.7193 
G01 X-39.8055 Y87.7193 
G01 X-39.5982 Y87.6865 
G01 X-39.3986 Y87.6216 
G01 X-39.2116 Y87.5264 
G01 X-39.0418 Y87.4030 
G01 X-38.8933 Y87.2546 
G01 X-38.7700 Y87.0847 
G01 X-38.6747 Y86.8977 
G01 X-38.6098 Y86.6981 
G01 X-38.5770 Y86.4908 
G01 X-38.5770 Y86.2809 
G01 X-38.6098 Y86.0736 
G01 X-38.6747 Y85.8740 
G01 X-38.7700 Y85.6869 
G01 X-38.8933 Y85.5171 
G01 X-39.0418 Y85.3687 
G01 X-39.2116 Y85.2453 
G01 X-39.3986 Y85.1500 
G01 X-39.5982 Y85.0852 
G01 X-39.8055 Y85.0523 
G01 X-40.0154 Y85.0523 
G01 X-40.2227 Y85.0852 
G01 X-40.4224 Y85.1500 
G01 X-40.6094 Y85.2453 
G01 X-40.7792 Y85.3687 
G01 X-40.9276 Y85.5171 
G01 X-41.0510 Y85.6869 
G01 X-41.1463 Y85.8740 
G01 X-41.2111 Y86.0736 
G01 X-41.2440 Y86.2809 
G00 Z2.5400 
G00 X-41.2440 Y79.7531 
G01 Z-0.1778 F254.00 
G01 X-41.2440 Y79.9630 F408.00 
G01 X-41.2111 Y80.1703 
G01 X-41.1463 Y80.3699 
G01 X-41.0510 Y80.5569 
G01 X-40.9276 Y80.7268 
G01 X-40.7792 Y80.8752 
G01 X-40.6094 Y80.9986 
G01 X-40.4224 Y81.0938 
G01 X-40.2227 Y81.1587 
G01 X-40.0154 Y81.1915 
G01 X-39.8055 Y81.1915 
G01 X-39.5982 Y81.1587 
G01 X-39.3986 Y81.0938 
G01 X-39.2116 Y80.9986 
G01 X-39.0418 Y80.8752 
G01 X-38.8933 Y80.7268 
G01 X-38.7700 Y80.5569 
G01 X-38.6747 Y80.3699 
G01 X-38.6098 Y80.1703 
G01 X-38.5770 Y79.9630 
G01 X-38.5770 Y79.7531 
G01 X-38.6098 Y79.5458 
G01 X-38.6747 Y79.3462 
G01 X-38.7700 Y79.1591 
G01 X-38.8933 Y78.9893 
G01 X-39.0418 Y78.8409 
G01 X-39.2116 Y78.7175 
G01 X-39.3986 Y78.6222 
G01 X-39.5982 Y78.5574 
G01 X-39.8055 Y78.5245 
G01 X-40.0154 Y78.5245 
G01 X-40.2227 Y78.5574 
G01 X-40.4224 Y78.6222 
G01 X-40.6094 Y78.7175 
G01 X-40.7792 Y78.8409 
G01 X-40.9276 Y78.9893 
G01 X-41.0510 Y79.1591 
G01 X-41.1463 Y79.3462 
G01 X-41.2111 Y79.5458 
G01 X-41.2440 Y79.7531 
G00 Z2.5400 
G00 X-8.4534 Y84.2366 
G01 Z-0.1778 F254.00 
G01 X-8.4534 Y84.4425 F408.00 
G01 X-8.4212 Y84.6459 
G01 X-8.3575 Y84.8417 
G01 X-8.2640 Y85.0252 
G01 X-8.1430 Y85.1917 
G01 X-7.9974 Y85.3373 
G01 X-7.8309 Y85.4584 
G01 X-7.6474 Y85.5518 
G01 X-7.4697 Y85.6096 
G01 X-7.6474 Y85.6673 
G01 X-7.8309 Y85.7608 
G01 X-7.9974 Y85.8818 
G01 X-8.1430 Y86.0274 
G01 X-8.2640 Y86.1940 
G01 X-8.3575 Y86.3774 
G01 X-8.4212 Y86.5733 
G01 X-8.4534 Y86.7766 
G01 X-8.4534 Y86.9825 
G01 X-8.4212 Y87.1859 
G01 X-8.3575 Y87.3817 
G01 X-8.2640 Y87.5652 
G01 X-8.1430 Y87.7318 
G01 X-7.9974 Y87.8773 
G01 X-7.8309 Y87.9984 
G01 X-7.6474 Y88.0918 
G01 X-7.4516 Y88.1555 
G01 X-7.2482 Y88.1877 
G01 X-7.0423 Y88.1877 
G01 X-6.8389 Y88.1555 
G01 X-6.6431 Y88.0918 
G01 X-6.4597 Y87.9984 
G01 X-6.2931 Y87.8773 
G01 X-6.1475 Y87.7318 
G01 X-6.0265 Y87.5652 
G01 X-5.9330 Y87.3817 
G01 X-5.8694 Y87.1859 
G01 X-5.8372 Y86.9825 
G01 X-5.8372 Y86.7766 
G01 X-5.8694 Y86.5733 
G01 X-5.9330 Y86.3774 
G01 X-6.0265 Y86.1940 
G01 X-6.1475 Y86.0274 
G01 X-6.2931 Y85.8818 
G01 X-6.4597 Y85.7608 
G01 X-6.6431 Y85.6673 
G01 X-6.8208 Y85.6096 
G01 X-6.6431 Y85.5518 
G01 X-6.4597 Y85.4584 
G01 X-6.2931 Y85.3373 
G01 X-6.1475 Y85.1917 
G01 X-6.0265 Y85.0252 
G01 X-5.9330 Y84.8417 
G01 X-5.8694 Y84.6459 
G01 X-5.8372 Y84.4425 
G01 X-5.8372 Y84.2366 
G01 X-5.8694 Y84.0333 
G01 X-5.9330 Y83.8374 
G01 X-6.0265 Y83.6540 
G01 X-6.1475 Y83.4874 
G01 X-6.2931 Y83.3418 
G01 X-6.4597 Y83.2208 
G01 X-6.6431 Y83.1273 
G01 X-6.8389 Y83.0637 
G01 X-7.0423 Y83.0315 
G01 X-7.2482 Y83.0315 
G01 X-7.4516 Y83.0637 
G01 X-7.6474 Y83.1273 
G01 X-7.8309 Y83.2208 
G01 X-7.9974 Y83.3418 
G01 X-8.1430 Y83.4874 
G01 X-8.2640 Y83.6540 
G01 X-8.3575 Y83.8374 
G01 X-8.4212 Y84.0333 
G01 X-8.4534 Y84.2366 
G00 Z2.5400 
G00 X-15.9146 Y93.3171 
G01 Z-0.1778 F254.00 
G01 X-13.9380 Y93.3171 F408.00 
G01 X-13.8444 Y93.2920 
G01 X-13.7604 Y93.2435 
G01 X-13.6918 Y93.1749 
G01 X-13.6433 Y93.0909 
G01 X-13.6182 Y92.9972 
G01 X-13.6182 Y91.0207 
G01 X-13.6433 Y90.9270 
G01 X-13.6918 Y90.8430 
G01 X-13.7604 Y90.7744 
G01 X-13.8444 Y90.7260 
G01 X-13.9380 Y90.7009 
G01 X-15.9146 Y90.7009 
G01 X-16.0083 Y90.7260 
G01 X-16.0923 Y90.7744 
G01 X-16.1608 Y90.8430 
G01 X-16.2093 Y90.9270 
G01 X-16.2344 Y91.0207 
G01 X-16.2344 Y91.5673 
G01 X-16.2541 Y91.5068 
G01 X-16.3476 Y91.3234 
G01 X-16.4686 Y91.1568 
G01 X-16.6142 Y91.0112 
G01 X-16.7807 Y90.8902 
G01 X-16.9642 Y90.7967 
G01 X-17.1600 Y90.7331 
G01 X-17.3634 Y90.7009 
G01 X-17.5693 Y90.7009 
G01 X-17.7727 Y90.7331 
G01 X-17.9685 Y90.7967 
G01 X-18.1519 Y90.8902 
G01 X-18.3185 Y91.0112 
G01 X-18.4641 Y91.1568 
G01 X-18.5851 Y91.3234 
G01 X-18.6786 Y91.5068 
G01 X-18.7363 Y91.6845 
G01 X-18.7941 Y91.5068 
G01 X-18.8876 Y91.3234 
G01 X-19.0086 Y91.1568 
G01 X-19.1542 Y91.0112 
G01 X-19.3207 Y90.8902 
G01 X-19.5042 Y90.7967 
G01 X-19.7000 Y90.7331 
G01 X-19.9034 Y90.7009 
G01 X-20.1093 Y90.7009 
G01 X-20.3127 Y90.7331 
G01 X-20.5085 Y90.7967 
G01 X-20.6919 Y90.8902 
G01 X-20.8585 Y91.0112 
G01 X-21.0041 Y91.1568 
G01 X-21.1251 Y91.3234 
G01 X-21.2186 Y91.5068 
G01 X-21.2763 Y91.6845 
G01 X-21.3341 Y91.5068 
G01 X-21.4276 Y91.3234 
G01 X-21.5486 Y91.1568 
G01 X-21.6942 Y91.0112 
G01 X-21.8607 Y90.8902 
G01 X-22.0442 Y90.7967 
G01 X-22.2400 Y90.7331 
G01 X-22.4434 Y90.7009 
G01 X-22.6493 Y90.7009 
G01 X-22.8527 Y90.7331 
G01 X-23.0485 Y90.7967 
G01 X-23.2319 Y90.8902 
G01 X-23.3985 Y91.0112 
G01 X-23.5441 Y91.1568 
G01 X-23.6651 Y91.3234 
G01 X-23.7586 Y91.5068 
G01 X-23.8163 Y91.6845 
G01 X-23.8741 Y91.5068 
G01 X-23.9676 Y91.3234 
G01 X-24.0886 Y91.1568 
G01 X-24.2342 Y91.0112 
G01 X-24.4007 Y90.8902 
G01 X-24.5842 Y90.7967 
G01 X-24.7800 Y90.7331 
G01 X-24.9834 Y90.7009 
G01 X-25.1893 Y90.7009 
G01 X-25.3926 Y90.7331 
G01 X-25.5885 Y90.7967 
G01 X-25.7719 Y90.8902 
G01 X-25.9385 Y91.0112 
G01 X-26.0841 Y91.1568 
G01 X-26.2051 Y91.3234 
G01 X-26.2986 Y91.5068 
G01 X-26.3563 Y91.6845 
G01 X-26.4141 Y91.5068 
G01 X-26.5076 Y91.3234 
G01 X-26.6286 Y91.1568 
G01 X-26.7742 Y91.0112 
G01 X-26.9407 Y90.8902 
G01 X-27.1242 Y90.7967 
G01 X-27.3200 Y90.7331 
G01 X-27.5234 Y90.7009 
G01 X-27.7293 Y90.7009 
G01 X-27.9327 Y90.7331 
G01 X-28.1285 Y90.7967 
G01 X-28.3119 Y90.8902 
G01 X-28.4785 Y91.0112 
G01 X-28.6241 Y91.1568 
G01 X-28.7451 Y91.3234 
G01 X-28.8386 Y91.5068 
G01 X-28.8963 Y91.6845 
G01 X-28.9541 Y91.5068 
G01 X-29.0476 Y91.3234 
G01 X-29.1686 Y91.1568 
G01 X-29.3142 Y91.0112 
G01 X-29.4807 Y90.8902 
G01 X-29.6642 Y90.7967 
G01 X-29.8600 Y90.7331 
G01 X-30.0634 Y90.7009 
G01 X-30.2693 Y90.7009 
G01 X-30.4727 Y90.7331 
G01 X-30.6685 Y90.7967 
G01 X-30.8519 Y90.8902 
G01 X-31.0185 Y91.0112 
G01 X-31.1641 Y91.1568 
G01 X-31.2851 Y91.3234 
G01 X-31.3786 Y91.5068 
G01 X-31.4363 Y91.6845 
G01 X-31.4941 Y91.5068 
G01 X-31.5876 Y91.3234 
G01 X-31.7086 Y91.1568 
G01 X-31.8542 Y91.0112 
G01 X-32.0207 Y90.8902 
G01 X-32.2042 Y90.7967 
G01 X-32.4000 Y90.7331 
G01 X-32.6034 Y90.7009 
G01 X-32.8093 Y90.7009 
G01 X-33.0127 Y90.7331 
G01 X-33.2085 Y90.7967 
G01 X-33.3919 Y90.8902 
G01 X-33.5585 Y91.0112 
G01 X-33.7041 Y91.1568 
G01 X-33.8251 Y91.3234 
G01 X-33.9186 Y91.5068 
G01 X-33.9822 Y91.7026 
G01 X-34.0144 Y91.9060 
G01 X-34.0144 Y92.1119 
G01 X-33.9822 Y92.3153 
G01 X-33.9186 Y92.5111 
G01 X-33.8251 Y92.6946 
G01 X-33.7041 Y92.8611 
G01 X-33.5585 Y93.0067 
G01 X-33.3919 Y93.1277 
G01 X-33.2085 Y93.2212 
G01 X-33.0127 Y93.2848 
G01 X-32.8093 Y93.3171 
G01 X-32.6034 Y93.3171 
G01 X-32.4000 Y93.2848 
G01 X-32.2042 Y93.2212 
G01 X-32.0207 Y93.1277 
G01 X-31.8542 Y93.0067 
G01 X-31.7086 Y92.8611 
G01 X-31.5876 Y92.6946 
G01 X-31.4941 Y92.5111 
G01 X-31.4363 Y92.3334 
G01 X-31.3786 Y92.5111 
G01 X-31.2851 Y92.6946 
G01 X-31.1641 Y92.8611 
G01 X-31.0185 Y93.0067 
G01 X-30.8519 Y93.1277 
G01 X-30.6685 Y93.2212 
G01 X-30.4727 Y93.2848 
G01 X-30.2693 Y93.3171 
G01 X-30.0634 Y93.3171 
G01 X-29.8600 Y93.2848 
G01 X-29.6642 Y93.2212 
G01 X-29.4807 Y93.1277 
G01 X-29.3142 Y93.0067 
G01 X-29.1686 Y92.8611 
G01 X-29.0476 Y92.6946 
G01 X-28.9541 Y92.5111 
G01 X-28.8963 Y92.3334 
G01 X-28.8386 Y92.5111 
G01 X-28.7451 Y92.6946 
G01 X-28.6241 Y92.8611 
G01 X-28.4785 Y93.0067 
G01 X-28.3119 Y93.1277 
G01 X-28.1285 Y93.2212 
G01 X-27.9327 Y93.2848 
G01 X-27.7293 Y93.3171 
G01 X-27.5234 Y93.3171 
G01 X-27.3200 Y93.2848 
G01 X-27.1242 Y93.2212 
G01 X-26.9407 Y93.1277 
G01 X-26.7742 Y93.0067 
G01 X-26.6286 Y92.8611 
G01 X-26.5076 Y92.6946 
G01 X-26.4141 Y92.5111 
G01 X-26.3563 Y92.3334 
G01 X-26.2986 Y92.5111 
G01 X-26.2051 Y92.6946 
G01 X-26.0841 Y92.8611 
G01 X-25.9385 Y93.0067 
G01 X-25.7719 Y93.1277 
G01 X-25.5885 Y93.2212 
G01 X-25.3926 Y93.2848 
G01 X-25.1893 Y93.3171 
G01 X-24.9834 Y93.3171 
G01 X-24.7800 Y93.2848 
G01 X-24.5842 Y93.2212 
G01 X-24.4007 Y93.1277 
G01 X-24.2342 Y93.0067 
G01 X-24.0886 Y92.8611 
G01 X-23.9676 Y92.6946 
G01 X-23.8741 Y92.5111 
G01 X-23.8163 Y92.3334 
G01 X-23.7586 Y92.5111 
G01 X-23.6651 Y92.6946 
G01 X-23.5441 Y92.8611 
G01 X-23.3985 Y93.0067 
G01 X-23.2319 Y93.1277 
G01 X-23.0485 Y93.2212 
G01 X-22.8527 Y93.2848 
G01 X-22.6493 Y93.3171 
G01 X-22.4434 Y93.3171 
G01 X-22.2400 Y93.2848 
G01 X-22.0442 Y93.2212 
G01 X-21.8607 Y93.1277 
G01 X-21.6942 Y93.0067 
G01 X-21.5486 Y92.8611 
G01 X-21.4276 Y92.6946 
G01 X-21.3341 Y92.5111 
G01 X-21.2763 Y92.3334 
G01 X-21.2186 Y92.5111 
G01 X-21.1251 Y92.6946 
G01 X-21.0041 Y92.8611 
G01 X-20.8585 Y93.0067 
G01 X-20.6919 Y93.1277 
G01 X-20.5085 Y93.2212 
G01 X-20.3127 Y93.2848 
G01 X-20.1093 Y93.3171 
G01 X-19.9034 Y93.3171 
G01 X-19.7000 Y93.2848 
G01 X-19.5042 Y93.2212 
G01 X-19.3207 Y93.1277 
G01 X-19.1542 Y93.0067 
G01 X-19.0086 Y92.8611 
G01 X-18.8876 Y92.6946 
G01 X-18.7941 Y92.5111 
G01 X-18.7363 Y92.3334 
G01 X-18.6786 Y92.5111 
G01 X-18.5851 Y92.6946 
G01 X-18.4641 Y92.8611 
G01 X-18.3185 Y93.0067 
G01 X-18.1519 Y93.1277 
G01 X-17.9685 Y93.2212 
G01 X-17.7727 Y93.2848 
G01 X-17.5693 Y93.3171 
G01 X-17.3634 Y93.3171 
G01 X-17.1600 Y93.2848 
G01 X-16.9642 Y93.2212 
G01 X-16.7807 Y93.1277 
G01 X-16.6142 Y93.0067 
G01 X-16.4686 Y92.8611 
G01 X-16.3476 Y92.6946 
G01 X-16.2541 Y92.5111 
G01 X-16.2344 Y92.4506 
G01 X-16.2344 Y92.9972 
G01 X-16.2093 Y93.0909 
G01 X-16.1608 Y93.1749 
G01 X-16.0923 Y93.2435 
G01 X-16.0083 Y93.2920 
G01 X-15.9146 Y93.3171 
G00 Z2.5400 
G00 X-41.3710 Y86.2709 
G01 Z-0.1778 F254.00 
G01 X-41.3710 Y86.5008 F408.00 
G01 X-41.3350 Y86.7278 
G01 X-41.2640 Y86.9465 
G01 X-41.1596 Y87.1513 
G01 X-41.0245 Y87.3373 
G01 X-40.8619 Y87.4998 
G01 X-40.6760 Y87.6350 
G01 X-40.4711 Y87.7393 
G01 X-40.2525 Y87.8104 
G01 X-40.0254 Y87.8463 
G01 X-39.7955 Y87.8463 
G01 X-39.5685 Y87.8104 
G01 X-39.3498 Y87.7393 
G01 X-39.1450 Y87.6350 
G01 X-38.9590 Y87.4998 
G01 X-38.7965 Y87.3373 
G01 X-38.6613 Y87.1513 
G01 X-38.5570 Y86.9465 
G01 X-38.4859 Y86.7278 
G01 X-38.4500 Y86.5008 
G01 X-38.4500 Y86.2709 
G01 X-38.4859 Y86.0438 
G01 X-38.5570 Y85.8252 
G01 X-38.6613 Y85.6204 
G01 X-38.7965 Y85.4344 
G01 X-38.9590 Y85.2718 
G01 X-39.1450 Y85.1367 
G01 X-39.3498 Y85.0323 
G01 X-39.5685 Y84.9613 
G01 X-39.7955 Y84.9253 
G01 X-40.0254 Y84.9253 
G01 X-40.2525 Y84.9613 
G01 X-40.4711 Y85.0323 
G01 X-40.6760 Y85.1367 
G01 X-40.8619 Y85.2718 
G01 X-41.0245 Y85.4344 
G01 X-41.1596 Y85.6204 
G01 X-41.2640 Y85.8252 
G01 X-41.3350 Y86.0438 
G01 X-41.3710 Y86.2709 
G00 Z2.5400 
G00 X-41.3710 Y79.7431 
G01 Z-0.1778 F254.00 
G01 X-41.3710 Y79.9730 F408.00 
G01 X-41.3350 Y80.2000 
G01 X-41.2640 Y80.4187 
G01 X-41.1596 Y80.6235 
G01 X-41.0245 Y80.8095 
G01 X-40.8619 Y80.9720 
G01 X-40.6760 Y81.1072 
G01 X-40.4711 Y81.2115 
G01 X-40.2525 Y81.2826 
G01 X-40.0254 Y81.3185 
G01 X-39.7955 Y81.3185 
G01 X-39.5685 Y81.2826 
G01 X-39.3498 Y81.2115 
G01 X-39.1450 Y81.1072 
G01 X-38.9590 Y80.9720 
G01 X-38.7965 Y80.8095 
G01 X-38.6613 Y80.6235 
G01 X-38.5570 Y80.4187 
G01 X-38.4859 Y80.2000 
G01 X-38.4500 Y79.9730 
G01 X-38.4500 Y79.7431 
G01 X-38.4859 Y79.5160 
G01 X-38.5570 Y79.2974 
G01 X-38.6613 Y79.0926 
G01 X-38.7965 Y78.9066 
G01 X-38.9590 Y78.7440 
G01 X-39.1450 Y78.6089 
G01 X-39.3498 Y78.5045 
G01 X-39.5685 Y78.4335 
G01 X-39.7955 Y78.3975 
G01 X-40.0254 Y78.3975 
G01 X-40.2525 Y78.4335 
G01 X-40.4711 Y78.5045 
G01 X-40.6760 Y78.6089 
G01 X-40.8619 Y78.7440 
G01 X-41.0245 Y78.9066 
G01 X-41.1596 Y79.0926 
G01 X-41.2640 Y79.2974 
G01 X-41.3350 Y79.5160 
G01 X-41.3710 Y79.7431 
G00 Z2.5400 
G00 X-8.5804 Y84.2266 
G01 Z-0.1778 F254.00 
G01 X-8.5804 Y84.4525 F408.00 
G01 X-8.5450 Y84.6756 
G01 X-8.4752 Y84.8905 
G01 X-8.3727 Y85.0917 
G01 X-8.2399 Y85.2745 
G01 X-8.0802 Y85.4342 
G01 X-7.8974 Y85.5670 
G01 X-7.8138 Y85.6096 
G01 X-7.8974 Y85.6522 
G01 X-8.0802 Y85.7849 
G01 X-8.2399 Y85.9447 
G01 X-8.3727 Y86.1274 
G01 X-8.4752 Y86.3287 
G01 X-8.5450 Y86.5435 
G01 X-8.5804 Y86.7666 
G01 X-8.5804 Y86.9925 
G01 X-8.5450 Y87.2156 
G01 X-8.4752 Y87.4305 
G01 X-8.3727 Y87.6317 
G01 X-8.2399 Y87.8145 
G01 X-8.0802 Y87.9742 
G01 X-7.8974 Y88.1070 
G01 X-7.6962 Y88.2095 
G01 X-7.4813 Y88.2793 
G01 X-7.2582 Y88.3147 
G01 X-7.0323 Y88.3147 
G01 X-6.8092 Y88.2793 
G01 X-6.5944 Y88.2095 
G01 X-6.3931 Y88.1070 
G01 X-6.2104 Y87.9742 
G01 X-6.0506 Y87.8145 
G01 X-5.9179 Y87.6317 
G01 X-5.8153 Y87.4305 
G01 X-5.7455 Y87.2156 
G01 X-5.7102 Y86.9925 
G01 X-5.7102 Y86.7666 
G01 X-5.7455 Y86.5435 
G01 X-5.8153 Y86.3287 
G01 X-5.9179 Y86.1274 
G01 X-6.0506 Y85.9447 
G01 X-6.2104 Y85.7849 
G01 X-6.3931 Y85.6522 
G01 X-6.4767 Y85.6096 
G01 X-6.3931 Y85.5670 
G01 X-6.2104 Y85.4342 
G01 X-6.0506 Y85.2745 
G01 X-5.9179 Y85.0917 
G01 X-5.8153 Y84.8905 
G01 X-5.7455 Y84.6756 
G01 X-5.7102 Y84.4525 
G01 X-5.7102 Y84.2266 
G01 X-5.7455 Y84.0035 
G01 X-5.8153 Y83.7887 
G01 X-5.9179 Y83.5874 
G01 X-6.0506 Y83.4047 
G01 X-6.2104 Y83.2449 
G01 X-6.3931 Y83.1122 
G01 X-6.5944 Y83.0096 
G01 X-6.8092 Y82.9398 
G01 X-7.0323 Y82.9045 
G01 X-7.2582 Y82.9045 
G01 X-7.4813 Y82.9398 
G01 X-7.6962 Y83.0096 
G01 X-7.8974 Y83.1122 
G01 X-8.0802 Y83.2449 
G01 X-8.2399 Y83.4047 
G01 X-8.3727 Y83.5874 
G01 X-8.4752 Y83.7887 
G01 X-8.5450 Y84.0035 
G01 X-8.5804 Y84.2266 
G00 Z2.5400 
G00 X-15.9313 Y93.4441 
G01 Z-0.1778 F254.00 
G01 X-13.9213 Y93.4441 F408.00 
G01 X-13.7954 Y93.4103 
G01 X-13.6824 Y93.3451 
G01 X-13.5902 Y93.2529 
G01 X-13.5250 Y93.1399 
G01 X-13.4912 Y93.0140 
G01 X-13.4912 Y91.0040 
G01 X-13.5250 Y90.8780 
G01 X-13.5902 Y90.7650 
G01 X-13.6824 Y90.6728 
G01 X-13.7954 Y90.6076 
G01 X-13.9213 Y90.5739 
G01 X-15.9313 Y90.5739 
G01 X-16.0573 Y90.6076 
G01 X-16.1703 Y90.6728 
G01 X-16.2625 Y90.7650 
G01 X-16.3277 Y90.8780 
G01 X-16.3614 Y91.0040 
G01 X-16.3614 Y91.0882 
G01 X-16.3717 Y91.0741 
G01 X-16.5314 Y90.9143 
G01 X-16.7142 Y90.7816 
G01 X-16.9154 Y90.6790 
G01 X-17.1303 Y90.6092 
G01 X-17.3534 Y90.5739 
G01 X-17.5793 Y90.5739 
G01 X-17.8024 Y90.6092 
G01 X-18.0172 Y90.6790 
G01 X-18.2185 Y90.7816 
G01 X-18.4012 Y90.9143 
G01 X-18.5610 Y91.0741 
G01 X-18.6937 Y91.2568 
G01 X-18.7363 Y91.3404 
G01 X-18.7789 Y91.2568 
G01 X-18.9117 Y91.0741 
G01 X-19.0714 Y90.9143 
G01 X-19.2542 Y90.7816 
G01 X-19.4554 Y90.6790 
G01 X-19.6703 Y90.6092 
G01 X-19.8934 Y90.5739 
G01 X-20.1193 Y90.5739 
G01 X-20.3424 Y90.6092 
G01 X-20.5572 Y90.6790 
G01 X-20.7585 Y90.7816 
G01 X-20.9412 Y90.9143 
G01 X-21.1010 Y91.0741 
G01 X-21.2337 Y91.2568 
G01 X-21.2763 Y91.3404 
G01 X-21.3189 Y91.2568 
G01 X-21.4517 Y91.0741 
G01 X-21.6114 Y90.9143 
G01 X-21.7942 Y90.7816 
G01 X-21.9954 Y90.6790 
G01 X-22.2103 Y90.6092 
G01 X-22.4334 Y90.5739 
G01 X-22.6593 Y90.5739 
G01 X-22.8824 Y90.6092 
G01 X-23.0972 Y90.6790 
G01 X-23.2985 Y90.7816 
G01 X-23.4812 Y90.9143 
G01 X-23.6410 Y91.0741 
G01 X-23.7737 Y91.2568 
G01 X-23.8163 Y91.3404 
G01 X-23.8589 Y91.2568 
G01 X-23.9917 Y91.0741 
G01 X-24.1514 Y90.9143 
G01 X-24.3342 Y90.7816 
G01 X-24.5354 Y90.6790 
G01 X-24.7503 Y90.6092 
G01 X-24.9734 Y90.5739 
G01 X-25.1993 Y90.5739 
G01 X-25.4224 Y90.6092 
G01 X-25.6372 Y90.6790 
G01 X-25.8385 Y90.7816 
G01 X-26.0212 Y90.9143 
G01 X-26.1810 Y91.0741 
G01 X-26.3137 Y91.2568 
G01 X-26.3563 Y91.3404 
G01 X-26.3989 Y91.2568 
G01 X-26.5317 Y91.0741 
G01 X-26.6914 Y90.9143 
G01 X-26.8742 Y90.7816 
G01 X-27.0754 Y90.6790 
G01 X-27.2903 Y90.6092 
G01 X-27.5134 Y90.5739 
G01 X-27.7393 Y90.5739 
G01 X-27.9624 Y90.6092 
G01 X-28.1772 Y90.6790 
G01 X-28.3785 Y90.7816 
G01 X-28.5612 Y90.9143 
G01 X-28.7210 Y91.0741 
G01 X-28.8537 Y91.2568 
G01 X-28.8963 Y91.3404 
G01 X-28.9389 Y91.2568 
G01 X-29.0717 Y91.0741 
G01 X-29.2314 Y90.9143 
G01 X-29.4142 Y90.7816 
G01 X-29.6154 Y90.6790 
G01 X-29.8303 Y90.6092 
G01 X-30.0534 Y90.5739 
G01 X-30.2793 Y90.5739 
G01 X-30.5024 Y90.6092 
G01 X-30.7172 Y90.6790 
G01 X-30.9185 Y90.7816 
G01 X-31.1012 Y90.9143 
G01 X-31.2610 Y91.0741 
G01 X-31.3937 Y91.2568 
G01 X-31.4363 Y91.3404 
G01 X-31.4789 Y91.2568 
G01 X-31.6117 Y91.0741 
G01 X-31.7714 Y90.9143 
G01 X-31.9542 Y90.7816 
G01 X-32.1554 Y90.6790 
G01 X-32.3703 Y90.6092 
G01 X-32.5934 Y90.5739 
G01 X-32.8193 Y90.5739 
G01 X-33.0424 Y90.6092 
G01 X-33.2572 Y90.6790 
G01 X-33.4585 Y90.7816 
G01 X-33.6412 Y90.9143 
G01 X-33.8010 Y91.0741 
G01 X-33.9337 Y91.2568 
G01 X-34.0363 Y91.4581 
G01 X-34.1061 Y91.6729 
G01 X-34.1414 Y91.8960 
G01 X-34.1414 Y92.1219 
G01 X-34.1061 Y92.3450 
G01 X-34.0363 Y92.5598 
G01 X-33.9337 Y92.7611 
G01 X-33.8010 Y92.9439 
G01 X-33.6412 Y93.1036 
G01 X-33.4585 Y93.2364 
G01 X-33.2572 Y93.3389 
G01 X-33.0424 Y93.4087 
G01 X-32.8193 Y93.4441 
G01 X-32.5934 Y93.4441 
G01 X-32.3703 Y93.4087 
G01 X-32.1554 Y93.3389 
G01 X-31.9542 Y93.2364 
G01 X-31.7714 Y93.1036 
G01 X-31.6117 Y92.9439 
G01 X-31.4789 Y92.7611 
G01 X-31.4363 Y92.6775 
G01 X-31.3937 Y92.7611 
G01 X-31.2610 Y92.9439 
G01 X-31.1012 Y93.1036 
G01 X-30.9185 Y93.2364 
G01 X-30.7172 Y93.3389 
G01 X-30.5024 Y93.4087 
G01 X-30.2793 Y93.4441 
G01 X-30.0534 Y93.4441 
G01 X-29.8303 Y93.4087 
G01 X-29.6154 Y93.3389 
G01 X-29.4142 Y93.2364 
G01 X-29.2314 Y93.1036 
G01 X-29.0717 Y92.9439 
G01 X-28.9389 Y92.7611 
G01 X-28.8963 Y92.6775 
G01 X-28.8537 Y92.7611 
G01 X-28.7210 Y92.9439 
G01 X-28.5612 Y93.1036 
G01 X-28.3785 Y93.2364 
G01 X-28.1772 Y93.3389 
G01 X-27.9624 Y93.4087 
G01 X-27.7393 Y93.4441 
G01 X-27.5134 Y93.4441 
G01 X-27.2903 Y93.4087 
G01 X-27.0754 Y93.3389 
G01 X-26.8742 Y93.2364 
G01 X-26.6914 Y93.1036 
G01 X-26.5317 Y92.9439 
G01 X-26.3989 Y92.7611 
G01 X-26.3563 Y92.6775 
G01 X-26.3137 Y92.7611 
G01 X-26.1810 Y92.9439 
G01 X-26.0212 Y93.1036 
G01 X-25.8385 Y93.2364 
G01 X-25.6372 Y93.3389 
G01 X-25.4224 Y93.4087 
G01 X-25.1993 Y93.4441 
G01 X-24.9734 Y93.4441 
G01 X-24.7503 Y93.4087 
G01 X-24.5354 Y93.3389 
G01 X-24.3342 Y93.2364 
G01 X-24.1514 Y93.1036 
G01 X-23.9917 Y92.9439 
G01 X-23.8589 Y92.7611 
G01 X-23.8163 Y92.6775 
G01 X-23.7737 Y92.7611 
G01 X-23.6410 Y92.9439 
G01 X-23.4812 Y93.1036 
G01 X-23.2985 Y93.2364 
G01 X-23.0972 Y93.3389 
G01 X-22.8824 Y93.4087 
G01 X-22.6593 Y93.4441 
G01 X-22.4334 Y93.4441 
G01 X-22.2103 Y93.4087 
G01 X-21.9954 Y93.3389 
G01 X-21.7942 Y93.2364 
G01 X-21.6114 Y93.1036 
G01 X-21.4517 Y92.9439 
G01 X-21.3189 Y92.7611 
G01 X-21.2763 Y92.6775 
G01 X-21.2337 Y92.7611 
G01 X-21.1010 Y92.9439 
G01 X-20.9412 Y93.1036 
G01 X-20.7585 Y93.2364 
G01 X-20.5572 Y93.3389 
G01 X-20.3424 Y93.4087 
G01 X-20.1193 Y93.4441 
G01 X-19.8934 Y93.4441 
G01 X-19.6703 Y93.4087 
G01 X-19.4554 Y93.3389 
G01 X-19.2542 Y93.2364 
G01 X-19.0714 Y93.1036 
G01 X-18.9117 Y92.9439 
G01 X-18.7789 Y92.7611 
G01 X-18.7363 Y92.6775 
G01 X-18.6937 Y92.7611 
G01 X-18.5610 Y92.9439 
G01 X-18.4012 Y93.1036 
G01 X-18.2185 Y93.2364 
G01 X-18.0172 Y93.3389 
G01 X-17.8024 Y93.4087 
G01 X-17.5793 Y93.4441 
G01 X-17.3534 Y93.4441 
G01 X-17.1303 Y93.4087 
G01 X-16.9154 Y93.3389 
G01 X-16.7142 Y93.2364 
G01 X-16.5314 Y93.1036 
G01 X-16.3717 Y92.9439 
G01 X-16.3614 Y92.9297 
G01 X-16.3614 Y93.0140 
G01 X-16.3277 Y93.1399 
G01 X-16.2625 Y93.2529 
G01 X-16.1703 Y93.3451 
G01 X-16.0573 Y93.4103 
G01 X-15.9313 Y93.4441 
G00 Z2.5400 
G00 X-41.4980 Y86.2609 
G01 Z-0.1778 F254.00 
G01 X-41.4980 Y86.5108 F408.00 
G01 X-41.4589 Y86.7576 
G01 X-41.3817 Y86.9952 
G01 X-41.2682 Y87.2179 
G01 X-41.1214 Y87.4200 
G01 X-40.9447 Y87.5967 
G01 X-40.7425 Y87.7436 
G01 X-40.5199 Y87.8570 
G01 X-40.2822 Y87.9342 
G01 X-40.0354 Y87.9733 
G01 X-39.7855 Y87.9733 
G01 X-39.5387 Y87.9342 
G01 X-39.3011 Y87.8570 
G01 X-39.0784 Y87.7436 
G01 X-38.8763 Y87.5967 
G01 X-38.6996 Y87.4200 
G01 X-38.5527 Y87.2179 
G01 X-38.4393 Y86.9952 
G01 X-38.3621 Y86.7576 
G01 X-38.3230 Y86.5108 
G01 X-38.3230 Y86.2609 
G01 X-38.3621 Y86.0141 
G01 X-38.4393 Y85.7765 
G01 X-38.5527 Y85.5538 
G01 X-38.6996 Y85.3517 
G01 X-38.8763 Y85.1750 
G01 X-39.0784 Y85.0281 
G01 X-39.3011 Y84.9146 
G01 X-39.5387 Y84.8374 
G01 X-39.7855 Y84.7983 
G01 X-40.0354 Y84.7983 
G01 X-40.2822 Y84.8374 
G01 X-40.5199 Y84.9146 
G01 X-40.7425 Y85.0281 
G01 X-40.9447 Y85.1750 
G01 X-41.1214 Y85.3517 
G01 X-41.2682 Y85.5538 
G01 X-41.3817 Y85.7765 
G01 X-41.4589 Y86.0141 
G01 X-41.4980 Y86.2609 
G00 Z2.5400 
G00 X-41.4980 Y79.7331 
G01 Z-0.1778 F254.00 
G01 X-41.4980 Y79.9830 F408.00 
G01 X-41.4589 Y80.2298 
G01 X-41.3817 Y80.4674 
G01 X-41.2682 Y80.6901 
G01 X-41.1214 Y80.8922 
G01 X-40.9447 Y81.0689 
G01 X-40.7425 Y81.2158 
G01 X-40.5199 Y81.3292 
G01 X-40.2822 Y81.4064 
G01 X-40.0354 Y81.4455 
G01 X-39.7855 Y81.4455 
G01 X-39.5387 Y81.4064 
G01 X-39.3011 Y81.3292 
G01 X-39.0784 Y81.2158 
G01 X-38.8763 Y81.0689 
G01 X-38.6996 Y80.8922 
G01 X-38.5527 Y80.6901 
G01 X-38.4393 Y80.4674 
G01 X-38.3621 Y80.2298 
G01 X-38.3230 Y79.9830 
G01 X-38.3230 Y79.7331 
G01 X-38.3621 Y79.4863 
G01 X-38.4393 Y79.2486 
G01 X-38.5527 Y79.0260 
G01 X-38.6996 Y78.8239 
G01 X-38.8763 Y78.6472 
G01 X-39.0784 Y78.5003 
G01 X-39.3011 Y78.3868 
G01 X-39.5387 Y78.3096 
G01 X-39.7855 Y78.2705 
G01 X-40.0354 Y78.2705 
G01 X-40.2822 Y78.3096 
G01 X-40.5199 Y78.3868 
G01 X-40.7425 Y78.5003 
G01 X-40.9447 Y78.6472 
G01 X-41.1214 Y78.8239 
G01 X-41.2682 Y79.0260 
G01 X-41.3817 Y79.2486 
G01 X-41.4589 Y79.4863 
G01 X-41.4980 Y79.7331 
G00 Z2.5400 
G00 X-8.7074 Y84.2166 
G01 Z-0.1778 F254.00 
G01 X-8.7074 Y84.4625 F408.00 
G01 X-8.6689 Y84.7054 
G01 X-8.5929 Y84.9392 
G01 X-8.4813 Y85.1583 
G01 X-8.3368 Y85.3572 
G01 X-8.1629 Y85.5311 
G01 X-8.0549 Y85.6096 
G01 X-8.1629 Y85.6881 
G01 X-8.3368 Y85.8619 
G01 X-8.4813 Y86.0609 
G01 X-8.5929 Y86.2799 
G01 X-8.6689 Y86.5138 
G01 X-8.7074 Y86.7566 
G01 X-8.7074 Y87.0025 
G01 X-8.6689 Y87.2454 
G01 X-8.5929 Y87.4792 
G01 X-8.4813 Y87.6983 
G01 X-8.3368 Y87.8972 
G01 X-8.1629 Y88.0711 
G01 X-7.9640 Y88.2156 
G01 X-7.7449 Y88.3272 
G01 X-7.5111 Y88.4032 
G01 X-7.2682 Y88.4417 
G01 X-7.0223 Y88.4417 
G01 X-6.7795 Y88.4032 
G01 X-6.5456 Y88.3272 
G01 X-6.3265 Y88.2156 
G01 X-6.1276 Y88.0711 
G01 X-5.9538 Y87.8972 
G01 X-5.8092 Y87.6983 
G01 X-5.6976 Y87.4792 
G01 X-5.6216 Y87.2454 
G01 X-5.5832 Y87.0025 
G01 X-5.5832 Y86.7566 
G01 X-5.6216 Y86.5138 
G01 X-5.6976 Y86.2799 
G01 X-5.8092 Y86.0609 
G01 X-5.9538 Y85.8619 
G01 X-6.1276 Y85.6881 
G01 X-6.2357 Y85.6096 
G01 X-6.1276 Y85.5311 
G01 X-5.9538 Y85.3572 
G01 X-5.8092 Y85.1583 
G01 X-5.6976 Y84.9392 
G01 X-5.6216 Y84.7054 
G01 X-5.5832 Y84.4625 
G01 X-5.5832 Y84.2166 
G01 X-5.6216 Y83.9738 
G01 X-5.6976 Y83.7399 
G01 X-5.8092 Y83.5209 
G01 X-5.9538 Y83.3219 
G01 X-6.1276 Y83.1481 
G01 X-6.3265 Y83.0036 
G01 X-6.5456 Y82.8919 
G01 X-6.7795 Y82.8159 
G01 X-7.0223 Y82.7775 
G01 X-7.2682 Y82.7775 
G01 X-7.5111 Y82.8159 
G01 X-7.7449 Y82.8919 
G01 X-7.9640 Y83.0036 
G01 X-8.1629 Y83.1481 
G01 X-8.3368 Y83.3219 
G01 X-8.4813 Y83.5209 
G01 X-8.5929 Y83.7399 
G01 X-8.6689 Y83.9738 
G01 X-8.7074 Y84.2166 
G00 Z2.5400 
G00 X-15.9274 Y93.5711 
G01 Z-0.1778 F254.00 
G01 X-13.9252 Y93.5711 F408.00 
G01 X-13.8050 Y93.5471 
G01 X-13.6918 Y93.5002 
G01 X-13.5898 Y93.4321 
G01 X-13.5032 Y93.3454 
G01 X-13.4351 Y93.2435 
G01 X-13.3882 Y93.1303 
G01 X-13.3642 Y93.0101 
G01 X-13.3642 Y91.0079 
G01 X-13.3882 Y90.8876 
G01 X-13.4351 Y90.7744 
G01 X-13.5032 Y90.6725 
G01 X-13.5898 Y90.5858 
G01 X-13.6918 Y90.5177 
G01 X-13.8050 Y90.4708 
G01 X-13.9252 Y90.4469 
G01 X-15.9274 Y90.4469 
G01 X-16.0477 Y90.4708 
G01 X-16.1609 Y90.5177 
G01 X-16.2628 Y90.5858 
G01 X-16.3495 Y90.6725 
G01 X-16.4176 Y90.7744 
G01 X-16.4393 Y90.8268 
G01 X-16.4487 Y90.8175 
G01 X-16.6476 Y90.6729 
G01 X-16.8667 Y90.5613 
G01 X-17.1005 Y90.4853 
G01 X-17.3434 Y90.4469 
G01 X-17.5893 Y90.4469 
G01 X-17.8321 Y90.4853 
G01 X-18.0660 Y90.5613 
G01 X-18.2851 Y90.6729 
G01 X-18.4840 Y90.8175 
G01 X-18.6578 Y90.9913 
G01 X-18.7363 Y91.0994 
G01 X-18.8148 Y90.9913 
G01 X-18.9887 Y90.8175 
G01 X-19.1876 Y90.6729 
G01 X-19.4067 Y90.5613 
G01 X-19.6405 Y90.4853 
G01 X-19.8834 Y90.4469 
G01 X-20.1293 Y90.4469 
G01 X-20.3721 Y90.4853 
G01 X-20.6060 Y90.5613 
G01 X-20.8251 Y90.6729 
G01 X-21.0240 Y90.8175 
G01 X-21.1978 Y90.9913 
G01 X-21.2763 Y91.0994 
G01 X-21.3548 Y90.9913 
G01 X-21.5287 Y90.8175 
G01 X-21.7276 Y90.6729 
G01 X-21.9467 Y90.5613 
G01 X-22.1805 Y90.4853 
G01 X-22.4234 Y90.4469 
G01 X-22.6693 Y90.4469 
G01 X-22.9121 Y90.4853 
G01 X-23.1460 Y90.5613 
G01 X-23.3651 Y90.6729 
G01 X-23.5640 Y90.8175 
G01 X-23.7378 Y90.9913 
G01 X-23.8163 Y91.0994 
G01 X-23.8948 Y90.9913 
G01 X-24.0687 Y90.8175 
G01 X-24.2676 Y90.6729 
G01 X-24.4867 Y90.5613 
G01 X-24.7205 Y90.4853 
G01 X-24.9634 Y90.4469 
G01 X-25.2093 Y90.4469 
G01 X-25.4521 Y90.4853 
G01 X-25.6860 Y90.5613 
G01 X-25.9051 Y90.6729 
G01 X-26.1040 Y90.8175 
G01 X-26.2778 Y90.9913 
G01 X-26.3563 Y91.0994 
G01 X-26.4348 Y90.9913 
G01 X-26.6087 Y90.8175 
G01 X-26.8076 Y90.6729 
G01 X-27.0267 Y90.5613 
G01 X-27.2605 Y90.4853 
G01 X-27.5034 Y90.4469 
G01 X-27.7493 Y90.4469 
G01 X-27.9921 Y90.4853 
G01 X-28.2260 Y90.5613 
G01 X-28.4451 Y90.6729 
G01 X-28.6440 Y90.8175 
G01 X-28.8178 Y90.9913 
G01 X-28.8963 Y91.0994 
G01 X-28.9748 Y90.9913 
G01 X-29.1487 Y90.8175 
G01 X-29.3476 Y90.6729 
G01 X-29.5667 Y90.5613 
G01 X-29.8005 Y90.4853 
G01 X-30.0434 Y90.4469 
G01 X-30.2893 Y90.4469 
G01 X-30.5321 Y90.4853 
G01 X-30.7660 Y90.5613 
G01 X-30.9851 Y90.6729 
G01 X-31.1840 Y90.8175 
G01 X-31.3578 Y90.9913 
G01 X-31.4363 Y91.0994 
G01 X-31.5148 Y90.9913 
G01 X-31.6887 Y90.8175 
G01 X-31.8876 Y90.6729 
G01 X-32.1067 Y90.5613 
G01 X-32.3405 Y90.4853 
G01 X-32.5834 Y90.4469 
G01 X-32.8293 Y90.4469 
G01 X-33.0721 Y90.4853 
G01 X-33.3060 Y90.5613 
G01 X-33.5251 Y90.6729 
G01 X-33.7240 Y90.8175 
G01 X-33.8978 Y90.9913 
G01 X-34.0424 Y91.1902 
G01 X-34.1540 Y91.4093 
G01 X-34.2300 Y91.6432 
G01 X-34.2684 Y91.8860 
G01 X-34.2684 Y92.1319 
G01 X-34.2300 Y92.3748 
G01 X-34.1540 Y92.6086 
G01 X-34.0424 Y92.8277 
G01 X-33.8978 Y93.0266 
G01 X-33.7240 Y93.2005 
G01 X-33.5251 Y93.3450 
G01 X-33.3060 Y93.4566 
G01 X-33.0721 Y93.5326 
G01 X-32.8293 Y93.5711 
G01 X-32.5834 Y93.5711 
G01 X-32.3405 Y93.5326 
G01 X-32.1067 Y93.4566 
G01 X-31.8876 Y93.3450 
G01 X-31.6887 Y93.2005 
G01 X-31.5148 Y93.0266 
G01 X-31.4363 Y92.9186 
G01 X-31.3578 Y93.0266 
G01 X-31.1840 Y93.2005 
G01 X-30.9851 Y93.3450 
G01 X-30.7660 Y93.4566 
G01 X-30.5321 Y93.5326 
G01 X-30.2893 Y93.5711 
G01 X-30.0434 Y93.5711 
G01 X-29.8005 Y93.5326 
G01 X-29.5667 Y93.4566 
G01 X-29.3476 Y93.3450 
G01 X-29.1487 Y93.2005 
G01 X-28.9748 Y93.0266 
G01 X-28.8963 Y92.9186 
G01 X-28.8178 Y93.0266 
G01 X-28.6440 Y93.2005 
G01 X-28.4451 Y93.3450 
G01 X-28.2260 Y93.4566 
G01 X-27.9921 Y93.5326 
G01 X-27.7493 Y93.5711 
G01 X-27.5034 Y93.5711 
G01 X-27.2605 Y93.5326 
G01 X-27.0267 Y93.4566 
G01 X-26.8076 Y93.3450 
G01 X-26.6087 Y93.2005 
G01 X-26.4348 Y93.0266 
G01 X-26.3563 Y92.9186 
G01 X-26.2778 Y93.0266 
G01 X-26.1040 Y93.2005 
G01 X-25.9051 Y93.3450 
G01 X-25.6860 Y93.4566 
G01 X-25.4521 Y93.5326 
G01 X-25.2093 Y93.5711 
G01 X-24.9634 Y93.5711 
G01 X-24.7205 Y93.5326 
G01 X-24.4867 Y93.4566 
G01 X-24.2676 Y93.3450 
G01 X-24.0687 Y93.2005 
G01 X-23.8948 Y93.0266 
G01 X-23.8163 Y92.9186 
G01 X-23.7378 Y93.0266 
G01 X-23.5640 Y93.2005 
G01 X-23.3651 Y93.3450 
G01 X-23.1460 Y93.4566 
G01 X-22.9121 Y93.5326 
G01 X-22.6693 Y93.5711 
G01 X-22.4234 Y93.5711 
G01 X-22.1805 Y93.5326 
G01 X-21.9467 Y93.4566 
G01 X-21.7276 Y93.3450 
G01 X-21.5287 Y93.2005 
G01 X-21.3548 Y93.0266 
G01 X-21.2763 Y92.9186 
G01 X-21.1978 Y93.0266 
G01 X-21.0240 Y93.2005 
G01 X-20.8251 Y93.3450 
G01 X-20.6060 Y93.4566 
G01 X-20.3721 Y93.5326 
G01 X-20.1293 Y93.5711 
G01 X-19.8834 Y93.5711 
G01 X-19.6405 Y93.5326 
G01 X-19.4067 Y93.4566 
G01 X-19.1876 Y93.3450 
G01 X-18.9887 Y93.2005 
G01 X-18.8148 Y93.0266 
G01 X-18.7363 Y92.9186 
G01 X-18.6578 Y93.0266 
G01 X-18.4840 Y93.2005 
G01 X-18.2851 Y93.3450 
G01 X-18.0660 Y93.4566 
G01 X-17.8321 Y93.5326 
G01 X-17.5893 Y93.5711 
G01 X-17.3434 Y93.5711 
G01 X-17.1005 Y93.5326 
G01 X-16.8667 Y93.4566 
G01 X-16.6476 Y93.3450 
G01 X-16.4487 Y93.2005 
G01 X-16.4393 Y93.1911 
G01 X-16.4176 Y93.2435 
G01 X-16.3495 Y93.3454 
G01 X-16.2628 Y93.4321 
G01 X-16.1609 Y93.5002 
G01 X-16.0477 Y93.5471 
G01 X-15.9274 Y93.5711 
G00 Z2.5400 
G00 X-41.6250 Y86.2735 
G01 Z-0.1778 F254.00 
G01 X-41.6250 Y86.4982 F408.00 
G01 X-41.5956 Y86.7210 
G01 X-41.5375 Y86.9381 
G01 X-41.4515 Y87.1458 
G01 X-41.3391 Y87.3404 
G01 X-41.2023 Y87.5187 
G01 X-41.0434 Y87.6776 
G01 X-40.8651 Y87.8145 
G01 X-40.6704 Y87.9268 
G01 X-40.4628 Y88.0128 
G01 X-40.2457 Y88.0710 
G01 X-40.0229 Y88.1003 
G01 X-39.7981 Y88.1003 
G01 X-39.5753 Y88.0710 
G01 X-39.3582 Y88.0128 
G01 X-39.1506 Y87.9268 
G01 X-38.9559 Y87.8145 
G01 X-38.7776 Y87.6776 
G01 X-38.6187 Y87.5187 
G01 X-38.4819 Y87.3404 
G01 X-38.3695 Y87.1458 
G01 X-38.2835 Y86.9381 
G01 X-38.2253 Y86.7210 
G01 X-38.1960 Y86.4982 
G01 X-38.1960 Y86.2735 
G01 X-38.2253 Y86.0506 
G01 X-38.2835 Y85.8335 
G01 X-38.3695 Y85.6259 
G01 X-38.4819 Y85.4313 
G01 X-38.6187 Y85.2530 
G01 X-38.7776 Y85.0940 
G01 X-38.9559 Y84.9572 
G01 X-39.1506 Y84.8449 
G01 X-39.3582 Y84.7588 
G01 X-39.5753 Y84.7007 
G01 X-39.7981 Y84.6713 
G01 X-40.0229 Y84.6713 
G01 X-40.2457 Y84.7007 
G01 X-40.4628 Y84.7588 
G01 X-40.6704 Y84.8449 
G01 X-40.8651 Y84.9572 
G01 X-41.0434 Y85.0940 
G01 X-41.2023 Y85.2530 
G01 X-41.3391 Y85.4313 
G01 X-41.4515 Y85.6259 
G01 X-41.5375 Y85.8335 
G01 X-41.5956 Y86.0506 
G01 X-41.6250 Y86.2735 
G00 Z2.5400 
G00 X-41.6250 Y79.7457 
G01 Z-0.1778 F254.00 
G01 X-41.6250 Y79.9704 F408.00 
G01 X-41.5956 Y80.1932 
G01 X-41.5375 Y80.4103 
G01 X-41.4515 Y80.6180 
G01 X-41.3391 Y80.8126 
G01 X-41.2023 Y80.9909 
G01 X-41.0434 Y81.1498 
G01 X-40.8651 Y81.2867 
G01 X-40.6704 Y81.3990 
G01 X-40.4628 Y81.4850 
G01 X-40.2457 Y81.5432 
G01 X-40.0229 Y81.5725 
G01 X-39.7981 Y81.5725 
G01 X-39.5753 Y81.5432 
G01 X-39.3582 Y81.4850 
G01 X-39.1506 Y81.3990 
G01 X-38.9559 Y81.2867 
G01 X-38.7776 Y81.1498 
G01 X-38.6187 Y80.9909 
G01 X-38.4819 Y80.8126 
G01 X-38.3695 Y80.6180 
G01 X-38.2835 Y80.4103 
G01 X-38.2253 Y80.1932 
G01 X-38.1960 Y79.9704 
G01 X-38.1960 Y79.7457 
G01 X-38.2253 Y79.5228 
G01 X-38.2835 Y79.3057 
G01 X-38.3695 Y79.0981 
G01 X-38.4819 Y78.9035 
G01 X-38.6187 Y78.7252 
G01 X-38.7776 Y78.5662 
G01 X-38.9559 Y78.4294 
G01 X-39.1506 Y78.3171 
G01 X-39.3582 Y78.2310 
G01 X-39.5753 Y78.1729 
G01 X-39.7981 Y78.1435 
G01 X-40.0229 Y78.1435 
G01 X-40.2457 Y78.1729 
G01 X-40.4628 Y78.2310 
G01 X-40.6704 Y78.3171 
G01 X-40.8651 Y78.4294 
G01 X-41.0434 Y78.5662 
G01 X-41.2023 Y78.7252 
G01 X-41.3391 Y78.9035 
G01 X-41.4515 Y79.0981 
G01 X-41.5375 Y79.3057 
G01 X-41.5956 Y79.5228 
G01 X-41.6250 Y79.7457 
G00 Z2.5400 
G00 Z2.540000
G00 X-14.9263 Y92.0090 
G01 Z-0.2794 F254.00 
G01 Z2.540000
(R2.5400  P1.000000)
(G00 Z2.540000)
G00 X-17.4663 Y92.0090 
G01 Z-0.812800
G01 Z2.540000
(G00 Z2.540000)
G00 X-20.0063 Y92.0090 
G01 Z-0.812800
G01 Z2.540000
(G00 Z2.540000)
G00 X-22.5463 Y92.0090 
G01 Z-0.812800
G01 Z2.540000
(G00 Z2.540000)
G00 X-25.0863 Y92.0090 
G01 Z-0.812800
G01 Z2.540000
(G00 Z2.540000)
G00 X-27.6263 Y92.0090 
G01 Z-0.812800
G01 Z2.540000
(G00 Z2.540000)
G00 X-30.1663 Y92.0090 
G01 Z-0.812800
G01 Z2.540000
(G00 Z2.540000)
G00 X-32.7063 Y92.0090 
G01 Z-0.812800
G01 Z2.540000
(G00 Z2.540000)
G00 X-7.1453 Y84.3396 
G01 Z-0.812800
G01 Z2.540000
(G00 Z2.540000)
G00 X-7.1453 Y86.8796 
G01 Z-0.812800
G01 Z2.540000
(G00 Z2.540000)
G00 X-39.9105 Y86.3858 
G01 Z-0.812800
G01 Z2.540000
(G00 Z2.540000)
G00 X-39.9105 Y79.8580 
G01 Z-0.812800
G01 Z2.540000
G00 Z12.7000 
M05
M02
