(.../pcb-gcode-3_6_0_4/pcb-gcode.ulp)
(Copyright 2005 - 2012 by John Johnson)
(See readme.txt for licensing terms.)
(This file generated from the board:)
(.../APA104-Breakout/atiny13u-breakout.brd)
(Current profile is .../pcb-gcode-3_6_0_4/profiles/generic.pp  )
(This file generated 9/16/2018 6:17 PM)
(Settings from pcb-machine.h)
(  Tool Size)
(0.2000 )
(Z Axis Settings)
(  High     Up        Down     Drill)
(12.7000 	2.5400 	-0.1778 	-0.8128 )
(spindle on time = 3.0000)
(milling depth = -0.2540)
(text depth = -0.1270)
(tool change at 12.7000 15.2400 25.4000 )
(feed rate xy = F408.00 )
(feed rate z  = F254.00 )
(Settings from pcb-defaults.h)
(isolate min = 0.0254)
(isolate max = 0.5080)
(isolate step = 0.1270)
(Generated top outlines, top drill, )
(Unit of measure: mm)
( Tool|       Size       |  Min Sub |  Max Sub |   Count )
( T01  1.016mm 0.0400in 0.0000in 0.0000in )
( T02  1.100mm 0.0433in 0.0000in 0.0000in )
(Metric Mode)
G21
(Absolute Coordinates)
G90
M05
G00 Z25.4000 
G00 X12.7000 Y15.2400 
M06 T01  ; 1.0160 
G01 Z0.0000 F254.00 
M06 T01  ; 1.0160 
G00 Z2.5400 
M03
G04 P3.000000
G00 Z2.540000
G00 X32.7063 Y92.0090 
G01 Z-0.8128 F254.00 
G01 Z2.540000
(R2.5400  P1.000000)
(G00 Z2.540000)
G00 X7.1453 Y84.3396 
G01 Z-0.812800
G01 Z2.540000
(G00 Z2.540000)
G00 X7.1453 Y86.8796 
G01 Z-0.812800
G01 Z2.540000
(G00 Z2.540000)
G00 X14.9263 Y92.0090 
G01 Z-0.812800
G01 Z2.540000
(G00 Z2.540000)
G00 X17.4663 Y92.0090 
G01 Z-0.812800
G01 Z2.540000
(G00 Z2.540000)
G00 X20.0063 Y92.0090 
G01 Z-0.812800
G01 Z2.540000
(G00 Z2.540000)
G00 X22.5463 Y92.0090 
G01 Z-0.812800
G01 Z2.540000
(G00 Z2.540000)
G00 X25.0863 Y92.0090 
G01 Z-0.812800
G01 Z2.540000
(G00 Z2.540000)
G00 X27.6263 Y92.0090 
G01 Z-0.812800
G01 Z2.540000
(G00 Z2.540000)
G00 X30.1663 Y92.0090 
G01 Z-0.812800
G01 Z2.540000
M05
G00 Z25.4000 
M06 T02  ; 1.1000 
G01 Z0.0000 F254.00 
M06 T02  ; 1.1000 
G00 Z2.5400 
M03
G04 P3.000000
G00 Z2.540000
G00 X39.9105 Y79.8580 
G01 Z-0.8128 F254.00 
G01 Z2.540000
(R2.5400  P1.000000)
(G00 Z2.540000)
G00 X39.9105 Y86.3858 
G01 Z-0.812800
G01 Z2.540000
T01 
G00 Z12.7000 
M05
M02
