(.../pcb-gcode-3_6_0_4/pcb-gcode.ulp)
(Copyright 2005 - 2012 by John Johnson)
(See readme.txt for licensing terms.)
(This file generated from the board:)
(.../APA104-Breakout/atiny13u-breakout.brd)
(Current profile is .../pcb-gcode-3_6_0_4/profiles/generic.pp  )
(This file generated 9/16/2018 6:17 PM)
(Settings from pcb-machine.h)
(  Tool Size)
(0.2000 )
(Z Axis Settings)
(  High     Up        Down     Drill)
(12.7000 	2.5400 	-0.1778 	-0.8128 )
(spindle on time = 3.0000)
(milling depth = -0.2540)
(text depth = -0.1270)
(tool change at 12.7000 15.2400 25.4000 )
(feed rate xy = F408.00 )
(feed rate z  = F254.00 )
(Settings from pcb-defaults.h)
(isolate min = 0.0254)
(isolate max = 0.5080)
(isolate step = 0.1270)
(Generated top outlines, top drill, )
(Unit of measure: mm)
(Metric Mode)
G21
(Absolute Coordinates)
G90
G00 X0.0000 Y0.0000 
M03
G04 P3.000000
G00 Z2.5400 
G00 X45.2778 Y79.1160 
G01 Z-0.1778 F254.00 
G01 X45.2778 Y79.4083 F408.00 
G01 X45.2796 Y79.4410 
G01 X45.2942 Y79.5048 
G01 X45.3226 Y79.5638 
G01 X45.3634 Y79.6150 
G01 X45.4146 Y79.6558 
G01 X45.4736 Y79.6842 
G01 X45.5374 Y79.6987 
G01 X45.6028 Y79.6987 
G01 X45.6666 Y79.6842 
G01 X45.7256 Y79.6558 
G01 X45.7768 Y79.6150 
G01 X45.8176 Y79.5638 
G01 X45.8460 Y79.5048 
G01 X45.8605 Y79.4410 
G01 X45.8624 Y79.4083 
G01 X45.8624 Y79.3682 
G01 X45.8624 Y79.1160 
G01 X45.2778 Y79.1160 
G00 Z2.5400 
G00 X36.4815 Y73.9753 
G01 Z-0.1778 F254.00 
G01 X36.4927 Y74.0206 F408.00 
G01 X36.5144 Y74.0620 
G01 X36.5453 Y74.0969 
G01 X36.5837 Y74.1234 
G01 X36.6273 Y74.1399 
G01 X36.6736 Y74.1455 
G01 X36.7200 Y74.1399 
G01 X36.7636 Y74.1234 
G01 X36.8020 Y74.0969 
G01 X36.8329 Y74.0619 
G01 X36.8546 Y74.0206 
G01 X36.8657 Y73.9753 
G01 X36.8669 Y73.9561 
G01 X36.4804 Y73.9561 
G01 X36.4815 Y73.9753 
G00 Z2.5400 
G00 X34.0460 Y73.9461 
G01 Z-0.1778 F254.00 
G01 X34.1098 Y73.9316 F408.00 
G01 X34.1688 Y73.9032 
G01 X34.2200 Y73.8624 
G01 X34.2608 Y73.8112 
G01 X34.2892 Y73.7522 
G01 X34.3037 Y73.6884 
G01 X34.3037 Y73.6230 
G01 X34.2892 Y73.5592 
G01 X34.2608 Y73.5002 
G01 X34.2200 Y73.4490 
G01 X34.1688 Y73.4082 
G01 X34.1098 Y73.3798 
G01 X34.0460 Y73.3652 
G01 X34.0133 Y73.3634 
G01 X33.7210 Y73.3634 
G01 X33.7210 Y73.9480 
G01 X34.0133 Y73.9480 
G01 X34.0460 Y73.9461 
G00 Z2.5400 
G00 X34.1581 Y74.6730 
G01 Z-0.1778 F254.00 
G01 X34.1846 Y74.6346 F408.00 
G01 X34.2012 Y74.5910 
G01 X34.2068 Y74.5447 
G01 X34.2012 Y74.4984 
G01 X34.1846 Y74.4548 
G01 X34.1581 Y74.4164 
G01 X34.1232 Y74.3854 
G01 X34.0819 Y74.3637 
G01 X34.0366 Y74.3526 
G01 X34.0133 Y74.3512 
G01 X33.7210 Y74.3512 
G01 X33.7210 Y74.7382 
G01 X34.0133 Y74.7382 
G01 X34.0366 Y74.7368 
G01 X34.0819 Y74.7256 
G01 X34.1232 Y74.7039 
G01 X34.1581 Y74.6730 
G00 Z2.5400 
G00 X19.9790 Y74.3023 
G01 Z-0.1778 F254.00 
G01 X20.1438 Y73.8079 F408.00 
G01 X19.8142 Y73.8079 
G01 X19.9790 Y74.3023 
G00 Z2.5400 
G00 X16.2014 Y73.3634 
G01 Z-0.1778 F254.00 
G01 X15.9091 Y73.3634 F408.00 
G01 X15.8968 Y73.3642 
G01 X15.8729 Y73.3706 
G01 X15.8515 Y73.3830 
G01 X15.8340 Y73.4005 
G01 X15.8216 Y73.4219 
G01 X15.8152 Y73.4458 
G01 X15.8144 Y73.4581 
G01 X15.8144 Y74.0508 
G01 X15.8152 Y74.0632 
G01 X15.8216 Y74.0871 
G01 X15.8340 Y74.1085 
G01 X15.8515 Y74.1260 
G01 X15.8729 Y74.1383 
G01 X15.8968 Y74.1447 
G01 X15.9091 Y74.1455 
G01 X16.2014 Y74.1455 
G01 X16.2014 Y73.3634 
G00 Z2.5400 
G00 X14.1591 Y74.0508 
G01 Z-0.1778 F254.00 
G01 X14.1591 Y74.0508 F408.00 
G01 X14.1627 Y74.1462 
G01 X14.1915 Y74.3349 
G01 X14.2483 Y74.5171 
G01 X14.2772 Y74.5825 
G01 X14.2834 Y74.5895 
G01 X14.2923 Y74.6157 
G01 X14.3044 Y74.6406 
G01 X14.3049 Y74.6474 
G01 X14.3263 Y74.6802 
G01 X14.3561 Y74.7077 
G01 X14.3918 Y74.7270 
G01 X14.4311 Y74.7369 
G01 X14.4514 Y74.7382 
G01 X14.4717 Y74.7369 
G01 X14.5110 Y74.7270 
G01 X14.5466 Y74.7077 
G01 X14.5765 Y74.6802 
G01 X14.5979 Y74.6474 
G01 X14.5983 Y74.6406 
G01 X14.6104 Y74.6157 
G01 X14.6194 Y74.5895 
G01 X14.6219 Y74.5867 
G01 X14.1606 Y74.0101 
G01 X14.1591 Y74.0508 
G00 Z2.5400 
G00 X14.5110 Y73.3746 
G01 Z-0.1778 F254.00 
G01 X14.4717 Y73.3647 F408.00 
G01 X14.4514 Y73.3634 
G01 X14.4311 Y73.3647 
G01 X14.3918 Y73.3746 
G01 X14.3561 Y73.3939 
G01 X14.3263 Y73.4214 
G01 X14.3049 Y73.4542 
G01 X14.3044 Y73.4610 
G01 X14.2923 Y73.4859 
G01 X14.2834 Y73.5121 
G01 X14.2808 Y73.5149 
G01 X14.7421 Y74.0915 
G01 X14.7437 Y74.0508 
G01 X14.7401 Y73.9554 
G01 X14.7113 Y73.7667 
G01 X14.6545 Y73.5844 
G01 X14.6256 Y73.5191 
G01 X14.6194 Y73.5121 
G01 X14.6104 Y73.4859 
G01 X14.5983 Y73.4610 
G01 X14.5979 Y73.4542 
G01 X14.5765 Y73.4214 
G01 X14.5466 Y73.3939 
G01 X14.5110 Y73.3746 
G00 Z2.5400 
G00 X11.7346 Y73.3634 
G01 Z-0.1778 F254.00 
G01 X11.4423 Y73.3634 F408.00 
G01 X11.4300 Y73.3642 
G01 X11.4061 Y73.3706 
G01 X11.3847 Y73.3830 
G01 X11.3672 Y73.4005 
G01 X11.3548 Y73.4219 
G01 X11.3484 Y73.4458 
G01 X11.3476 Y73.4581 
G01 X11.3476 Y74.0508 
G01 X11.3484 Y74.0632 
G01 X11.3548 Y74.0871 
G01 X11.3672 Y74.1085 
G01 X11.3847 Y74.1260 
G01 X11.4061 Y74.1383 
G01 X11.4300 Y74.1447 
G01 X11.4424 Y74.1455 
G01 X11.7346 Y74.1455 
G01 X11.7346 Y73.3634 
G00 Z2.5400 
G00 X17.3302 Y73.9753 
G01 Z-0.1778 F254.00 
G01 X17.3302 Y73.9753 F408.00 
G01 X17.3414 Y74.0206 
G01 X17.3630 Y74.0619 
G01 X17.3940 Y74.0969 
G01 X17.4324 Y74.1234 
G01 X17.4760 Y74.1399 
G01 X17.5223 Y74.1455 
G01 X17.5686 Y74.1399 
G01 X17.6122 Y74.1234 
G01 X17.6506 Y74.0969 
G01 X17.6816 Y74.0619 
G01 X17.7032 Y74.0206 
G01 X17.7144 Y73.9753 
G01 X17.7156 Y73.9561 
G01 X17.3290 Y73.9561 
G01 X17.3302 Y73.9753 
G00 Z2.5400 
G00 X38.0691 Y73.6516 
G01 Z-0.1778 F254.00 
G01 X38.3120 Y73.6516 F408.00 
G01 X38.3120 Y73.3634 
G01 X38.0691 Y73.3634 
G01 X38.0518 Y73.3644 
G01 X38.0180 Y73.3728 
G01 X37.9873 Y73.3889 
G01 X37.9612 Y73.4120 
G01 X37.9415 Y73.4405 
G01 X37.9292 Y73.4730 
G01 X37.9250 Y73.5075 
G01 X37.9292 Y73.5420 
G01 X37.9415 Y73.5745 
G01 X37.9612 Y73.6031 
G01 X37.9873 Y73.6261 
G01 X38.0180 Y73.6423 
G01 X38.0518 Y73.6506 
G01 X38.0691 Y73.6516 
G00 Z2.5400 
G00 X40.8925 Y73.5336 
G01 Z-0.1778 F254.00 
G01 X40.8911 Y73.5569 F408.00 
G01 X40.8911 Y73.9520 
G01 X40.8925 Y73.9753 
G01 X40.9037 Y74.0206 
G01 X40.9253 Y74.0619 
G01 X40.9563 Y74.0969 
G01 X40.9947 Y74.1234 
G01 X41.0383 Y74.1399 
G01 X41.0846 Y74.1455 
G01 X41.1309 Y74.1399 
G01 X41.1745 Y74.1234 
G01 X41.2129 Y74.0969 
G01 X41.2439 Y74.0619 
G01 X41.2655 Y74.0206 
G01 X41.2767 Y73.9753 
G01 X41.2781 Y73.9520 
G01 X41.2781 Y73.9119 
G01 X41.2781 Y73.5569 
G01 X41.2767 Y73.5336 
G01 X41.2655 Y73.4883 
G01 X41.2439 Y73.4470 
G01 X41.2129 Y73.4121 
G01 X41.1745 Y73.3856 
G01 X41.1309 Y73.3690 
G01 X41.0846 Y73.3634 
G01 X41.0383 Y73.3690 
G01 X40.9947 Y73.3856 
G01 X40.9563 Y73.4121 
G01 X40.9253 Y73.4470 
G01 X40.9037 Y73.4883 
G01 X40.8925 Y73.5336 
G00 Z2.5400 
G00 X46.8943 Y85.2283 
G01 Z-0.1778 F254.00 
G01 X46.9684 Y85.2590 F408.00 
G01 X47.0251 Y85.3157 
G01 X47.0558 Y85.3898 
G01 X47.0558 Y85.4700 
G01 X47.0251 Y85.5441 
G01 X46.9684 Y85.6008 
G01 X46.8943 Y85.6315 
G01 X45.2778 Y85.6315 
G01 X45.2778 Y85.9639 
G01 X45.2471 Y86.0380 
G01 X45.1904 Y86.0947 
G01 X45.1163 Y86.1254 
G01 X45.0361 Y86.1254 
G01 X44.9620 Y86.0947 
G01 X44.9053 Y86.0380 
G01 X44.8746 Y85.9639 
G01 X44.8746 Y84.8959 
G01 X44.9053 Y84.8218 
G01 X44.9620 Y84.7651 
G01 X45.0361 Y84.7344 
G01 X45.1163 Y84.7344 
G01 X45.1904 Y84.7651 
G01 X45.2471 Y84.8218 
G01 X45.2778 Y84.8959 
G01 X45.2778 Y85.2283 
G01 X46.8943 Y85.2283 
G00 Z2.5400 
G00 X45.0872 Y83.0188 
G01 Z-0.1778 F254.00 
G01 X45.0631 Y82.9867 F408.00 
G01 X45.0175 Y82.9260 
G01 X44.9470 Y82.7914 
G01 X44.8989 Y82.6472 
G01 X44.8746 Y82.4973 
G01 X44.8746 Y82.3540 
G01 X44.9045 Y82.2229 
G01 X44.9629 Y82.1018 
G01 X45.0467 Y81.9967 
G01 X45.1518 Y81.9128 
G01 X45.2730 Y81.8545 
G01 X45.4041 Y81.8246 
G01 X45.5341 Y81.8246 
G01 X45.6571 Y81.8505 
G01 X45.7720 Y81.9012 
G01 X45.8741 Y81.9745 
G01 X45.9588 Y82.0672 
G01 X45.9721 Y82.0898 
G01 X45.9748 Y82.0920 
G01 X45.9924 Y82.1242 
G01 X46.0111 Y82.1559 
G01 X46.0116 Y82.1594 
G01 X46.2878 Y82.6658 
G01 X46.2985 Y82.6819 
G01 X46.3264 Y82.7125 
G01 X46.3600 Y82.7366 
G01 X46.3979 Y82.7533 
G01 X46.4384 Y82.7619 
G01 X46.4591 Y82.7630 
G01 X46.4808 Y82.7617 
G01 X46.5230 Y82.7521 
G01 X46.5620 Y82.7333 
G01 X46.5959 Y82.7063 
G01 X46.6229 Y82.6724 
G01 X46.6417 Y82.6334 
G01 X46.6514 Y82.5911 
G01 X46.6526 Y82.5695 
G01 X46.6506 Y82.5195 
G01 X46.6349 Y82.4209 
G01 X46.6039 Y82.3260 
G01 X46.5583 Y82.2371 
G01 X46.4994 Y82.1565 
G01 X46.4653 Y82.1199 
G01 X46.4368 Y82.0917 
G01 X46.4058 Y82.0177 
G01 X46.4055 Y81.9375 
G01 X46.4359 Y81.8633 
G01 X46.4923 Y81.8064 
G01 X46.5663 Y81.7753 
G01 X46.6465 Y81.7750 
G01 X46.7207 Y81.8054 
G01 X46.7492 Y81.8336 
G01 X46.8074 Y81.8914 
G01 X46.9043 Y82.0237 
G01 X46.9791 Y82.1696 
G01 X47.0300 Y82.3255 
G01 X47.0558 Y82.4874 
G01 X47.0558 Y82.6367 
G01 X47.0259 Y82.7678 
G01 X46.9675 Y82.8889 
G01 X46.8837 Y82.9940 
G01 X46.7786 Y83.0779 
G01 X46.6574 Y83.1362 
G01 X46.5263 Y83.1662 
G01 X46.3963 Y83.1662 
G01 X46.2733 Y83.1402 
G01 X46.1584 Y83.0896 
G01 X46.0563 Y83.0162 
G01 X45.9716 Y82.9235 
G01 X45.9583 Y82.9009 
G01 X45.9556 Y82.8987 
G01 X45.9380 Y82.8666 
G01 X45.9193 Y82.8348 
G01 X45.9188 Y82.8314 
G01 X45.6426 Y82.3250 
G01 X45.6319 Y82.3088 
G01 X45.6040 Y82.2782 
G01 X45.5704 Y82.2541 
G01 X45.5325 Y82.2374 
G01 X45.4920 Y82.2288 
G01 X45.4713 Y82.2278 
G01 X45.4496 Y82.2290 
G01 X45.4074 Y82.2386 
G01 X45.3684 Y82.2574 
G01 X45.3345 Y82.2844 
G01 X45.3075 Y82.3183 
G01 X45.2887 Y82.3574 
G01 X45.2790 Y82.3996 
G01 X45.2778 Y82.4213 
G01 X45.2795 Y82.4646 
G01 X45.2934 Y82.5501 
G01 X45.3208 Y82.6324 
G01 X45.3610 Y82.7091 
G01 X45.3856 Y82.7448 
G01 X45.4097 Y82.7769 
G01 X45.4296 Y82.8546 
G01 X45.4183 Y82.9340 
G01 X45.3774 Y83.0030 
G01 X45.3132 Y83.0511 
G01 X45.2356 Y83.0710 
G01 X45.1562 Y83.0597 
G01 X45.0872 Y83.0188 
G00 Z2.5400 
G00 X47.0558 Y81.4699 
G01 Z-0.1778 F254.00 
G01 X47.0251 Y81.5440 F408.00 
G01 X46.9684 Y81.6007 
G01 X46.8943 Y81.6314 
G01 X46.8141 Y81.6314 
G01 X46.7400 Y81.6007 
G01 X46.6833 Y81.5440 
G01 X46.6526 Y81.4699 
G01 X46.6526 Y80.8412 
G01 X46.0680 Y80.8412 
G01 X46.0680 Y81.2724 
G01 X46.0373 Y81.3465 
G01 X45.9806 Y81.4032 
G01 X45.9065 Y81.4339 
G01 X45.8263 Y81.4339 
G01 X45.7522 Y81.4032 
G01 X45.6955 Y81.3465 
G01 X45.6648 Y81.2724 
G01 X45.6648 Y80.8412 
G01 X45.2778 Y80.8412 
G01 X45.2778 Y81.4699 
G01 X45.2471 Y81.5440 
G01 X45.1904 Y81.6007 
G01 X45.1163 Y81.6314 
G01 X45.0361 Y81.6314 
G01 X44.9620 Y81.6007 
G01 X44.9053 Y81.5440 
G01 X44.8746 Y81.4699 
G01 X44.8746 Y80.5995 
G01 X44.9053 Y80.5254 
G01 X44.9620 Y80.4687 
G01 X45.0361 Y80.4380 
G01 X46.8943 Y80.4380 
G01 X46.9684 Y80.4687 
G01 X47.0251 Y80.5254 
G01 X47.0558 Y80.5995 
G01 X47.0558 Y80.6797 
G01 X47.0558 Y81.4699 
G00 Z2.5400 
G00 X2.3833 Y87.8979 
G01 Z-0.1778 F254.00 
G01 X2.3833 Y86.6324 F408.00 
G01 X2.4140 Y86.5583 
G01 X2.4707 Y86.5016 
G01 X2.5448 Y86.4709 
G01 X2.6250 Y86.4709 
G01 X2.6991 Y86.5016 
G01 X2.7558 Y86.5583 
G01 X2.7865 Y86.6324 
G01 X2.7865 Y87.8979 
G01 X2.7558 Y87.9720 
G01 X2.6991 Y88.0287 
G01 X2.6250 Y88.0594 
G01 X2.5448 Y88.0594 
G01 X2.4707 Y88.0287 
G01 X2.4140 Y87.9720 
G01 X2.3833 Y87.8979 
G00 Z2.5400 
G00 X44.2019 Y74.5487 
G01 Z-0.1778 F254.00 
G01 X43.9682 Y74.5487 F408.00 
G01 X43.9682 Y74.9799 
G01 X43.9376 Y75.0540 
G01 X43.8808 Y75.1107 
G01 X43.8067 Y75.1414 
G01 X43.7265 Y75.1414 
G01 X43.6524 Y75.1107 
G01 X43.5957 Y75.0540 
G01 X43.5650 Y74.9799 
G01 X43.5650 Y74.5487 
G01 X43.5290 Y74.5487 
G01 X43.4549 Y74.5180 
G01 X43.3982 Y74.4613 
G01 X43.3675 Y74.3872 
G01 X43.3675 Y74.3070 
G01 X43.3982 Y74.2329 
G01 X43.4549 Y74.1762 
G01 X43.5290 Y74.1455 
G01 X43.5650 Y74.1455 
G01 X43.5650 Y73.3926 
G01 X43.5990 Y73.2659 
G01 X43.6645 Y73.1524 
G01 X43.7572 Y73.0597 
G01 X43.8708 Y72.9941 
G01 X43.9974 Y72.9602 
G01 X44.2019 Y72.9602 
G01 X44.2760 Y72.9909 
G01 X44.3327 Y73.0476 
G01 X44.3634 Y73.1217 
G01 X44.3634 Y73.2019 
G01 X44.3327 Y73.2760 
G01 X44.2760 Y73.3327 
G01 X44.2019 Y73.3634 
G01 X44.0630 Y73.3634 
G01 X44.0506 Y73.3642 
G01 X44.0267 Y73.3706 
G01 X44.0053 Y73.3830 
G01 X43.9878 Y73.4005 
G01 X43.9755 Y73.4219 
G01 X43.9691 Y73.4458 
G01 X43.9682 Y73.4581 
G01 X43.9682 Y74.1455 
G01 X44.2019 Y74.1455 
G01 X44.2760 Y74.1762 
G01 X44.3327 Y74.2329 
G01 X44.3634 Y74.3070 
G01 X44.3634 Y74.3872 
G01 X44.3327 Y74.4613 
G01 X44.2760 Y74.5180 
G01 X44.2019 Y74.5487 
G00 Z2.5400 
G00 X41.6813 Y73.9921 
G01 Z-0.1778 F254.00 
G01 X41.6813 Y73.9921 F408.00 
G01 X41.6813 Y74.0245 
G01 X41.6466 Y74.1652 
G01 X41.5793 Y74.2935 
G01 X41.4832 Y74.4019 
G01 X41.3639 Y74.4843 
G01 X41.2284 Y74.5356 
G01 X41.0846 Y74.5531 
G01 X40.9407 Y74.5356 
G01 X40.8053 Y74.4843 
G01 X40.6860 Y74.4019 
G01 X40.5899 Y74.2935 
G01 X40.5226 Y74.1652 
G01 X40.4879 Y74.0245 
G01 X40.4879 Y73.5970 
G01 X40.4879 Y73.4845 
G01 X40.5226 Y73.3438 
G01 X40.5899 Y73.2155 
G01 X40.6860 Y73.1070 
G01 X40.8053 Y73.0247 
G01 X40.9407 Y72.9733 
G01 X41.0846 Y72.9558 
G01 X41.2284 Y72.9733 
G01 X41.3639 Y73.0247 
G01 X41.4832 Y73.1070 
G01 X41.5793 Y73.2154 
G01 X41.6466 Y73.3438 
G01 X41.6813 Y73.4845 
G01 X41.6813 Y73.5569 
G01 X41.6813 Y73.9921 
G00 Z2.5400 
G00 X39.1078 Y74.9799 
G01 Z-0.1778 F254.00 
G01 X39.1078 Y73.7688 F408.00 
G01 X39.1041 Y73.7433 
G01 X39.1078 Y73.7291 
G01 X39.1078 Y73.1217 
G01 X39.1385 Y73.0476 
G01 X39.1952 Y72.9909 
G01 X39.2693 Y72.9602 
G01 X39.3495 Y72.9602 
G01 X39.4236 Y72.9909 
G01 X39.4803 Y73.0476 
G01 X39.5110 Y73.1217 
G01 X39.5110 Y73.6537 
G01 X39.5826 Y73.7074 
G01 X39.9402 Y73.0320 
G01 X40.0020 Y72.9809 
G01 X40.0786 Y72.9573 
G01 X40.1585 Y72.9649 
G01 X40.2294 Y73.0024 
G01 X40.2805 Y73.0642 
G01 X40.3041 Y73.1408 
G01 X40.2965 Y73.2207 
G01 X39.9092 Y73.9523 
G01 X40.2526 Y74.2099 
G01 X40.2935 Y74.2789 
G01 X40.3048 Y74.3583 
G01 X40.2849 Y74.4360 
G01 X40.2368 Y74.5002 
G01 X40.1678 Y74.5410 
G01 X40.0884 Y74.5524 
G01 X40.0107 Y74.5325 
G01 X39.5110 Y74.1577 
G01 X39.5110 Y74.9799 
G01 X39.4803 Y75.0540 
G01 X39.4236 Y75.1107 
G01 X39.3495 Y75.1414 
G01 X39.2693 Y75.1414 
G01 X39.1952 Y75.1107 
G01 X39.1385 Y75.0540 
G01 X39.1078 Y74.9799 
G00 Z2.5400 
G00 X38.1092 Y74.0548 
G01 Z-0.1778 F254.00 
G01 X38.0027 Y74.0548 F408.00 
G01 X37.8736 Y74.0230 
G01 X37.7559 Y73.9613 
G01 X37.6564 Y73.8731 
G01 X37.5809 Y73.7637 
G01 X37.5338 Y73.6395 
G01 X37.5178 Y73.5075 
G01 X37.5338 Y73.3756 
G01 X37.5809 Y73.2513 
G01 X37.6564 Y73.1419 
G01 X37.7559 Y73.0538 
G01 X37.8736 Y72.9920 
G01 X38.0027 Y72.9602 
G01 X38.5537 Y72.9602 
G01 X38.6278 Y72.9909 
G01 X38.6845 Y73.0476 
G01 X38.7152 Y73.1217 
G01 X38.7152 Y74.1164 
G01 X38.6813 Y74.2430 
G01 X38.6157 Y74.3565 
G01 X38.5230 Y74.4492 
G01 X38.4095 Y74.5148 
G01 X38.2828 Y74.5487 
G01 X38.1772 Y74.5487 
G01 X37.7821 Y74.5487 
G01 X37.7080 Y74.5180 
G01 X37.6513 Y74.4613 
G01 X37.6206 Y74.3872 
G01 X37.6206 Y74.3070 
G01 X37.6513 Y74.2329 
G01 X37.7080 Y74.1762 
G01 X37.7821 Y74.1455 
G01 X38.2173 Y74.1455 
G01 X38.2297 Y74.1447 
G01 X38.2535 Y74.1383 
G01 X38.2750 Y74.1260 
G01 X38.2924 Y74.1085 
G01 X38.3048 Y74.0871 
G01 X38.3112 Y74.0632 
G01 X38.3118 Y74.0548 
G01 X38.1092 Y74.0548 
G00 Z2.5400 
G00 X31.2325 Y73.4458 
G01 Z-0.1778 F254.00 
G01 X31.2317 Y73.4581 F408.00 
G01 X31.2317 Y74.3872 
G01 X31.2010 Y74.4613 
G01 X31.1443 Y74.5180 
G01 X31.0702 Y74.5487 
G01 X30.9900 Y74.5487 
G01 X30.9159 Y74.5180 
G01 X30.8592 Y74.4613 
G01 X30.8285 Y74.3872 
G01 X30.8285 Y73.3926 
G01 X30.8624 Y73.2659 
G01 X30.9279 Y73.1524 
G01 X31.0207 Y73.0597 
G01 X31.1342 Y72.9941 
G01 X31.2608 Y72.9602 
G01 X31.8604 Y72.9602 
G01 X31.9345 Y72.9909 
G01 X31.9912 Y73.0476 
G01 X32.0219 Y73.1217 
G01 X32.0219 Y74.3872 
G01 X31.9912 Y74.4613 
G01 X31.9345 Y74.5180 
G01 X31.8604 Y74.5487 
G01 X31.7802 Y74.5487 
G01 X31.7061 Y74.5180 
G01 X31.6494 Y74.4613 
G01 X31.6187 Y74.3872 
G01 X31.6187 Y73.3634 
G01 X31.3264 Y73.3634 
G01 X31.3140 Y73.3642 
G01 X31.2901 Y73.3706 
G01 X31.2687 Y73.3830 
G01 X31.2512 Y73.4005 
G01 X31.2389 Y73.4219 
G01 X31.2325 Y73.4458 
G00 Z2.5400 
G00 X28.0363 Y75.1223 
G01 Z-0.1778 F254.00 
G01 X28.0273 Y75.1151 F408.00 
G01 X28.0167 Y75.1107 
G01 X27.9963 Y75.0902 
G01 X27.4798 Y74.6771 
G01 X27.4411 Y74.6068 
G01 X27.4322 Y74.5271 
G01 X27.4546 Y74.4501 
G01 X27.5047 Y74.3874 
G01 X27.5749 Y74.3488 
G01 X27.6546 Y74.3399 
G01 X27.7317 Y74.3622 
G01 X27.9293 Y74.5203 
G01 X27.9293 Y73.3634 
G01 X27.5969 Y73.3634 
G01 X27.5228 Y73.3327 
G01 X27.4661 Y73.2760 
G01 X27.4354 Y73.2019 
G01 X27.4354 Y73.1217 
G01 X27.4661 Y73.0476 
G01 X27.5228 Y72.9909 
G01 X27.5969 Y72.9602 
G01 X28.6649 Y72.9602 
G01 X28.7390 Y72.9909 
G01 X28.7957 Y73.0476 
G01 X28.8264 Y73.1217 
G01 X28.8264 Y73.2019 
G01 X28.7957 Y73.2760 
G01 X28.7390 Y73.3327 
G01 X28.6649 Y73.3634 
G01 X28.3325 Y73.3634 
G01 X28.3325 Y74.9286 
G01 X28.3357 Y74.9574 
G01 X28.3325 Y74.9684 
G01 X28.3325 Y74.9799 
G01 X28.3214 Y75.0066 
G01 X28.3134 Y75.0344 
G01 X28.3062 Y75.0434 
G01 X28.3018 Y75.0540 
G01 X28.2814 Y75.0745 
G01 X28.2633 Y75.0971 
G01 X28.2532 Y75.1026 
G01 X28.2451 Y75.1107 
G01 X28.2184 Y75.1218 
G01 X28.1930 Y75.1357 
G01 X28.1816 Y75.1370 
G01 X28.1710 Y75.1414 
G01 X28.1421 Y75.1414 
G01 X28.1133 Y75.1446 
G01 X28.1023 Y75.1414 
G01 X28.0908 Y75.1414 
G01 X28.0641 Y75.1303 
G01 X28.0363 Y75.1223 
G00 Z2.5400 
G00 X26.1882 Y72.7707 
G01 Z-0.1778 F254.00 
G01 X26.1141 Y72.7400 F408.00 
G01 X26.0574 Y72.6833 
G01 X26.0267 Y72.6092 
G01 X26.0267 Y72.5290 
G01 X26.0574 Y72.4549 
G01 X26.1141 Y72.3982 
G01 X26.1882 Y72.3675 
G01 X26.3931 Y72.3675 
G01 X26.4001 Y72.3652 
G01 X26.4330 Y72.3675 
G01 X26.4659 Y72.3675 
G01 X26.4727 Y72.3704 
G01 X26.4801 Y72.3709 
G01 X26.5096 Y72.3856 
G01 X26.5400 Y72.3982 
G01 X26.5452 Y72.4035 
G01 X26.5518 Y72.4068 
G01 X26.5734 Y72.4316 
G01 X26.5967 Y72.4549 
G01 X26.5996 Y72.4618 
G01 X26.6044 Y72.4673 
G01 X26.6148 Y72.4986 
G01 X26.6274 Y72.5290 
G01 X26.6274 Y72.5364 
G01 X26.8101 Y73.0845 
G01 X26.8216 Y73.1075 
G01 X26.8227 Y73.1222 
G01 X27.2224 Y74.3214 
G01 X27.2167 Y74.4014 
G01 X27.1809 Y74.4732 
G01 X27.1203 Y74.5257 
G01 X27.0442 Y74.5511 
G01 X26.9642 Y74.5454 
G01 X26.8925 Y74.5095 
G01 X26.8399 Y74.4489 
G01 X26.6234 Y73.7993 
G01 X26.4068 Y74.4489 
G01 X26.3543 Y74.5095 
G01 X26.2826 Y74.5454 
G01 X26.2026 Y74.5511 
G01 X26.1265 Y74.5257 
G01 X26.0659 Y74.4732 
G01 X26.0300 Y74.4014 
G01 X26.0243 Y74.3214 
G01 X26.4109 Y73.1618 
G01 X26.2805 Y72.7707 
G01 X26.1882 Y72.7707 
G00 Z2.5400 
G00 X24.5750 Y73.1217 
G01 Z-0.1778 F254.00 
G01 X24.6057 Y73.0476 F408.00 
G01 X24.6624 Y72.9909 
G01 X24.7365 Y72.9602 
G01 X24.8167 Y72.9602 
G01 X24.8908 Y72.9909 
G01 X24.9475 Y73.0476 
G01 X24.9782 Y73.1217 
G01 X24.9782 Y74.1455 
G01 X25.2704 Y74.1455 
G01 X25.2828 Y74.1447 
G01 X25.3067 Y74.1383 
G01 X25.3281 Y74.1260 
G01 X25.3456 Y74.1085 
G01 X25.3580 Y74.0871 
G01 X25.3644 Y74.0632 
G01 X25.3652 Y74.0508 
G01 X25.3652 Y73.1217 
G01 X25.3959 Y73.0476 
G01 X25.4526 Y72.9909 
G01 X25.5267 Y72.9602 
G01 X25.6069 Y72.9602 
G01 X25.6810 Y72.9909 
G01 X25.7377 Y73.0476 
G01 X25.7684 Y73.1217 
G01 X25.7684 Y74.1164 
G01 X25.7344 Y74.2430 
G01 X25.6689 Y74.3565 
G01 X25.5762 Y74.4492 
G01 X25.4626 Y74.5148 
G01 X25.3360 Y74.5487 
G01 X24.7365 Y74.5487 
G01 X24.6624 Y74.5180 
G01 X24.6057 Y74.4613 
G01 X24.5750 Y74.3872 
G01 X24.5750 Y74.3070 
G01 X24.5750 Y73.1217 
G00 Z2.5400 
G00 X22.7925 Y73.1217 
G01 Z-0.1778 F254.00 
G01 X22.8232 Y73.0476 F408.00 
G01 X22.8799 Y72.9909 
G01 X22.9540 Y72.9602 
G01 X23.0342 Y72.9602 
G01 X23.1083 Y72.9909 
G01 X23.1650 Y73.0476 
G01 X23.1957 Y73.1217 
G01 X23.1957 Y74.7382 
G01 X23.5281 Y74.7382 
G01 X23.6022 Y74.7689 
G01 X23.6589 Y74.8256 
G01 X23.6896 Y74.8997 
G01 X23.6896 Y74.9799 
G01 X23.6589 Y75.0540 
G01 X23.6022 Y75.1107 
G01 X23.5281 Y75.1414 
G01 X22.4601 Y75.1414 
G01 X22.3860 Y75.1107 
G01 X22.3293 Y75.0540 
G01 X22.2986 Y74.9799 
G01 X22.2986 Y74.8997 
G01 X22.3293 Y74.8256 
G01 X22.3860 Y74.7689 
G01 X22.4601 Y74.7382 
G01 X22.7925 Y74.7382 
G01 X22.7925 Y73.1217 
G00 Z2.5400 
G00 X17.9575 Y72.9602 
G01 Z-0.1778 F254.00 
G01 X18.0316 Y72.9909 F408.00 
G01 X18.0883 Y73.0476 
G01 X18.1190 Y73.1217 
G01 X18.1190 Y73.2019 
G01 X18.0883 Y73.2760 
G01 X18.0316 Y73.3327 
G01 X17.9575 Y73.3634 
G01 X17.4235 Y73.3634 
G01 X17.4112 Y73.3642 
G01 X17.3873 Y73.3706 
G01 X17.3659 Y73.3830 
G01 X17.3484 Y73.4005 
G01 X17.3360 Y73.4219 
G01 X17.3296 Y73.4458 
G01 X17.3288 Y73.4581 
G01 X17.3288 Y73.5529 
G01 X17.9575 Y73.5529 
G01 X18.0316 Y73.5836 
G01 X18.0883 Y73.6403 
G01 X18.1190 Y73.7144 
G01 X18.1190 Y73.9921 
G01 X18.1190 Y74.0245 
G01 X18.0843 Y74.1652 
G01 X18.0170 Y74.2935 
G01 X17.9209 Y74.4019 
G01 X17.8016 Y74.4843 
G01 X17.6662 Y74.5356 
G01 X17.5223 Y74.5531 
G01 X17.3785 Y74.5356 
G01 X17.2430 Y74.4843 
G01 X17.1237 Y74.4019 
G01 X17.0276 Y74.2935 
G01 X16.9603 Y74.1652 
G01 X16.9256 Y74.0245 
G01 X16.9256 Y73.3926 
G01 X16.9595 Y73.2659 
G01 X17.0251 Y73.1524 
G01 X17.1178 Y73.0597 
G01 X17.2313 Y72.9941 
G01 X17.3580 Y72.9602 
G01 X17.4636 Y72.9602 
G01 X17.9575 Y72.9602 
G00 Z2.5400 
G00 X9.0228 Y73.1217 
G01 Z-0.1778 F254.00 
G01 X9.0535 Y73.0476 F408.00 
G01 X9.1102 Y72.9909 
G01 X9.1843 Y72.9602 
G01 X9.2645 Y72.9602 
G01 X9.3386 Y72.9909 
G01 X9.3953 Y73.0476 
G01 X9.4260 Y73.1217 
G01 X9.4260 Y74.1455 
G01 X9.6155 Y74.1455 
G01 X9.6155 Y73.1217 
G01 X9.6462 Y73.0476 
G01 X9.7029 Y72.9909 
G01 X9.7770 Y72.9602 
G01 X9.8572 Y72.9602 
G01 X9.9313 Y72.9909 
G01 X9.9880 Y73.0476 
G01 X10.0187 Y73.1217 
G01 X10.0187 Y74.1455 
G01 X10.1134 Y74.1455 
G01 X10.1258 Y74.1447 
G01 X10.1497 Y74.1383 
G01 X10.1711 Y74.1260 
G01 X10.1886 Y74.1085 
G01 X10.2009 Y74.0871 
G01 X10.2073 Y74.0632 
G01 X10.2082 Y74.0508 
G01 X10.2082 Y73.1217 
G01 X10.2388 Y73.0476 
G01 X10.2956 Y72.9909 
G01 X10.3697 Y72.9602 
G01 X10.4499 Y72.9602 
G01 X10.5240 Y72.9909 
G01 X10.5807 Y73.0476 
G01 X10.6114 Y73.1217 
G01 X10.6114 Y74.1164 
G01 X10.5774 Y74.2430 
G01 X10.5119 Y74.3565 
G01 X10.4192 Y74.4492 
G01 X10.3056 Y74.5148 
G01 X10.1790 Y74.5487 
G01 X9.1843 Y74.5487 
G01 X9.1102 Y74.5180 
G01 X9.0535 Y74.4613 
G01 X9.0228 Y74.3872 
G01 X9.0228 Y74.3070 
G01 X9.0228 Y73.1217 
G00 Z2.5400 
G00 X8.5918 Y72.9602 
G01 Z-0.1778 F254.00 
G01 X8.6659 Y72.9909 F408.00 
G01 X8.7226 Y73.0476 
G01 X8.7533 Y73.1217 
G01 X8.7533 Y73.2019 
G01 X8.7226 Y73.2760 
G01 X8.6659 Y73.3327 
G01 X8.5918 Y73.3634 
G01 X8.1566 Y73.3634 
G01 X8.1443 Y73.3642 
G01 X8.1204 Y73.3706 
G01 X8.0990 Y73.3830 
G01 X8.0815 Y73.4005 
G01 X8.0691 Y73.4219 
G01 X8.0627 Y73.4458 
G01 X8.0619 Y73.4581 
G01 X8.0619 Y74.0508 
G01 X8.0627 Y74.0632 
G01 X8.0691 Y74.0871 
G01 X8.0815 Y74.1085 
G01 X8.0990 Y74.1260 
G01 X8.1204 Y74.1383 
G01 X8.1443 Y74.1447 
G01 X8.1566 Y74.1455 
G01 X8.5918 Y74.1455 
G01 X8.6659 Y74.1762 
G01 X8.7226 Y74.2329 
G01 X8.7533 Y74.3070 
G01 X8.7533 Y74.3872 
G01 X8.7226 Y74.4613 
G01 X8.6659 Y74.5180 
G01 X8.5918 Y74.5487 
G01 X8.0911 Y74.5487 
G01 X7.9644 Y74.5148 
G01 X7.8509 Y74.4492 
G01 X7.7582 Y74.3565 
G01 X7.6926 Y74.2430 
G01 X7.6587 Y74.1164 
G01 X7.6587 Y73.3926 
G01 X7.6926 Y73.2659 
G01 X7.7582 Y73.1524 
G01 X7.8509 Y73.0597 
G01 X7.9644 Y72.9941 
G01 X8.0911 Y72.9602 
G01 X8.1967 Y72.9602 
G01 X8.5918 Y72.9602 
G00 Z2.5400 
G00 X12.1378 Y74.9799 
G01 Z-0.1778 F254.00 
G01 X12.1072 Y75.0540 F408.00 
G01 X12.0504 Y75.1107 
G01 X11.9763 Y75.1414 
G01 X11.8961 Y75.1414 
G01 X11.8220 Y75.1107 
G01 X11.7653 Y75.0540 
G01 X11.7346 Y74.9799 
G01 X11.7346 Y74.5487 
G01 X11.3768 Y74.5487 
G01 X11.2502 Y74.5148 
G01 X11.1366 Y74.4492 
G01 X11.0439 Y74.3565 
G01 X10.9784 Y74.2430 
G01 X10.9444 Y74.1164 
G01 X10.9444 Y73.3926 
G01 X10.9784 Y73.2659 
G01 X11.0439 Y73.1524 
G01 X11.1366 Y73.0597 
G01 X11.2502 Y72.9941 
G01 X11.3768 Y72.9602 
G01 X11.9763 Y72.9602 
G01 X12.0504 Y72.9909 
G01 X12.1072 Y73.0476 
G01 X12.1378 Y73.1217 
G01 X12.1378 Y73.2019 
G01 X12.1378 Y74.9799 
G00 Z2.5400 
G00 X12.9183 Y72.9602 
G01 Z-0.1778 F254.00 
G01 X13.3936 Y72.9602 F408.00 
G01 X13.4677 Y72.9909 
G01 X13.5244 Y73.0476 
G01 X13.5551 Y73.1217 
G01 X13.5551 Y73.2019 
G01 X13.5244 Y73.2760 
G01 X13.4677 Y73.3327 
G01 X13.3936 Y73.3634 
G01 X12.9584 Y73.3634 
G01 X12.9461 Y73.3642 
G01 X12.9222 Y73.3706 
G01 X12.9008 Y73.3830 
G01 X12.8833 Y73.4005 
G01 X12.8709 Y73.4219 
G01 X12.8645 Y73.4458 
G01 X12.8637 Y73.4581 
G01 X12.8637 Y74.0508 
G01 X12.8645 Y74.0632 
G01 X12.8709 Y74.0871 
G01 X12.8833 Y74.1085 
G01 X12.9008 Y74.1260 
G01 X12.9222 Y74.1383 
G01 X12.9461 Y74.1447 
G01 X12.9584 Y74.1455 
G01 X13.3936 Y74.1455 
G01 X13.4677 Y74.1762 
G01 X13.5244 Y74.2329 
G01 X13.5551 Y74.3070 
G01 X13.5551 Y74.3872 
G01 X13.5244 Y74.4613 
G01 X13.4677 Y74.5180 
G01 X13.3936 Y74.5487 
G01 X12.8929 Y74.5487 
G01 X12.7662 Y74.5148 
G01 X12.6527 Y74.4492 
G01 X12.5600 Y74.3565 
G01 X12.4944 Y74.2430 
G01 X12.4605 Y74.1164 
G01 X12.4605 Y73.3926 
G01 X12.4944 Y73.2659 
G01 X12.5600 Y73.1524 
G01 X12.6527 Y73.0597 
G01 X12.7662 Y72.9941 
G01 X12.8929 Y72.9602 
G01 X12.9183 Y72.9602 
G00 Z2.5400 
G00 X15.0336 Y73.4339 
G01 Z-0.1778 F254.00 
G01 X15.0336 Y73.4339 F408.00 
G01 X15.1088 Y73.6749 
G01 X15.1469 Y73.9245 
G01 X15.1469 Y74.1771 
G01 X15.1088 Y74.4267 
G01 X15.0336 Y74.6677 
G01 X14.9838 Y74.7700 
G01 X14.9649 Y74.8251 
G01 X14.8876 Y74.9435 
G01 X14.7835 Y75.0393 
G01 X14.6592 Y75.1067 
G01 X14.5221 Y75.1414 
G01 X14.3807 Y75.1414 
G01 X14.2436 Y75.1067 
G01 X14.1192 Y75.0393 
G01 X14.0152 Y74.9435 
G01 X13.9379 Y74.8251 
G01 X13.9190 Y74.7700 
G01 X13.8691 Y74.6677 
G01 X13.7939 Y74.4267 
G01 X13.7559 Y74.1771 
G01 X13.7559 Y73.9245 
G01 X13.7939 Y73.6749 
G01 X13.8691 Y73.4339 
G01 X13.9190 Y73.3316 
G01 X13.9379 Y73.2765 
G01 X14.0152 Y73.1581 
G01 X14.1192 Y73.0623 
G01 X14.2436 Y72.9949 
G01 X14.3807 Y72.9602 
G01 X14.5221 Y72.9602 
G01 X14.6592 Y72.9949 
G01 X14.7835 Y73.0623 
G01 X14.8876 Y73.1581 
G01 X14.9649 Y73.2765 
G01 X14.9838 Y73.3316 
G01 X15.0336 Y73.4339 
G00 Z2.5400 
G00 X16.6046 Y74.9799 
G01 Z-0.1778 F254.00 
G01 X16.5739 Y75.0540 F408.00 
G01 X16.5172 Y75.1107 
G01 X16.4431 Y75.1414 
G01 X16.3629 Y75.1414 
G01 X16.2888 Y75.1107 
G01 X16.2321 Y75.0540 
G01 X16.2014 Y74.9799 
G01 X16.2014 Y74.5487 
G01 X15.8436 Y74.5487 
G01 X15.7170 Y74.5148 
G01 X15.6034 Y74.4492 
G01 X15.5107 Y74.3565 
G01 X15.4451 Y74.2430 
G01 X15.4112 Y74.1164 
G01 X15.4112 Y73.3926 
G01 X15.4451 Y73.2659 
G01 X15.5107 Y73.1524 
G01 X15.6034 Y73.0597 
G01 X15.7169 Y72.9941 
G01 X15.8436 Y72.9602 
G01 X16.4431 Y72.9602 
G01 X16.5172 Y72.9909 
G01 X16.5739 Y73.0476 
G01 X16.6046 Y73.1217 
G01 X16.6046 Y73.2019 
G01 X16.6046 Y74.9799 
G00 Z2.5400 
G00 X19.8005 Y75.0416 
G01 Z-0.1778 F254.00 
G01 X19.7923 Y75.0171 F408.00 
G01 X19.7808 Y74.9941 
G01 X19.7797 Y74.9794 
G01 X19.3455 Y73.6769 
G01 X19.3329 Y73.6464 
G01 X19.3329 Y73.6390 
G01 X19.1824 Y73.1875 
G01 X19.1881 Y73.1075 
G01 X19.2240 Y73.0358 
G01 X19.2846 Y72.9832 
G01 X19.3607 Y72.9579 
G01 X19.4407 Y72.9635 
G01 X19.5124 Y72.9994 
G01 X19.5649 Y73.0600 
G01 X19.6798 Y73.4047 
G01 X20.2782 Y73.4047 
G01 X20.3931 Y73.0600 
G01 X20.4457 Y72.9994 
G01 X20.5174 Y72.9635 
G01 X20.5974 Y72.9579 
G01 X20.6735 Y72.9832 
G01 X20.7341 Y73.0358 
G01 X20.7699 Y73.1075 
G01 X20.7756 Y73.1875 
G01 X20.6251 Y73.6390 
G01 X20.6251 Y73.6464 
G01 X20.6125 Y73.6769 
G01 X20.1783 Y74.9794 
G01 X20.1773 Y74.9941 
G01 X20.1658 Y75.0171 
G01 X20.1576 Y75.0416 
G01 X20.1480 Y75.0527 
G01 X20.1414 Y75.0658 
G01 X20.1219 Y75.0827 
G01 X20.1051 Y75.1022 
G01 X20.0919 Y75.1087 
G01 X20.0808 Y75.1184 
G01 X20.0564 Y75.1265 
G01 X20.0333 Y75.1380 
G01 X20.0187 Y75.1391 
G01 X20.0047 Y75.1437 
G01 X19.9790 Y75.1419 
G01 X19.9533 Y75.1437 
G01 X19.9394 Y75.1391 
G01 X19.9247 Y75.1380 
G01 X19.9017 Y75.1265 
G01 X19.8772 Y75.1184 
G01 X19.8661 Y75.1087 
G01 X19.8530 Y75.1022 
G01 X19.8361 Y75.0827 
G01 X19.8166 Y75.0658 
G01 X19.8101 Y75.0527 
G01 X19.8005 Y75.0416 
G00 Z2.5400 
G00 X21.3408 Y73.1217 
G01 Z-0.1778 F254.00 
G01 X21.3715 Y73.0476 F408.00 
G01 X21.4282 Y72.9909 
G01 X21.5023 Y72.9602 
G01 X21.5825 Y72.9602 
G01 X21.6566 Y72.9909 
G01 X21.7133 Y73.0476 
G01 X21.7440 Y73.1217 
G01 X21.7440 Y74.7382 
G01 X22.0764 Y74.7382 
G01 X22.1505 Y74.7689 
G01 X22.2072 Y74.8256 
G01 X22.2379 Y74.8997 
G01 X22.2379 Y74.9799 
G01 X22.2072 Y75.0540 
G01 X22.1505 Y75.1107 
G01 X22.0764 Y75.1414 
G01 X21.0084 Y75.1414 
G01 X20.9343 Y75.1107 
G01 X20.8776 Y75.0540 
G01 X20.8469 Y74.9799 
G01 X20.8469 Y74.8997 
G01 X20.8776 Y74.8256 
G01 X20.9343 Y74.7689 
G01 X21.0084 Y74.7382 
G01 X21.3408 Y74.7382 
G01 X21.3408 Y73.1217 
G00 Z2.5400 
G00 X23.8534 Y74.3872 
G01 Z-0.1778 F254.00 
G01 X23.8534 Y73.1217 F408.00 
G01 X23.8841 Y73.0476 
G01 X23.9408 Y72.9909 
G01 X24.0149 Y72.9602 
G01 X24.0951 Y72.9602 
G01 X24.1692 Y72.9909 
G01 X24.2259 Y73.0476 
G01 X24.2566 Y73.1217 
G01 X24.2566 Y74.3872 
G01 X24.2259 Y74.4613 
G01 X24.1692 Y74.5180 
G01 X24.0951 Y74.5487 
G01 X24.0149 Y74.5487 
G01 X23.9408 Y74.5180 
G01 X23.8841 Y74.4613 
G01 X23.8534 Y74.3872 
G00 Z2.5400 
G00 X24.3060 Y74.9799 
G01 Z-0.1778 F254.00 
G01 X24.2753 Y75.0540 F408.00 
G01 X24.2186 Y75.1107 
G01 X24.1445 Y75.1414 
G01 X23.9655 Y75.1414 
G01 X23.8914 Y75.1107 
G01 X23.8347 Y75.0540 
G01 X23.8040 Y74.9799 
G01 X23.8040 Y74.8009 
G01 X23.8347 Y74.7268 
G01 X23.8914 Y74.6701 
G01 X23.9655 Y74.6394 
G01 X24.1445 Y74.6394 
G01 X24.2186 Y74.6701 
G01 X24.2753 Y74.7268 
G01 X24.3060 Y74.8009 
G01 X24.3060 Y74.8811 
G01 X24.3060 Y74.9799 
G00 Z2.5400 
G00 X29.2720 Y75.1414 
G01 Z-0.1778 F254.00 
G01 X29.1979 Y75.1107 F408.00 
G01 X29.1412 Y75.0540 
G01 X29.1105 Y74.9799 
G01 X29.1105 Y74.8997 
G01 X29.1412 Y74.8256 
G01 X29.1979 Y74.7689 
G01 X29.2720 Y74.7382 
G01 X29.9047 Y74.7382 
G01 X29.9281 Y74.7368 
G01 X29.9734 Y74.7256 
G01 X30.0147 Y74.7039 
G01 X30.0496 Y74.6730 
G01 X30.0761 Y74.6346 
G01 X30.0926 Y74.5910 
G01 X30.0983 Y74.5447 
G01 X30.0926 Y74.4984 
G01 X30.0761 Y74.4548 
G01 X30.0496 Y74.4164 
G01 X30.0147 Y74.3854 
G01 X29.9734 Y74.3637 
G01 X29.9281 Y74.3526 
G01 X29.9047 Y74.3512 
G01 X29.4695 Y74.3512 
G01 X29.3954 Y74.3205 
G01 X29.3387 Y74.2638 
G01 X29.3080 Y74.1897 
G01 X29.3080 Y74.1095 
G01 X29.3387 Y74.0354 
G01 X29.3954 Y73.9787 
G01 X29.4695 Y73.9480 
G01 X29.8060 Y73.9480 
G01 X29.8387 Y73.9461 
G01 X29.9025 Y73.9316 
G01 X29.9615 Y73.9032 
G01 X30.0126 Y73.8624 
G01 X30.0534 Y73.8112 
G01 X30.0818 Y73.7522 
G01 X30.0964 Y73.6884 
G01 X30.0964 Y73.6230 
G01 X30.0818 Y73.5591 
G01 X30.0534 Y73.5002 
G01 X30.0126 Y73.4490 
G01 X29.9615 Y73.4082 
G01 X29.9025 Y73.3798 
G01 X29.8387 Y73.3652 
G01 X29.8060 Y73.3634 
G01 X29.2720 Y73.3634 
G01 X29.1979 Y73.3327 
G01 X29.1412 Y73.2760 
G01 X29.1105 Y73.2019 
G01 X29.1105 Y73.1217 
G01 X29.1412 Y73.0476 
G01 X29.1979 Y72.9909 
G01 X29.2720 Y72.9602 
G01 X29.8843 Y72.9602 
G01 X30.0371 Y72.9951 
G01 X30.1783 Y73.0631 
G01 X30.3009 Y73.1608 
G01 X30.3986 Y73.2833 
G01 X30.4666 Y73.4245 
G01 X30.5014 Y73.5773 
G01 X30.5014 Y73.7341 
G01 X30.4666 Y73.8868 
G01 X30.3986 Y74.0280 
G01 X30.3252 Y74.1200 
G01 X30.3547 Y74.1461 
G01 X30.4370 Y74.2653 
G01 X30.4884 Y74.4008 
G01 X30.5058 Y74.5447 
G01 X30.4884 Y74.6885 
G01 X30.4370 Y74.8240 
G01 X30.3547 Y74.9433 
G01 X30.2462 Y75.0394 
G01 X30.1179 Y75.1067 
G01 X29.9772 Y75.1414 
G01 X29.8646 Y75.1414 
G01 X29.2720 Y75.1414 
G00 Z2.5400 
G00 X34.0916 Y72.9602 
G01 Z-0.1778 F254.00 
G01 X34.0916 Y72.9602 F408.00 
G01 X34.2444 Y72.9951 
G01 X34.3856 Y73.0631 
G01 X34.5082 Y73.1608 
G01 X34.6059 Y73.2833 
G01 X34.6739 Y73.4245 
G01 X34.7088 Y73.5773 
G01 X34.7088 Y73.7341 
G01 X34.6739 Y73.8868 
G01 X34.6059 Y74.0280 
G01 X34.5082 Y74.1506 
G01 X34.4812 Y74.1721 
G01 X34.5455 Y74.2653 
G01 X34.5969 Y74.4008 
G01 X34.6144 Y74.5447 
G01 X34.5969 Y74.6885 
G01 X34.5455 Y74.8240 
G01 X34.4632 Y74.9433 
G01 X34.3547 Y75.0394 
G01 X34.2264 Y75.1067 
G01 X34.0857 Y75.1414 
G01 X33.4793 Y75.1414 
G01 X33.4052 Y75.1107 
G01 X33.3485 Y75.0540 
G01 X33.3178 Y74.9799 
G01 X33.3178 Y73.1217 
G01 X33.3485 Y73.0476 
G01 X33.4052 Y72.9909 
G01 X33.4793 Y72.9602 
G01 X34.0534 Y72.9602 
G01 X34.0916 Y72.9602 
G00 Z2.5400 
G00 X34.9683 Y73.1217 
G01 Z-0.1778 F254.00 
G01 X34.9990 Y73.0476 F408.00 
G01 X35.0557 Y72.9909 
G01 X35.1298 Y72.9602 
G01 X35.2100 Y72.9602 
G01 X35.2841 Y72.9909 
G01 X35.3408 Y73.0476 
G01 X35.3715 Y73.1217 
G01 X35.3715 Y74.1455 
G01 X35.5609 Y74.1455 
G01 X35.5609 Y74.1095 
G01 X35.5916 Y74.0354 
G01 X35.6483 Y73.9787 
G01 X35.7224 Y73.9480 
G01 X35.8026 Y73.9480 
G01 X35.8767 Y73.9787 
G01 X35.9335 Y74.0354 
G01 X35.9641 Y74.1095 
G01 X35.9641 Y74.3872 
G01 X35.9335 Y74.4613 
G01 X35.8767 Y74.5180 
G01 X35.8026 Y74.5487 
G01 X35.1298 Y74.5487 
G01 X35.0557 Y74.5180 
G01 X34.9990 Y74.4613 
G01 X34.9683 Y74.3872 
G01 X34.9683 Y74.3070 
G01 X34.9683 Y73.1217 
G00 Z2.5400 
G00 X37.1089 Y72.9602 
G01 Z-0.1778 F254.00 
G01 X37.1830 Y72.9909 F408.00 
G01 X37.2397 Y73.0476 
G01 X37.2704 Y73.1217 
G01 X37.2704 Y73.2019 
G01 X37.2397 Y73.2760 
G01 X37.1830 Y73.3327 
G01 X37.1089 Y73.3634 
G01 X36.5749 Y73.3634 
G01 X36.5625 Y73.3642 
G01 X36.5386 Y73.3706 
G01 X36.5172 Y73.3830 
G01 X36.4997 Y73.4005 
G01 X36.4873 Y73.4219 
G01 X36.4809 Y73.4458 
G01 X36.4801 Y73.4581 
G01 X36.4801 Y73.5529 
G01 X37.1089 Y73.5529 
G01 X37.1830 Y73.5836 
G01 X37.2397 Y73.6403 
G01 X37.2704 Y73.7144 
G01 X37.2704 Y73.9921 
G01 X37.2704 Y74.0245 
G01 X37.2357 Y74.1652 
G01 X37.1683 Y74.2935 
G01 X37.0722 Y74.4019 
G01 X36.9530 Y74.4843 
G01 X36.8175 Y74.5356 
G01 X36.6736 Y74.5531 
G01 X36.5298 Y74.5356 
G01 X36.3943 Y74.4843 
G01 X36.2750 Y74.4019 
G01 X36.1790 Y74.2935 
G01 X36.1116 Y74.1652 
G01 X36.0769 Y74.0245 
G01 X36.0769 Y73.3926 
G01 X36.1109 Y73.2659 
G01 X36.1764 Y73.1524 
G01 X36.2691 Y73.0597 
G01 X36.3827 Y72.9941 
G01 X36.5093 Y72.9602 
G01 X36.6150 Y72.9602 
G01 X37.1089 Y72.9602 
G00 Z2.5400 
G00 X42.3994 Y73.4458 
G01 Z-0.1778 F254.00 
G01 X42.3986 Y73.4581 F408.00 
G01 X42.3986 Y74.3872 
G01 X42.3679 Y74.4613 
G01 X42.3112 Y74.5180 
G01 X42.2371 Y74.5487 
G01 X42.1569 Y74.5487 
G01 X42.0828 Y74.5180 
G01 X42.0261 Y74.4613 
G01 X41.9954 Y74.3872 
G01 X41.9954 Y73.3926 
G01 X42.0294 Y73.2659 
G01 X42.0949 Y73.1524 
G01 X42.1876 Y73.0597 
G01 X42.3012 Y72.9941 
G01 X42.4278 Y72.9602 
G01 X43.0274 Y72.9602 
G01 X43.1014 Y72.9909 
G01 X43.1582 Y73.0476 
G01 X43.1888 Y73.1217 
G01 X43.1888 Y74.3872 
G01 X43.1582 Y74.4613 
G01 X43.1014 Y74.5180 
G01 X43.0274 Y74.5487 
G01 X42.9471 Y74.5487 
G01 X42.8730 Y74.5180 
G01 X42.8163 Y74.4613 
G01 X42.7857 Y74.3872 
G01 X42.7857 Y73.3634 
G01 X42.4934 Y73.3634 
G01 X42.4810 Y73.3642 
G01 X42.4571 Y73.3706 
G01 X42.4357 Y73.3830 
G01 X42.4182 Y73.4005 
G01 X42.4058 Y73.4219 
G01 X42.3994 Y73.4458 
G00 Z2.5400 
G00 X2.3836 Y84.1818 
G01 Z-0.1778 F254.00 
G01 X2.3836 Y83.7507 F408.00 
G01 X1.9524 Y83.7507 
G01 X1.8783 Y83.7200 
G01 X1.8216 Y83.6633 
G01 X1.7909 Y83.5892 
G01 X1.7909 Y83.5090 
G01 X1.8216 Y83.4349 
G01 X1.8783 Y83.3782 
G01 X1.9524 Y83.3475 
G01 X2.3836 Y83.3475 
G01 X2.3836 Y82.9163 
G01 X2.4143 Y82.8422 
G01 X2.4710 Y82.7855 
G01 X2.5451 Y82.7548 
G01 X2.6253 Y82.7548 
G01 X2.6994 Y82.7855 
G01 X2.7561 Y82.8422 
G01 X2.7868 Y82.9163 
G01 X2.7868 Y83.3475 
G01 X3.2179 Y83.3475 
G01 X3.2920 Y83.3782 
G01 X3.3487 Y83.4349 
G01 X3.3794 Y83.5090 
G01 X3.3794 Y83.5892 
G01 X3.3487 Y83.6633 
G01 X3.2920 Y83.7200 
G01 X3.2179 Y83.7507 
G01 X2.7868 Y83.7507 
G01 X2.7868 Y84.1818 
G01 X2.7561 Y84.2559 
G01 X2.6994 Y84.3126 
G01 X2.6253 Y84.3433 
G01 X2.5451 Y84.3433 
G01 X2.4710 Y84.3126 
G01 X2.4143 Y84.2559 
G01 X2.3836 Y84.1818 
G00 Z2.5400 
G00 X46.0650 Y79.9032 
G01 Z-0.1778 F254.00 
G01 X46.0650 Y79.9032 F408.00 
G01 X45.9424 Y80.0009 
G01 X45.8012 Y80.0689 
G01 X45.6485 Y80.1038 
G01 X45.4917 Y80.1038 
G01 X45.3389 Y80.0689 
G01 X45.1977 Y80.0009 
G01 X45.0752 Y79.9032 
G01 X44.9775 Y79.7807 
G01 X44.9095 Y79.6395 
G01 X44.8746 Y79.4867 
G01 X44.8746 Y78.8743 
G01 X44.9053 Y78.8002 
G01 X44.9620 Y78.7435 
G01 X45.0361 Y78.7128 
G01 X46.8943 Y78.7128 
G01 X46.9684 Y78.7435 
G01 X47.0251 Y78.8002 
G01 X47.0558 Y78.8743 
G01 X47.0558 Y78.9545 
G01 X47.0251 Y79.0286 
G01 X46.9684 Y79.0853 
G01 X46.8943 Y79.1160 
G01 X46.2656 Y79.1160 
G01 X46.2656 Y79.3825 
G01 X46.9802 Y79.7398 
G01 X47.0328 Y79.8004 
G01 X47.0581 Y79.8765 
G01 X47.0524 Y79.9565 
G01 X47.0166 Y80.0282 
G01 X46.9560 Y80.0808 
G01 X46.8799 Y80.1061 
G01 X46.7999 Y80.1004 
G01 X46.1620 Y79.7815 
G01 X46.0650 Y79.9032 
G00 Z2.5400 
G00 X47.0558 Y84.4850 
G01 Z-0.1778 F254.00 
G01 X47.0251 Y84.5591 F408.00 
G01 X46.9684 Y84.6158 
G01 X46.8943 Y84.6465 
G01 X46.8141 Y84.6465 
G01 X46.7400 Y84.6158 
G01 X46.6833 Y84.5591 
G01 X46.6526 Y84.4850 
G01 X46.6526 Y83.8563 
G01 X46.0680 Y83.8563 
G01 X46.0680 Y84.2875 
G01 X46.0373 Y84.3616 
G01 X45.9806 Y84.4183 
G01 X45.9065 Y84.4490 
G01 X45.8263 Y84.4490 
G01 X45.7522 Y84.4183 
G01 X45.6955 Y84.3616 
G01 X45.6648 Y84.2875 
G01 X45.6648 Y83.8563 
G01 X45.2778 Y83.8563 
G01 X45.2778 Y84.4850 
G01 X45.2471 Y84.5591 
G01 X45.1904 Y84.6158 
G01 X45.1163 Y84.6465 
G01 X45.0361 Y84.6465 
G01 X44.9620 Y84.6158 
G01 X44.9053 Y84.5591 
G01 X44.8746 Y84.4850 
G01 X44.8746 Y83.6146 
G01 X44.9053 Y83.5405 
G01 X44.9620 Y83.4838 
G01 X45.0361 Y83.4531 
G01 X46.8943 Y83.4531 
G01 X46.9684 Y83.4838 
G01 X47.0251 Y83.5405 
G01 X47.0558 Y83.6146 
G01 X47.0558 Y83.6948 
G01 X47.0558 Y84.4850 
G00 Z2.5400 
G00 X26.1741 Y85.1076 
G01 Z-0.1778 F254.00 
G01 X26.1741 Y84.4077 F408.00 
G01 X26.1932 Y84.3616 
G01 X26.2285 Y84.3263 
G01 X26.2746 Y84.3072 
G01 X27.8495 Y84.3072 
G01 X27.8956 Y84.3263 
G01 X27.9308 Y84.3616 
G01 X27.9499 Y84.4077 
G01 X27.9499 Y84.5560 
G01 X28.7977 Y84.5560 
G01 X28.8718 Y84.5867 
G01 X30.1142 Y85.8291 
G01 X30.1709 Y85.8858 
G01 X30.2016 Y85.9599 
G01 X30.2016 Y90.9438 
G01 X30.2502 Y90.9438 
G01 X30.4158 Y90.9700 
G01 X30.5752 Y91.0218 
G01 X30.7246 Y91.0979 
G01 X30.8603 Y91.1965 
G01 X30.9788 Y91.3150 
G01 X31.0774 Y91.4507 
G01 X31.1535 Y91.6001 
G01 X31.2053 Y91.7595 
G01 X31.2315 Y91.9251 
G01 X31.2315 Y92.0928 
G01 X31.2053 Y92.2584 
G01 X31.1535 Y92.4179 
G01 X31.0774 Y92.5672 
G01 X30.9788 Y92.7029 
G01 X30.8603 Y92.8214 
G01 X30.7246 Y92.9200 
G01 X30.5752 Y92.9961 
G01 X30.4158 Y93.0479 
G01 X30.2502 Y93.0742 
G01 X30.0825 Y93.0742 
G01 X29.9169 Y93.0479 
G01 X29.7574 Y92.9961 
G01 X29.6081 Y92.9200 
G01 X29.4724 Y92.8214 
G01 X29.3538 Y92.7029 
G01 X29.2553 Y92.5672 
G01 X29.1792 Y92.4179 
G01 X29.1274 Y92.2584 
G01 X29.1011 Y92.0928 
G01 X29.1011 Y91.9251 
G01 X29.1274 Y91.7595 
G01 X29.1792 Y91.6001 
G01 X29.2553 Y91.4507 
G01 X29.3538 Y91.3150 
G01 X29.4724 Y91.1965 
G01 X29.6081 Y91.0979 
G01 X29.7574 Y91.0218 
G01 X29.7984 Y91.0085 
G01 X29.7984 Y86.0835 
G01 X28.6741 Y84.9592 
G01 X27.9499 Y84.9592 
G01 X27.9499 Y85.1076 
G01 X27.9308 Y85.1537 
G01 X27.8956 Y85.1889 
G01 X27.8495 Y85.2080 
G01 X26.2746 Y85.2080 
G01 X26.2285 Y85.1889 
G01 X26.1932 Y85.1537 
G01 X26.1741 Y85.1076 
G00 Z2.5400 
G00 X26.1741 Y86.3776 
G01 Z-0.1778 F254.00 
G01 X26.1741 Y86.2292 F408.00 
G01 X25.0559 Y86.2292 
G01 X24.6059 Y86.6792 
G01 X24.6059 Y91.0582 
G01 X24.6774 Y91.0218 
G01 X24.8369 Y90.9700 
G01 X25.0025 Y90.9438 
G01 X25.1702 Y90.9438 
G01 X25.3358 Y90.9700 
G01 X25.4952 Y91.0218 
G01 X25.6446 Y91.0979 
G01 X25.7803 Y91.1965 
G01 X25.8988 Y91.3150 
G01 X25.9974 Y91.4507 
G01 X26.0735 Y91.6001 
G01 X26.1253 Y91.7595 
G01 X26.1515 Y91.9251 
G01 X26.1515 Y92.0928 
G01 X26.1253 Y92.2584 
G01 X26.0735 Y92.4179 
G01 X25.9974 Y92.5672 
G01 X25.8988 Y92.7029 
G01 X25.7803 Y92.8214 
G01 X25.6446 Y92.9200 
G01 X25.4952 Y92.9961 
G01 X25.3358 Y93.0479 
G01 X25.1702 Y93.0742 
G01 X25.0025 Y93.0742 
G01 X24.8369 Y93.0479 
G01 X24.6774 Y92.9961 
G01 X24.5281 Y92.9200 
G01 X24.3924 Y92.8214 
G01 X24.2738 Y92.7029 
G01 X24.1753 Y92.5672 
G01 X24.0992 Y92.4179 
G01 X24.0474 Y92.2584 
G01 X24.0211 Y92.0928 
G01 X24.0211 Y91.9251 
G01 X24.0474 Y91.7595 
G01 X24.0992 Y91.6001 
G01 X24.1753 Y91.4507 
G01 X24.2148 Y91.3963 
G01 X24.2027 Y91.3670 
G01 X24.2027 Y86.5556 
G01 X24.2334 Y86.4815 
G01 X24.2901 Y86.4248 
G01 X24.8858 Y85.8291 
G01 X24.9599 Y85.7984 
G01 X25.0401 Y85.7984 
G01 X25.1068 Y85.8260 
G01 X26.1741 Y85.8260 
G01 X26.1741 Y85.6777 
G01 X26.1932 Y85.6316 
G01 X26.2285 Y85.5963 
G01 X26.2746 Y85.5772 
G01 X27.8495 Y85.5772 
G01 X27.8956 Y85.5963 
G01 X27.9308 Y85.6316 
G01 X27.9499 Y85.6777 
G01 X27.9499 Y86.3776 
G01 X27.9308 Y86.4237 
G01 X27.8956 Y86.4589 
G01 X27.8495 Y86.4780 
G01 X26.2746 Y86.4780 
G01 X26.2285 Y86.4589 
G01 X26.1932 Y86.4237 
G01 X26.1741 Y86.3776 
G00 Z2.5400 
G00 X15.8911 Y93.0742 
G01 Z-0.1778 F254.00 
G01 X13.9616 Y93.0742 F408.00 
G01 X13.9155 Y93.0551 
G01 X13.8802 Y93.0198 
G01 X13.8611 Y92.9737 
G01 X13.8611 Y91.2289 
G01 X7.8074 Y85.1751 
G01 X7.7035 Y85.2506 
G01 X7.5542 Y85.3267 
G01 X7.3947 Y85.3786 
G01 X7.2291 Y85.4048 
G01 X7.0614 Y85.4048 
G01 X6.8958 Y85.3786 
G01 X6.7364 Y85.3267 
G01 X6.5870 Y85.2506 
G01 X6.4513 Y85.1521 
G01 X6.3328 Y85.0335 
G01 X6.2342 Y84.8979 
G01 X6.1581 Y84.7485 
G01 X6.1063 Y84.5890 
G01 X6.0801 Y84.4234 
G01 X6.0801 Y84.2557 
G01 X6.1063 Y84.0901 
G01 X6.1581 Y83.9307 
G01 X6.2342 Y83.7813 
G01 X6.3328 Y83.6457 
G01 X6.4513 Y83.5271 
G01 X6.5870 Y83.4285 
G01 X6.7364 Y83.3524 
G01 X6.8958 Y83.3006 
G01 X7.0614 Y83.2744 
G01 X7.2291 Y83.2744 
G01 X7.3947 Y83.3006 
G01 X7.5542 Y83.3524 
G01 X7.7035 Y83.4285 
G01 X7.8392 Y83.5271 
G01 X7.9578 Y83.6457 
G01 X8.0563 Y83.7813 
G01 X8.1324 Y83.9307 
G01 X8.1842 Y84.0901 
G01 X8.1918 Y84.1380 
G01 X13.4237 Y84.1380 
G01 X14.8510 Y82.7108 
G01 X14.8510 Y81.5120 
G01 X14.8701 Y81.4659 
G01 X14.9053 Y81.4306 
G01 X14.9514 Y81.4116 
G01 X16.4999 Y81.4116 
G01 X16.5460 Y81.4306 
G01 X16.5813 Y81.4659 
G01 X16.6004 Y81.5120 
G01 X16.6004 Y81.9196 
G01 X17.9953 Y81.9196 
G01 X17.9953 Y81.3399 
G01 X18.0144 Y81.2938 
G01 X18.0497 Y81.2585 
G01 X18.0958 Y81.2394 
G01 X19.6442 Y81.2394 
G01 X19.6903 Y81.2585 
G01 X19.7256 Y81.2938 
G01 X19.7447 Y81.3399 
G01 X19.7447 Y81.7474 
G01 X19.9675 Y81.7474 
G01 X21.8291 Y79.8858 
G01 X21.8858 Y79.8291 
G01 X21.9599 Y79.7984 
G01 X29.9165 Y79.7984 
G01 X30.2894 Y79.4255 
G01 X30.3461 Y79.3688 
G01 X30.4202 Y79.3381 
G01 X31.9762 Y79.3381 
G01 X31.9762 Y79.1148 
G01 X31.9953 Y79.0687 
G01 X32.0306 Y79.0334 
G01 X32.0767 Y79.0143 
G01 X33.3266 Y79.0143 
G01 X33.3727 Y79.0334 
G01 X33.4079 Y79.0687 
G01 X33.4270 Y79.1148 
G01 X33.4270 Y79.9647 
G01 X33.4079 Y80.0108 
G01 X33.3727 Y80.0460 
G01 X33.3266 Y80.0651 
G01 X32.0767 Y80.0651 
G01 X32.0306 Y80.0460 
G01 X31.9953 Y80.0108 
G01 X31.9762 Y79.9647 
G01 X31.9762 Y79.7413 
G01 X30.5438 Y79.7413 
G01 X30.1142 Y80.1709 
G01 X30.0401 Y80.2016 
G01 X22.0835 Y80.2016 
G01 X20.3603 Y81.9248 
G01 X21.4727 Y83.0372 
G01 X22.4255 Y83.0372 
G01 X22.4716 Y83.0563 
G01 X22.5068 Y83.0916 
G01 X22.5259 Y83.1377 
G01 X22.5259 Y83.8376 
G01 X22.5068 Y83.8837 
G01 X22.4716 Y83.9189 
G01 X22.4255 Y83.9380 
G01 X20.8506 Y83.9380 
G01 X20.8045 Y83.9189 
G01 X20.7692 Y83.8837 
G01 X20.7501 Y83.8376 
G01 X20.7501 Y83.1377 
G01 X20.7692 Y83.0916 
G01 X20.8045 Y83.0563 
G01 X20.8506 Y83.0372 
G01 X20.9025 Y83.0372 
G01 X20.0159 Y82.1506 
G01 X19.7447 Y82.1506 
G01 X19.7447 Y82.5581 
G01 X19.7256 Y82.6042 
G01 X19.6903 Y82.6395 
G01 X19.6442 Y82.6586 
G01 X18.0958 Y82.6586 
G01 X18.0497 Y82.6395 
G01 X18.0144 Y82.6042 
G01 X17.9953 Y82.5581 
G01 X17.9953 Y82.3228 
G01 X16.6004 Y82.3228 
G01 X16.6004 Y82.7303 
G01 X16.5813 Y82.7764 
G01 X16.5460 Y82.8117 
G01 X16.4999 Y82.8308 
G01 X15.3012 Y82.8308 
G01 X13.6214 Y84.5105 
G01 X13.5473 Y84.5412 
G01 X8.1918 Y84.5412 
G01 X8.1842 Y84.5890 
G01 X8.1324 Y84.7485 
G01 X8.0712 Y84.8687 
G01 X14.1462 Y90.9438 
G01 X15.8911 Y90.9438 
G01 X15.9372 Y90.9629 
G01 X15.9724 Y90.9981 
G01 X15.9915 Y91.0442 
G01 X15.9915 Y92.9737 
G01 X15.9724 Y93.0198 
G01 X15.9372 Y93.0551 
G01 X15.8911 Y93.0742 
G00 Z2.5400 
G00 X18.5315 Y91.9251 
G01 Z-0.1778 F254.00 
G01 X18.5315 Y92.0928 F408.00 
G01 X18.5053 Y92.2584 
G01 X18.4535 Y92.4179 
G01 X18.3774 Y92.5672 
G01 X18.2788 Y92.7029 
G01 X18.1603 Y92.8214 
G01 X18.0246 Y92.9200 
G01 X17.8752 Y92.9961 
G01 X17.7158 Y93.0479 
G01 X17.5502 Y93.0742 
G01 X17.3825 Y93.0742 
G01 X17.2169 Y93.0479 
G01 X17.0574 Y92.9961 
G01 X16.9080 Y92.9200 
G01 X16.7724 Y92.8214 
G01 X16.6538 Y92.7029 
G01 X16.5553 Y92.5672 
G01 X16.4792 Y92.4179 
G01 X16.4274 Y92.2584 
G01 X16.4011 Y92.0928 
G01 X16.4011 Y91.9251 
G01 X16.4274 Y91.7595 
G01 X16.4792 Y91.6001 
G01 X16.5553 Y91.4507 
G01 X16.6538 Y91.3150 
G01 X16.7724 Y91.1965 
G01 X16.9080 Y91.0979 
G01 X17.0574 Y91.0218 
G01 X17.2169 Y90.9700 
G01 X17.2647 Y90.9624 
G01 X17.2647 Y86.4936 
G01 X17.2954 Y86.4195 
G01 X19.1282 Y84.5867 
G01 X19.2023 Y84.5560 
G01 X20.7501 Y84.5560 
G01 X20.7501 Y84.4077 
G01 X20.7692 Y84.3616 
G01 X20.8045 Y84.3263 
G01 X20.8506 Y84.3072 
G01 X22.4255 Y84.3072 
G01 X22.4716 Y84.3263 
G01 X22.5068 Y84.3616 
G01 X22.5259 Y84.4077 
G01 X22.5259 Y85.1076 
G01 X22.5068 Y85.1537 
G01 X22.4716 Y85.1889 
G01 X22.4255 Y85.2080 
G01 X20.8506 Y85.2080 
G01 X20.8045 Y85.1889 
G01 X20.7692 Y85.1537 
G01 X20.7501 Y85.1076 
G01 X20.7501 Y84.9592 
G01 X19.3259 Y84.9592 
G01 X17.6679 Y86.6172 
G01 X17.6679 Y90.9624 
G01 X17.7158 Y90.9700 
G01 X17.8752 Y91.0218 
G01 X18.0246 Y91.0979 
G01 X18.1603 Y91.1965 
G01 X18.2788 Y91.3150 
G01 X18.3774 Y91.4507 
G01 X18.4535 Y91.6001 
G01 X18.5053 Y91.7595 
G01 X18.5315 Y91.9251 
G00 Z2.5400 
G00 X21.0715 Y91.9251 
G01 Z-0.1778 F254.00 
G01 X21.0715 Y92.0928 F408.00 
G01 X21.0453 Y92.2584 
G01 X20.9935 Y92.4179 
G01 X20.9174 Y92.5672 
G01 X20.8188 Y92.7029 
G01 X20.7003 Y92.8214 
G01 X20.5646 Y92.9200 
G01 X20.4152 Y92.9961 
G01 X20.2558 Y93.0479 
G01 X20.0902 Y93.0742 
G01 X19.9225 Y93.0742 
G01 X19.7569 Y93.0479 
G01 X19.5974 Y92.9961 
G01 X19.4481 Y92.9200 
G01 X19.3124 Y92.8214 
G01 X19.1938 Y92.7029 
G01 X19.0953 Y92.5672 
G01 X19.0192 Y92.4179 
G01 X18.9674 Y92.2584 
G01 X18.9411 Y92.0928 
G01 X18.9411 Y91.9251 
G01 X18.9674 Y91.7595 
G01 X19.0192 Y91.6001 
G01 X19.0953 Y91.4507 
G01 X19.1238 Y91.4115 
G01 X18.8266 Y91.1143 
G01 X18.7699 Y91.0576 
G01 X18.7392 Y90.9835 
G01 X18.7392 Y86.9295 
G01 X18.7699 Y86.8554 
G01 X19.7118 Y85.9134 
G01 X19.7685 Y85.8567 
G01 X19.8426 Y85.8260 
G01 X20.7501 Y85.8260 
G01 X20.7501 Y85.6777 
G01 X20.7692 Y85.6316 
G01 X20.8045 Y85.5963 
G01 X20.8506 Y85.5772 
G01 X22.4255 Y85.5772 
G01 X22.4716 Y85.5963 
G01 X22.5068 Y85.6316 
G01 X22.5259 Y85.6777 
G01 X22.5259 Y86.3776 
G01 X22.5068 Y86.4237 
G01 X22.4716 Y86.4589 
G01 X22.4255 Y86.4780 
G01 X20.8506 Y86.4780 
G01 X20.8045 Y86.4589 
G01 X20.7692 Y86.4237 
G01 X20.7501 Y86.3776 
G01 X20.7501 Y86.2292 
G01 X19.9662 Y86.2292 
G01 X19.1424 Y87.0531 
G01 X19.1424 Y90.8599 
G01 X19.4089 Y91.1264 
G01 X19.4481 Y91.0979 
G01 X19.5974 Y91.0218 
G01 X19.7569 Y90.9700 
G01 X19.9225 Y90.9438 
G01 X20.0902 Y90.9438 
G01 X20.2558 Y90.9700 
G01 X20.4152 Y91.0218 
G01 X20.5646 Y91.0979 
G01 X20.7003 Y91.1965 
G01 X20.8188 Y91.3150 
G01 X20.9174 Y91.4507 
G01 X20.9935 Y91.6001 
G01 X21.0453 Y91.7595 
G01 X21.0715 Y91.9251 
G00 Z2.5400 
G00 X23.6115 Y91.9251 
G01 Z-0.1778 F254.00 
G01 X23.6115 Y92.0928 F408.00 
G01 X23.5853 Y92.2584 
G01 X23.5335 Y92.4179 
G01 X23.4574 Y92.5672 
G01 X23.3588 Y92.7029 
G01 X23.2403 Y92.8214 
G01 X23.1046 Y92.9200 
G01 X22.9552 Y92.9961 
G01 X22.7958 Y93.0479 
G01 X22.6302 Y93.0742 
G01 X22.4625 Y93.0742 
G01 X22.2969 Y93.0479 
G01 X22.1374 Y92.9961 
G01 X21.9881 Y92.9200 
G01 X21.8524 Y92.8214 
G01 X21.7338 Y92.7029 
G01 X21.6353 Y92.5672 
G01 X21.5592 Y92.4179 
G01 X21.5074 Y92.2584 
G01 X21.4811 Y92.0928 
G01 X21.4811 Y91.9251 
G01 X21.5074 Y91.7595 
G01 X21.5592 Y91.6001 
G01 X21.6353 Y91.4507 
G01 X21.7338 Y91.3150 
G01 X21.8524 Y91.1965 
G01 X21.9881 Y91.0979 
G01 X22.1374 Y91.0218 
G01 X22.2969 Y90.9700 
G01 X22.3447 Y90.9624 
G01 X22.3447 Y88.2895 
G01 X21.8033 Y87.7480 
G01 X20.8506 Y87.7480 
G01 X20.8045 Y87.7289 
G01 X20.7692 Y87.6937 
G01 X20.7501 Y87.6476 
G01 X20.7501 Y86.9477 
G01 X20.7692 Y86.9016 
G01 X20.8045 Y86.8663 
G01 X20.8506 Y86.8472 
G01 X22.4255 Y86.8472 
G01 X22.4716 Y86.8663 
G01 X22.5068 Y86.9016 
G01 X22.5259 Y86.9477 
G01 X22.5259 Y87.6476 
G01 X22.5068 Y87.6937 
G01 X22.4716 Y87.7289 
G01 X22.4255 Y87.7480 
G01 X22.3735 Y87.7480 
G01 X22.7172 Y88.0918 
G01 X22.7479 Y88.1659 
G01 X22.7479 Y90.9624 
G01 X22.7958 Y90.9700 
G01 X22.9552 Y91.0218 
G01 X23.1046 Y91.0979 
G01 X23.2403 Y91.1965 
G01 X23.3588 Y91.3150 
G01 X23.4574 Y91.4507 
G01 X23.5335 Y91.6001 
G01 X23.5853 Y91.7595 
G01 X23.6115 Y91.9251 
G00 Z2.5400 
G00 X33.7715 Y91.9251 
G01 Z-0.1778 F254.00 
G01 X33.7715 Y92.0928 F408.00 
G01 X33.7453 Y92.2584 
G01 X33.6935 Y92.4179 
G01 X33.6174 Y92.5672 
G01 X33.5188 Y92.7029 
G01 X33.4003 Y92.8214 
G01 X33.2646 Y92.9200 
G01 X33.1152 Y92.9961 
G01 X32.9558 Y93.0479 
G01 X32.7902 Y93.0742 
G01 X32.6225 Y93.0742 
G01 X32.4569 Y93.0479 
G01 X32.2974 Y92.9961 
G01 X32.1481 Y92.9200 
G01 X32.0124 Y92.8214 
G01 X31.8938 Y92.7029 
G01 X31.7953 Y92.5672 
G01 X31.7192 Y92.4179 
G01 X31.6674 Y92.2584 
G01 X31.6411 Y92.0928 
G01 X31.6411 Y91.9251 
G01 X31.6674 Y91.7595 
G01 X31.7192 Y91.6001 
G01 X31.7953 Y91.4507 
G01 X31.8938 Y91.3150 
G01 X32.0124 Y91.1965 
G01 X32.1481 Y91.0979 
G01 X32.2974 Y91.0218 
G01 X32.4569 Y90.9700 
G01 X32.6225 Y90.9438 
G01 X32.7902 Y90.9438 
G01 X32.9558 Y90.9700 
G01 X33.1152 Y91.0218 
G01 X33.2646 Y91.0979 
G01 X33.3038 Y91.1264 
G01 X34.3603 Y90.0699 
G01 X34.3603 Y84.7176 
G01 X33.9528 Y84.7176 
G01 X33.9067 Y84.6985 
G01 X33.8714 Y84.6632 
G01 X33.8523 Y84.6171 
G01 X33.8523 Y83.6892 
G01 X27.9499 Y83.6892 
G01 X27.9499 Y83.8376 
G01 X27.9308 Y83.8837 
G01 X27.8956 Y83.9189 
G01 X27.8495 Y83.9380 
G01 X26.2746 Y83.9380 
G01 X26.2285 Y83.9189 
G01 X26.1932 Y83.8837 
G01 X26.1741 Y83.8376 
G01 X26.1741 Y83.1377 
G01 X26.1932 Y83.0916 
G01 X26.2285 Y83.0563 
G01 X26.2746 Y83.0372 
G01 X27.8495 Y83.0372 
G01 X27.8956 Y83.0563 
G01 X27.9308 Y83.0916 
G01 X27.9499 Y83.1377 
G01 X27.9499 Y83.2860 
G01 X33.8523 Y83.2860 
G01 X33.8523 Y83.0686 
G01 X33.8714 Y83.0225 
G01 X33.9067 Y82.9873 
G01 X33.9528 Y82.9682 
G01 X34.3603 Y82.9682 
G01 X34.3603 Y82.4387 
G01 X34.3910 Y82.3646 
G01 X34.4477 Y82.3079 
G01 X35.8522 Y80.9034 
G01 X35.9263 Y80.8727 
G01 X38.6108 Y80.8727 
G01 X38.9188 Y80.5646 
G01 X38.8691 Y80.4962 
G01 X38.7821 Y80.3254 
G01 X38.7229 Y80.1432 
G01 X38.7096 Y80.0596 
G01 X34.2668 Y80.0596 
G01 X33.4225 Y80.9039 
G01 X33.4270 Y80.9148 
G01 X33.4270 Y81.7647 
G01 X33.4079 Y81.8108 
G01 X33.3727 Y81.8460 
G01 X33.3266 Y81.8651 
G01 X32.0767 Y81.8651 
G01 X32.0306 Y81.8460 
G01 X31.9953 Y81.8108 
G01 X31.9762 Y81.7647 
G01 X31.9762 Y80.9148 
G01 X31.9953 Y80.8687 
G01 X32.0306 Y80.8334 
G01 X32.0767 Y80.8143 
G01 X32.9419 Y80.8143 
G01 X34.0124 Y79.7438 
G01 X34.0691 Y79.6871 
G01 X34.1432 Y79.6564 
G01 X38.7096 Y79.6564 
G01 X38.7229 Y79.5729 
G01 X38.7821 Y79.3906 
G01 X38.8691 Y79.2199 
G01 X38.9817 Y79.0648 
G01 X39.1173 Y78.9293 
G01 X39.2723 Y78.8167 
G01 X39.4431 Y78.7296 
G01 X39.6254 Y78.6704 
G01 X39.8147 Y78.6404 
G01 X40.0063 Y78.6404 
G01 X40.1956 Y78.6704 
G01 X40.3779 Y78.7296 
G01 X40.5486 Y78.8167 
G01 X40.7037 Y78.9293 
G01 X40.8392 Y79.0648 
G01 X40.9519 Y79.2199 
G01 X41.0389 Y79.3906 
G01 X41.0981 Y79.5729 
G01 X41.1281 Y79.7622 
G01 X41.1281 Y79.9539 
G01 X41.0981 Y80.1432 
G01 X41.0389 Y80.3254 
G01 X40.9519 Y80.4962 
G01 X40.8392 Y80.6513 
G01 X40.7037 Y80.7868 
G01 X40.5486 Y80.8994 
G01 X40.3779 Y80.9864 
G01 X40.1956 Y81.0457 
G01 X40.0063 Y81.0756 
G01 X39.8147 Y81.0756 
G01 X39.6254 Y81.0457 
G01 X39.4431 Y80.9864 
G01 X39.2723 Y80.8994 
G01 X39.2039 Y80.8497 
G01 X38.8085 Y81.2452 
G01 X38.7344 Y81.2759 
G01 X36.0499 Y81.2759 
G01 X34.7635 Y82.5623 
G01 X34.7635 Y82.9682 
G01 X35.1710 Y82.9682 
G01 X35.2171 Y82.9873 
G01 X35.2524 Y83.0225 
G01 X35.2715 Y83.0686 
G01 X35.2715 Y84.6171 
G01 X35.2524 Y84.6632 
G01 X35.2171 Y84.6985 
G01 X35.1710 Y84.7176 
G01 X34.7635 Y84.7176 
G01 X34.7635 Y90.1935 
G01 X34.7328 Y90.2676 
G01 X33.5889 Y91.4115 
G01 X33.6174 Y91.4507 
G01 X33.6935 Y91.6001 
G01 X33.7453 Y91.7595 
G01 X33.7715 Y91.9251 
G00 Z2.5400 
G00 X8.2105 Y86.7957 
G01 Z-0.1778 F254.00 
G01 X8.2105 Y86.9634 F408.00 
G01 X8.1842 Y87.1290 
G01 X8.1324 Y87.2885 
G01 X8.0563 Y87.4379 
G01 X7.9578 Y87.5735 
G01 X7.8392 Y87.6921 
G01 X7.7035 Y87.7906 
G01 X7.5542 Y87.8667 
G01 X7.3947 Y87.9186 
G01 X7.3469 Y87.9261 
G01 X7.3469 Y92.0618 
G01 X11.0835 Y95.7984 
G01 X24.9165 Y95.7984 
G01 X27.4247 Y93.2902 
G01 X27.4247 Y93.0555 
G01 X27.3769 Y93.0479 
G01 X27.2174 Y92.9961 
G01 X27.0681 Y92.9200 
G01 X26.9324 Y92.8214 
G01 X26.8138 Y92.7029 
G01 X26.7153 Y92.5672 
G01 X26.6392 Y92.4179 
G01 X26.5874 Y92.2584 
G01 X26.5611 Y92.0928 
G01 X26.5611 Y91.9251 
G01 X26.5874 Y91.7595 
G01 X26.6392 Y91.6001 
G01 X26.7153 Y91.4507 
G01 X26.7984 Y91.3363 
G01 X26.7984 Y87.7480 
G01 X26.2746 Y87.7480 
G01 X26.2285 Y87.7289 
G01 X26.1932 Y87.6937 
G01 X26.1741 Y87.6476 
G01 X26.1741 Y86.9477 
G01 X26.1932 Y86.9016 
G01 X26.2285 Y86.8663 
G01 X26.2746 Y86.8472 
G01 X27.8495 Y86.8472 
G01 X27.8956 Y86.8663 
G01 X27.9308 Y86.9016 
G01 X27.9499 Y86.9477 
G01 X27.9499 Y87.6476 
G01 X27.9308 Y87.6937 
G01 X27.8956 Y87.7289 
G01 X27.8495 Y87.7480 
G01 X27.2016 Y87.7480 
G01 X27.2016 Y91.0299 
G01 X27.2174 Y91.0218 
G01 X27.3769 Y90.9700 
G01 X27.5425 Y90.9438 
G01 X27.7102 Y90.9438 
G01 X27.8758 Y90.9700 
G01 X28.0352 Y91.0218 
G01 X28.1846 Y91.0979 
G01 X28.3203 Y91.1965 
G01 X28.4388 Y91.3150 
G01 X28.5374 Y91.4507 
G01 X28.6135 Y91.6001 
G01 X28.6653 Y91.7595 
G01 X28.6915 Y91.9251 
G01 X28.6915 Y92.0928 
G01 X28.6653 Y92.2584 
G01 X28.6135 Y92.4179 
G01 X28.5374 Y92.5672 
G01 X28.4388 Y92.7029 
G01 X28.3203 Y92.8214 
G01 X28.1846 Y92.9200 
G01 X28.0352 Y92.9961 
G01 X27.8758 Y93.0479 
G01 X27.8279 Y93.0555 
G01 X27.8279 Y93.2902 
G01 X30.1709 Y95.6331 
G01 X30.2016 Y95.7072 
G01 X30.2016 Y95.7984 
G01 X36.9165 Y95.7984 
G01 X39.7089 Y93.0060 
G01 X39.7089 Y87.5867 
G01 X39.6254 Y87.5735 
G01 X39.4431 Y87.5142 
G01 X39.2723 Y87.4272 
G01 X39.1173 Y87.3146 
G01 X38.9817 Y87.1791 
G01 X38.8691 Y87.0240 
G01 X38.7821 Y86.8532 
G01 X38.7229 Y86.6710 
G01 X38.6929 Y86.4817 
G01 X36.9295 Y84.7176 
G01 X35.7308 Y84.7176 
G01 X35.6847 Y84.6985 
G01 X35.6494 Y84.6632 
G01 X35.6303 Y84.6171 
G01 X35.6303 Y83.0686 
G01 X35.6494 Y83.0225 
G01 X35.6847 Y82.9873 
G01 X35.7308 Y82.9682 
G01 X36.9490 Y82.9682 
G01 X36.9951 Y82.9873 
G01 X37.0304 Y83.0225 
G01 X37.0495 Y83.0686 
G01 X37.0495 Y84.2674 
G01 X38.7621 Y85.9800 
G01 X38.7821 Y85.9184 
G01 X38.8691 Y85.7477 
G01 X38.9817 Y85.5926 
G01 X39.1173 Y85.4571 
G01 X39.2723 Y85.3445 
G01 X39.4431 Y85.2574 
G01 X39.6254 Y85.1982 
G01 X39.8147 Y85.1682 
G01 X40.0063 Y85.1682 
G01 X40.1956 Y85.1982 
G01 X40.3779 Y85.2574 
G01 X40.5486 Y85.3445 
G01 X40.7037 Y85.4571 
G01 X40.8392 Y85.5926 
G01 X40.9519 Y85.7477 
G01 X41.0389 Y85.9184 
G01 X41.0981 Y86.1007 
G01 X41.1281 Y86.2900 
G01 X41.1281 Y86.4817 
G01 X41.0981 Y86.6710 
G01 X41.0567 Y86.7984 
G01 X41.9165 Y86.7984 
G01 X43.2553 Y85.4596 
G01 X43.2553 Y78.8743 
G01 X42.1084 Y77.7275 
G01 X21.5986 Y77.7275 
G01 X19.7447 Y79.5814 
G01 X19.7447 Y80.7801 
G01 X19.7256 Y80.8262 
G01 X19.6903 Y80.8615 
G01 X19.6442 Y80.8806 
G01 X18.0958 Y80.8806 
G01 X18.0497 Y80.8615 
G01 X18.0144 Y80.8262 
G01 X17.9953 Y80.7801 
G01 X17.9953 Y80.3726 
G01 X16.6004 Y80.3726 
G01 X16.6004 Y80.9523 
G01 X16.5813 Y80.9984 
G01 X16.5460 Y81.0337 
G01 X16.4999 Y81.0528 
G01 X14.9514 Y81.0528 
G01 X14.9053 Y81.0337 
G01 X14.8701 Y80.9984 
G01 X14.8510 Y80.9523 
G01 X14.8510 Y79.7340 
G01 X14.8701 Y79.6879 
G01 X14.9053 Y79.6527 
G01 X14.9514 Y79.6336 
G01 X16.4999 Y79.6336 
G01 X16.5460 Y79.6527 
G01 X16.5813 Y79.6879 
G01 X16.6004 Y79.7340 
G01 X16.6004 Y79.9694 
G01 X17.9953 Y79.9694 
G01 X17.9953 Y79.5619 
G01 X18.0144 Y79.5158 
G01 X18.0497 Y79.4805 
G01 X18.0958 Y79.4614 
G01 X19.2945 Y79.4614 
G01 X21.3442 Y77.4117 
G01 X21.4009 Y77.3550 
G01 X21.4750 Y77.3243 
G01 X42.2320 Y77.3243 
G01 X42.3061 Y77.3550 
G01 X43.5711 Y78.6199 
G01 X43.6278 Y78.6766 
G01 X43.6585 Y78.7507 
G01 X43.6585 Y85.5832 
G01 X43.6278 Y85.6573 
G01 X42.1709 Y87.1142 
G01 X42.1142 Y87.1709 
G01 X42.0401 Y87.2016 
G01 X40.8167 Y87.2016 
G01 X40.7037 Y87.3146 
G01 X40.5486 Y87.4272 
G01 X40.3779 Y87.5142 
G01 X40.1956 Y87.5735 
G01 X40.1121 Y87.5867 
G01 X40.1121 Y93.1296 
G01 X40.0814 Y93.2037 
G01 X37.1709 Y96.1142 
G01 X37.1142 Y96.1709 
G01 X37.0401 Y96.2016 
G01 X29.9599 Y96.2016 
G01 X29.8858 Y96.1709 
G01 X29.8291 Y96.1142 
G01 X29.7984 Y96.0401 
G01 X29.7984 Y95.8308 
G01 X27.6263 Y93.6588 
G01 X25.1142 Y96.1709 
G01 X25.0401 Y96.2016 
G01 X10.9599 Y96.2016 
G01 X10.8858 Y96.1709 
G01 X10.8291 Y96.1142 
G01 X7.0311 Y92.3162 
G01 X6.9744 Y92.2595 
G01 X6.9437 Y92.1854 
G01 X6.9437 Y87.9261 
G01 X6.8958 Y87.9186 
G01 X6.7364 Y87.8667 
G01 X6.5870 Y87.7906 
G01 X6.4513 Y87.6921 
G01 X6.3328 Y87.5735 
G01 X6.2342 Y87.4379 
G01 X6.1581 Y87.2885 
G01 X6.1063 Y87.1290 
G01 X6.0801 Y86.9634 
G01 X6.0801 Y86.7957 
G01 X6.1063 Y86.6301 
G01 X6.1581 Y86.4707 
G01 X6.2342 Y86.3213 
G01 X6.3328 Y86.1857 
G01 X6.4513 Y86.0671 
G01 X6.5870 Y85.9685 
G01 X6.7364 Y85.8924 
G01 X6.8958 Y85.8406 
G01 X7.0614 Y85.8144 
G01 X7.2291 Y85.8144 
G01 X7.3947 Y85.8406 
G01 X7.5542 Y85.8924 
G01 X7.7035 Y85.9685 
G01 X7.8392 Y86.0671 
G01 X7.9578 Y86.1857 
G01 X8.0563 Y86.3213 
G01 X8.1324 Y86.4707 
G01 X8.1842 Y86.6301 
G01 X8.2105 Y86.7957 
G00 Z2.5400 
G00 X38.0570 Y73.5196 
G01 Z-0.1778 F254.00 
G01 X38.0600 Y73.5220 F408.00 
G01 X38.0635 Y73.5237 
G01 X38.0672 Y73.5245 
G01 X38.1850 Y73.5246 
G01 X38.1850 Y73.4904 
G01 X38.0691 Y73.4904 
G01 X38.0635 Y73.4914 
G01 X38.0600 Y73.4930 
G01 X38.0570 Y73.4954 
G01 X38.0546 Y73.4984 
G01 X38.0530 Y73.5019 
G01 X38.0521 Y73.5056 
G01 X38.0521 Y73.5094 
G01 X38.0530 Y73.5132 
G01 X38.0546 Y73.5166 
G01 X38.0570 Y73.5196 
G00 Z2.5400 
G00 X34.0133 Y73.8210 
G01 Z-0.1778 F254.00 
G01 X34.0306 Y73.8201 F408.00 
G01 X34.0644 Y73.8129 
G01 X34.0959 Y73.7988 
G01 X34.1239 Y73.7785 
G01 X34.1470 Y73.7528 
G01 X34.1643 Y73.7229 
G01 X34.1750 Y73.6900 
G01 X34.1786 Y73.6557 
G01 X34.1750 Y73.6213 
G01 X34.1643 Y73.5885 
G01 X34.1470 Y73.5585 
G01 X34.1239 Y73.5329 
G01 X34.0959 Y73.5125 
G01 X34.0644 Y73.4985 
G01 X34.0306 Y73.4913 
G01 X34.0133 Y73.4904 
G01 X33.8480 Y73.4904 
G01 X33.8480 Y73.8210 
G01 X34.0133 Y73.8210 
G00 Z2.5400 
G00 X34.0761 Y74.5667 
G01 Z-0.1778 F254.00 
G01 X34.0794 Y74.5521 F408.00 
G01 X34.0794 Y74.5372 
G01 X34.0761 Y74.5227 
G01 X34.0696 Y74.5093 
G01 X34.0603 Y74.4977 
G01 X34.0487 Y74.4884 
G01 X34.0352 Y74.4819 
G01 X34.0207 Y74.4786 
G01 X34.0133 Y74.4782 
G01 X33.8480 Y74.4782 
G01 X33.8480 Y74.6112 
G01 X34.0133 Y74.6112 
G01 X34.0207 Y74.6108 
G01 X34.0352 Y74.6075 
G01 X34.0487 Y74.6010 
G01 X34.0603 Y74.5917 
G01 X34.0696 Y74.5801 
G01 X34.0761 Y74.5667 
G00 Z2.5400 
G00 X16.0744 Y73.4904 
G01 Z-0.1778 F254.00 
G01 X15.9414 Y73.4904 F408.00 
G01 X15.9414 Y74.0185 
G01 X16.0744 Y74.0185 
G01 X16.0744 Y73.4904 
G00 Z2.5400 
G00 X11.6076 Y73.4904 
G01 Z-0.1778 F254.00 
G01 X11.4746 Y73.4904 F408.00 
G01 X11.4746 Y74.0185 
G01 X11.6076 Y74.0185 
G01 X11.6076 Y73.4904 
G00 Z2.5400 
G00 X14.3744 Y74.4902 
G01 Z-0.1778 F254.00 
G01 X14.3932 Y74.5316 F408.00 
G01 X14.4025 Y74.5454 
G01 X14.4099 Y74.5671 
G01 X14.4200 Y74.5877 
G01 X14.4216 Y74.5960 
G01 X14.4270 Y74.6020 
G01 X14.4332 Y74.6064 
G01 X14.4401 Y74.6094 
G01 X14.4476 Y74.6110 
G01 X14.4514 Y74.6112 
G01 X14.4552 Y74.6110 
G01 X14.4626 Y74.6094 
G01 X14.4696 Y74.6064 
G01 X14.4731 Y74.6039 
G01 X14.3684 Y74.4731 
G01 X14.3744 Y74.4902 
G00 Z2.5400 
G00 X14.5283 Y73.6114 
G01 Z-0.1778 F254.00 
G01 X14.5096 Y73.5700 F408.00 
G01 X14.5003 Y73.5562 
G01 X14.4928 Y73.5345 
G01 X14.4828 Y73.5139 
G01 X14.4812 Y73.5056 
G01 X14.4758 Y73.4996 
G01 X14.4696 Y73.4952 
G01 X14.4626 Y73.4922 
G01 X14.4552 Y73.4906 
G01 X14.4514 Y73.4904 
G01 X14.4476 Y73.4906 
G01 X14.4401 Y73.4922 
G01 X14.4332 Y73.4952 
G01 X14.4297 Y73.4977 
G01 X14.5344 Y73.6285 
G01 X14.5283 Y73.6114 
G00 Z2.5400 
G00 X41.1066 Y73.4941 
G01 Z-0.1778 F254.00 
G01 X41.0920 Y73.4908 F408.00 
G01 X41.0771 Y73.4908 
G01 X41.0626 Y73.4941 
G01 X41.0492 Y73.5006 
G01 X41.0376 Y73.5099 
G01 X41.0283 Y73.5215 
G01 X41.0218 Y73.5349 
G01 X41.0185 Y73.5495 
G01 X41.0181 Y73.5568 
G01 X41.0181 Y73.9520 
G01 X41.0185 Y73.9595 
G01 X41.0218 Y73.9740 
G01 X41.0283 Y73.9874 
G01 X41.0376 Y73.9990 
G01 X41.0492 Y74.0083 
G01 X41.0626 Y74.0148 
G01 X41.0772 Y74.0181 
G01 X41.0920 Y74.0181 
G01 X41.1066 Y74.0148 
G01 X41.1200 Y74.0083 
G01 X41.1316 Y73.9990 
G01 X41.1409 Y73.9874 
G01 X41.1474 Y73.9740 
G01 X41.1507 Y73.9595 
G01 X41.1511 Y73.9520 
G01 X41.1511 Y73.9088 
G01 X41.1511 Y73.5569 
G01 X41.1507 Y73.5495 
G01 X41.1474 Y73.5349 
G01 X41.1409 Y73.5215 
G01 X41.1316 Y73.5099 
G01 X41.1200 Y73.5006 
G01 X41.1066 Y73.4941 
G00 Z2.5400 
G00 X45.4729 Y79.5420 
G01 Z-0.1778 F254.00 
G01 X45.5029 Y79.5593 F408.00 
G01 X45.5357 Y79.5700 
G01 X45.5701 Y79.5736 
G01 X45.6044 Y79.5700 
G01 X45.6373 Y79.5593 
G01 X45.6672 Y79.5420 
G01 X45.6929 Y79.5189 
G01 X45.7132 Y79.4909 
G01 X45.7273 Y79.4594 
G01 X45.7345 Y79.4256 
G01 X45.7354 Y79.4083 
G01 X45.7354 Y79.3650 
G01 X45.7354 Y79.2430 
G01 X45.4048 Y79.2430 
G01 X45.4048 Y79.4083 
G01 X45.4057 Y79.4256 
G01 X45.4129 Y79.4594 
G01 X45.4269 Y79.4909 
G01 X45.4473 Y79.5189 
G01 X45.4729 Y79.5420 
G00 Z2.5400 
G00 X46.8975 Y85.1013 
G01 Z-0.1778 F254.00 
G01 X46.9810 Y85.1237 F408.00 
G01 X47.0560 Y85.1670 
G01 X47.1171 Y85.2281 
G01 X47.1604 Y85.3031 
G01 X47.1828 Y85.3867 
G01 X47.1828 Y85.4732 
G01 X47.1604 Y85.5567 
G01 X47.1171 Y85.6317 
G01 X47.0560 Y85.6929 
G01 X46.9810 Y85.7361 
G01 X46.8975 Y85.7585 
G01 X45.4048 Y85.7585 
G01 X45.4048 Y85.9671 
G01 X45.3824 Y86.0506 
G01 X45.3391 Y86.1256 
G01 X45.2780 Y86.1867 
G01 X45.2030 Y86.2300 
G01 X45.1195 Y86.2524 
G01 X45.0329 Y86.2524 
G01 X44.9494 Y86.2300 
G01 X44.8744 Y86.1867 
G01 X44.8133 Y86.1256 
G01 X44.7700 Y86.0506 
G01 X44.7476 Y85.9671 
G01 X44.7476 Y84.8928 
G01 X44.7700 Y84.8092 
G01 X44.8133 Y84.7343 
G01 X44.8570 Y84.6905 
G01 X44.8133 Y84.6467 
G01 X44.7700 Y84.5718 
G01 X44.7476 Y84.4882 
G01 X44.7476 Y83.6114 
G01 X44.7700 Y83.5279 
G01 X44.8133 Y83.4529 
G01 X44.8744 Y83.3917 
G01 X44.9494 Y83.3485 
G01 X45.0329 Y83.3261 
G01 X46.8975 Y83.3261 
G01 X46.9810 Y83.3485 
G01 X47.0560 Y83.3917 
G01 X47.1171 Y83.4529 
G01 X47.1604 Y83.5279 
G01 X47.1828 Y83.6114 
G01 X47.1828 Y84.4882 
G01 X47.1604 Y84.5718 
G01 X47.1171 Y84.6467 
G01 X47.0560 Y84.7079 
G01 X46.9810 Y84.7511 
G01 X46.8975 Y84.7735 
G01 X46.8109 Y84.7735 
G01 X46.7274 Y84.7511 
G01 X46.6524 Y84.7079 
G01 X46.5913 Y84.6467 
G01 X46.5480 Y84.5718 
G01 X46.5256 Y84.4882 
G01 X46.5256 Y83.9833 
G01 X46.1950 Y83.9833 
G01 X46.1950 Y84.2906 
G01 X46.1726 Y84.3742 
G01 X46.1294 Y84.4491 
G01 X46.0682 Y84.5103 
G01 X45.9933 Y84.5536 
G01 X45.9097 Y84.5760 
G01 X45.8232 Y84.5760 
G01 X45.7396 Y84.5536 
G01 X45.6647 Y84.5103 
G01 X45.6035 Y84.4491 
G01 X45.5602 Y84.3742 
G01 X45.5378 Y84.2906 
G01 X45.5378 Y83.9833 
G01 X45.4048 Y83.9833 
G01 X45.4048 Y84.4882 
G01 X45.3824 Y84.5718 
G01 X45.3391 Y84.6467 
G01 X45.2953 Y84.6905 
G01 X45.3391 Y84.7343 
G01 X45.3824 Y84.8092 
G01 X45.4048 Y84.8928 
G01 X45.4048 Y85.1013 
G01 X46.8975 Y85.1013 
G00 Z2.5400 
G00 X46.8975 Y78.5858 
G01 Z-0.1778 F254.00 
G01 X46.9810 Y78.6082 F408.00 
G01 X47.0560 Y78.6515 
G01 X47.1171 Y78.7126 
G01 X47.1604 Y78.7876 
G01 X47.1828 Y78.8711 
G01 X47.1828 Y78.9577 
G01 X47.1604 Y79.0412 
G01 X47.1171 Y79.1162 
G01 X47.0560 Y79.1774 
G01 X46.9810 Y79.2206 
G01 X46.8975 Y79.2430 
G01 X46.3926 Y79.2430 
G01 X46.3926 Y79.3040 
G01 X47.0398 Y79.6276 
G01 X47.1046 Y79.6850 
G01 X47.1523 Y79.7572 
G01 X47.1796 Y79.8393 
G01 X47.1848 Y79.9257 
G01 X47.1675 Y80.0104 
G01 X47.1288 Y80.0878 
G01 X47.0714 Y80.1526 
G01 X46.9992 Y80.2002 
G01 X46.9171 Y80.2276 
G01 X46.8307 Y80.2328 
G01 X46.7459 Y80.2154 
G01 X46.1990 Y79.9420 
G01 X46.1847 Y79.9617 
G01 X46.0562 Y80.0774 
G01 X45.9065 Y80.1638 
G01 X45.7420 Y80.2172 
G01 X45.5701 Y80.2353 
G01 X45.3981 Y80.2172 
G01 X45.2337 Y80.1638 
G01 X45.0840 Y80.0774 
G01 X44.9555 Y79.9617 
G01 X44.8539 Y79.8218 
G01 X44.7835 Y79.6639 
G01 X44.7476 Y79.4947 
G01 X44.7476 Y78.8711 
G01 X44.7700 Y78.7876 
G01 X44.8133 Y78.7126 
G01 X44.8744 Y78.6515 
G01 X44.9494 Y78.6082 
G01 X45.0329 Y78.5858 
G01 X45.1195 Y78.5858 
G01 X46.8975 Y78.5858 
G00 Z2.5400 
G00 X2.2563 Y87.9011 
G01 Z-0.1778 F254.00 
G01 X2.2563 Y86.6292 F408.00 
G01 X2.2787 Y86.5457 
G01 X2.3219 Y86.4707 
G01 X2.3831 Y86.4096 
G01 X2.4581 Y86.3663 
G01 X2.5416 Y86.3439 
G01 X2.6282 Y86.3439 
G01 X2.7117 Y86.3663 
G01 X2.7867 Y86.4096 
G01 X2.8478 Y86.4707 
G01 X2.8911 Y86.5457 
G01 X2.9135 Y86.6292 
G01 X2.9135 Y87.9011 
G01 X2.8911 Y87.9847 
G01 X2.8478 Y88.0596 
G01 X2.7867 Y88.1208 
G01 X2.7117 Y88.1640 
G01 X2.6282 Y88.1864 
G01 X2.5416 Y88.1864 
G01 X2.4581 Y88.1640 
G01 X2.3831 Y88.1208 
G01 X2.3219 Y88.0596 
G01 X2.2787 Y87.9847 
G01 X2.2563 Y87.9011 
G00 Z2.5400 
G00 X42.5256 Y73.4962 
G01 Z-0.1778 F254.00 
G01 X42.5256 Y74.3904 F408.00 
G01 X42.5032 Y74.4740 
G01 X42.4600 Y74.5489 
G01 X42.3988 Y74.6101 
G01 X42.3239 Y74.6533 
G01 X42.2403 Y74.6757 
G01 X42.1538 Y74.6757 
G01 X42.0702 Y74.6533 
G01 X41.9953 Y74.6101 
G01 X41.9341 Y74.5489 
G01 X41.8908 Y74.4740 
G01 X41.8684 Y74.3904 
G01 X41.8684 Y73.3877 
G01 X41.8998 Y73.2504 
G01 X41.9609 Y73.1235 
G01 X42.0487 Y73.0134 
G01 X42.1588 Y72.9256 
G01 X42.2857 Y72.8645 
G01 X42.4229 Y72.8332 
G01 X43.0305 Y72.8332 
G01 X43.1141 Y72.8556 
G01 X43.1890 Y72.8989 
G01 X43.2502 Y72.9600 
G01 X43.2935 Y73.0350 
G01 X43.3158 Y73.1185 
G01 X43.3158 Y74.1357 
G01 X43.3673 Y74.0842 
G01 X43.4380 Y74.0434 
G01 X43.4380 Y73.3877 
G01 X43.4694 Y73.2504 
G01 X43.5305 Y73.1235 
G01 X43.6183 Y73.0134 
G01 X43.7284 Y72.9256 
G01 X43.8553 Y72.8645 
G01 X43.9926 Y72.8332 
G01 X44.2050 Y72.8332 
G01 X44.2886 Y72.8556 
G01 X44.3635 Y72.8989 
G01 X44.4247 Y72.9600 
G01 X44.4680 Y73.0350 
G01 X44.4904 Y73.1185 
G01 X44.4904 Y73.2051 
G01 X44.4680 Y73.2886 
G01 X44.4247 Y73.3636 
G01 X44.3635 Y73.4247 
G01 X44.2886 Y73.4680 
G01 X44.2050 Y73.4904 
G01 X44.0952 Y73.4904 
G01 X44.0952 Y74.0185 
G01 X44.2050 Y74.0185 
G01 X44.2886 Y74.0409 
G01 X44.3635 Y74.0842 
G01 X44.4247 Y74.1454 
G01 X44.4680 Y74.2203 
G01 X44.4904 Y74.3039 
G01 X44.4904 Y74.3904 
G01 X44.4680 Y74.4740 
G01 X44.4247 Y74.5489 
G01 X44.3635 Y74.6101 
G01 X44.2886 Y74.6533 
G01 X44.2050 Y74.6757 
G01 X44.0952 Y74.6757 
G01 X44.0952 Y74.9831 
G01 X44.0728 Y75.0666 
G01 X44.0296 Y75.1416 
G01 X43.9684 Y75.2027 
G01 X43.8935 Y75.2460 
G01 X43.8099 Y75.2684 
G01 X43.7234 Y75.2684 
G01 X43.6398 Y75.2460 
G01 X43.5649 Y75.2027 
G01 X43.5037 Y75.1416 
G01 X43.4604 Y75.0666 
G01 X43.4380 Y74.9831 
G01 X43.4380 Y74.6509 
G01 X43.3673 Y74.6101 
G01 X43.3061 Y74.5489 
G01 X43.2782 Y74.5004 
G01 X43.2502 Y74.5489 
G01 X43.1890 Y74.6101 
G01 X43.1141 Y74.6533 
G01 X43.0305 Y74.6757 
G01 X42.9440 Y74.6757 
G01 X42.8604 Y74.6533 
G01 X42.7855 Y74.6101 
G01 X42.7243 Y74.5489 
G01 X42.6810 Y74.4740 
G01 X42.6587 Y74.3904 
G01 X42.6587 Y73.4904 
G01 X42.5256 Y73.4904 
G01 X42.5256 Y73.4962 
G00 Z2.5400 
G00 X41.8083 Y74.0336 
G01 Z-0.1778 F254.00 
G01 X41.8083 Y74.0336 F408.00 
G01 X41.7720 Y74.1926 
G01 X41.7013 Y74.3395 
G01 X41.5996 Y74.4670 
G01 X41.4721 Y74.5687 
G01 X41.3251 Y74.6394 
G01 X41.1661 Y74.6757 
G01 X41.0031 Y74.6757 
G01 X40.8441 Y74.6394 
G01 X40.6971 Y74.5687 
G01 X40.5696 Y74.4670 
G01 X40.4679 Y74.3395 
G01 X40.3972 Y74.1926 
G01 X40.3609 Y74.0336 
G01 X40.3609 Y73.6002 
G01 X40.3609 Y73.4754 
G01 X40.3972 Y73.3164 
G01 X40.4679 Y73.1694 
G01 X40.5696 Y73.0419 
G01 X40.6971 Y72.9402 
G01 X40.8441 Y72.8695 
G01 X41.0031 Y72.8332 
G01 X41.1661 Y72.8332 
G01 X41.3251 Y72.8695 
G01 X41.4721 Y72.9402 
G01 X41.5996 Y73.0419 
G01 X41.7013 Y73.1694 
G01 X41.7720 Y73.3164 
G01 X41.8083 Y73.4754 
G01 X41.8083 Y73.9953 
G01 X41.8083 Y74.0336 
G00 Z2.5400 
G00 X26.1850 Y72.8977 
G01 Z-0.1778 F254.00 
G01 X26.1014 Y72.8753 F408.00 
G01 X26.0265 Y72.8321 
G01 X25.9653 Y72.7709 
G01 X25.9221 Y72.6960 
G01 X25.8997 Y72.6124 
G01 X25.8997 Y72.5259 
G01 X25.9221 Y72.4423 
G01 X25.9653 Y72.3674 
G01 X26.0265 Y72.3062 
G01 X26.1014 Y72.2629 
G01 X26.1850 Y72.2405 
G01 X26.4159 Y72.2405 
G01 X26.4493 Y72.2385 
G01 X26.4591 Y72.2405 
G01 X26.4691 Y72.2405 
G01 X26.5013 Y72.2492 
G01 X26.5341 Y72.2559 
G01 X26.5430 Y72.2603 
G01 X26.5527 Y72.2629 
G01 X26.5816 Y72.2796 
G01 X26.6115 Y72.2946 
G01 X26.6189 Y72.3012 
G01 X26.6276 Y72.3062 
G01 X26.6512 Y72.3298 
G01 X26.6762 Y72.3520 
G01 X26.6817 Y72.3603 
G01 X26.6888 Y72.3674 
G01 X26.7055 Y72.3963 
G01 X26.7239 Y72.4242 
G01 X26.7270 Y72.4337 
G01 X26.7320 Y72.4423 
G01 X26.7407 Y72.4746 
G01 X26.9277 Y73.0357 
G01 X26.9366 Y73.0535 
G01 X26.9413 Y73.0766 
G01 X27.3439 Y74.2843 
G01 X27.3491 Y74.3706 
G01 X27.3443 Y74.3940 
G01 X27.3534 Y74.3732 
G01 X27.4075 Y74.3056 
G01 X27.4772 Y74.2544 
G01 X27.5577 Y74.2229 
G01 X27.6437 Y74.2133 
G01 X27.7293 Y74.2263 
G01 X27.8023 Y74.2584 
G01 X27.8023 Y73.4904 
G01 X27.5938 Y73.4904 
G01 X27.5102 Y73.4680 
G01 X27.4353 Y73.4247 
G01 X27.3741 Y73.3636 
G01 X27.3308 Y73.2886 
G01 X27.3084 Y73.2051 
G01 X27.3084 Y73.1185 
G01 X27.3308 Y73.0350 
G01 X27.3741 Y72.9600 
G01 X27.4353 Y72.8989 
G01 X27.5102 Y72.8556 
G01 X27.5938 Y72.8332 
G01 X28.6681 Y72.8332 
G01 X28.7516 Y72.8556 
G01 X28.8266 Y72.8989 
G01 X28.8877 Y72.9600 
G01 X28.9310 Y73.0350 
G01 X28.9534 Y73.1185 
G01 X28.9534 Y73.2051 
G01 X28.9310 Y73.2886 
G01 X28.8877 Y73.3636 
G01 X28.8266 Y73.4247 
G01 X28.7516 Y73.4680 
G01 X28.6681 Y73.4904 
G01 X28.4595 Y73.4904 
G01 X28.4595 Y74.9216 
G01 X28.4623 Y74.9465 
G01 X28.4595 Y74.9647 
G01 X28.4595 Y74.9831 
G01 X28.4530 Y75.0073 
G01 X28.4493 Y75.0320 
G01 X28.4419 Y75.0489 
G01 X28.4371 Y75.0666 
G01 X28.4246 Y75.0883 
G01 X28.4145 Y75.1113 
G01 X28.4030 Y75.1256 
G01 X28.3939 Y75.1416 
G01 X28.3761 Y75.1593 
G01 X28.3605 Y75.1789 
G01 X28.3457 Y75.1897 
G01 X28.3327 Y75.2027 
G01 X28.3110 Y75.2153 
G01 X28.2908 Y75.2301 
G01 X28.2737 Y75.2368 
G01 X28.2578 Y75.2460 
G01 X28.2335 Y75.2525 
G01 X28.2102 Y75.2616 
G01 X28.1919 Y75.2636 
G01 X28.1742 Y75.2684 
G01 X28.1491 Y75.2684 
G01 X28.1242 Y75.2712 
G01 X28.1060 Y75.2684 
G01 X28.0877 Y75.2684 
G01 X28.0635 Y75.2619 
G01 X28.0387 Y75.2581 
G01 X28.0218 Y75.2508 
G01 X28.0041 Y75.2460 
G01 X27.9824 Y75.2335 
G01 X27.9594 Y75.2234 
G01 X27.9451 Y75.2119 
G01 X27.9291 Y75.2027 
G01 X27.9114 Y75.1850 
G01 X27.3980 Y74.7743 
G01 X27.3467 Y74.7046 
G01 X27.3152 Y74.6240 
G01 X27.3057 Y74.5380 
G01 X27.3123 Y74.4942 
G01 X27.2930 Y74.5328 
G01 X27.2356 Y74.5975 
G01 X27.1634 Y74.6452 
G01 X27.0814 Y74.6725 
G01 X26.9950 Y74.6777 
G01 X26.9102 Y74.6604 
G01 X26.8328 Y74.6217 
G01 X26.7681 Y74.5643 
G01 X26.7204 Y74.4921 
G01 X26.6234 Y74.2009 
G01 X26.5263 Y74.4921 
G01 X26.4786 Y74.5643 
G01 X26.4139 Y74.6217 
G01 X26.3365 Y74.6604 
G01 X26.2518 Y74.6777 
G01 X26.1654 Y74.6725 
G01 X26.0833 Y74.6452 
G01 X26.0111 Y74.5975 
G01 X25.9537 Y74.5328 
G01 X25.9150 Y74.4554 
G01 X25.8977 Y74.3706 
G01 X25.9028 Y74.2843 
G01 X26.2770 Y73.1618 
G01 X26.1890 Y72.8977 
G01 X26.1850 Y72.8977 
G00 Z2.5400 
G00 X24.4480 Y74.3904 
G01 Z-0.1778 F254.00 
G01 X24.4480 Y73.1185 F408.00 
G01 X24.4704 Y73.0350 
G01 X24.5136 Y72.9600 
G01 X24.5748 Y72.8989 
G01 X24.6497 Y72.8556 
G01 X24.7333 Y72.8332 
G01 X24.8198 Y72.8332 
G01 X24.9034 Y72.8556 
G01 X24.9783 Y72.8989 
G01 X25.0395 Y72.9600 
G01 X25.0828 Y73.0350 
G01 X25.1052 Y73.1185 
G01 X25.1052 Y74.0185 
G01 X25.2382 Y74.0185 
G01 X25.2382 Y73.1185 
G01 X25.2606 Y73.0350 
G01 X25.3038 Y72.9600 
G01 X25.3650 Y72.8989 
G01 X25.4399 Y72.8556 
G01 X25.5235 Y72.8332 
G01 X25.6100 Y72.8332 
G01 X25.6936 Y72.8556 
G01 X25.7685 Y72.8989 
G01 X25.8297 Y72.9600 
G01 X25.8730 Y73.0350 
G01 X25.8954 Y73.1185 
G01 X25.8954 Y74.1212 
G01 X25.8640 Y74.2585 
G01 X25.8029 Y74.3854 
G01 X25.7151 Y74.4955 
G01 X25.6050 Y74.5833 
G01 X25.4782 Y74.6444 
G01 X25.3409 Y74.6757 
G01 X24.7333 Y74.6757 
G01 X24.6497 Y74.6533 
G01 X24.5748 Y74.6101 
G01 X24.5136 Y74.5489 
G01 X24.4704 Y74.4740 
G01 X24.4480 Y74.3904 
G00 Z2.5400 
G00 X23.7264 Y74.3904 
G01 Z-0.1778 F254.00 
G01 X23.7264 Y73.1185 F408.00 
G01 X23.7488 Y73.0350 
G01 X23.7920 Y72.9600 
G01 X23.8532 Y72.8989 
G01 X23.9281 Y72.8556 
G01 X24.0117 Y72.8332 
G01 X24.0982 Y72.8332 
G01 X24.1818 Y72.8556 
G01 X24.2567 Y72.8989 
G01 X24.3179 Y72.9600 
G01 X24.3612 Y73.0350 
G01 X24.3836 Y73.1185 
G01 X24.3836 Y74.3904 
G01 X24.3612 Y74.4740 
G01 X24.3179 Y74.5489 
G01 X24.2951 Y74.5717 
G01 X24.3061 Y74.5781 
G01 X24.3673 Y74.6393 
G01 X24.4106 Y74.7142 
G01 X24.4330 Y74.7978 
G01 X24.4330 Y74.9831 
G01 X24.4106 Y75.0666 
G01 X24.3673 Y75.1416 
G01 X24.3061 Y75.2027 
G01 X24.2312 Y75.2460 
G01 X24.1476 Y75.2684 
G01 X23.9623 Y75.2684 
G01 X23.8788 Y75.2460 
G01 X23.8038 Y75.2027 
G01 X23.7468 Y75.1457 
G01 X23.6898 Y75.2027 
G01 X23.6148 Y75.2460 
G01 X23.5313 Y75.2684 
G01 X22.4570 Y75.2684 
G01 X22.3734 Y75.2460 
G01 X22.2985 Y75.2027 
G01 X22.2683 Y75.1725 
G01 X22.2381 Y75.2027 
G01 X22.1631 Y75.2460 
G01 X22.0796 Y75.2684 
G01 X21.0053 Y75.2684 
G01 X20.9217 Y75.2460 
G01 X20.8468 Y75.2027 
G01 X20.7856 Y75.1416 
G01 X20.7423 Y75.0666 
G01 X20.7199 Y74.9831 
G01 X20.7199 Y74.8965 
G01 X20.7423 Y74.8130 
G01 X20.7856 Y74.7380 
G01 X20.8468 Y74.6769 
G01 X20.9217 Y74.6336 
G01 X21.0053 Y74.6112 
G01 X21.2138 Y74.6112 
G01 X21.2138 Y73.1185 
G01 X21.2362 Y73.0350 
G01 X21.2795 Y72.9600 
G01 X21.3406 Y72.8989 
G01 X21.4156 Y72.8556 
G01 X21.4991 Y72.8332 
G01 X21.5857 Y72.8332 
G01 X21.6692 Y72.8556 
G01 X21.7442 Y72.8989 
G01 X21.8054 Y72.9600 
G01 X21.8486 Y73.0350 
G01 X21.8710 Y73.1185 
G01 X21.8710 Y74.6112 
G01 X22.0796 Y74.6112 
G01 X22.1631 Y74.6336 
G01 X22.2381 Y74.6769 
G01 X22.2683 Y74.7071 
G01 X22.2985 Y74.6769 
G01 X22.3734 Y74.6336 
G01 X22.4570 Y74.6112 
G01 X22.6655 Y74.6112 
G01 X22.6655 Y73.1185 
G01 X22.6879 Y73.0350 
G01 X22.7312 Y72.9600 
G01 X22.7924 Y72.8989 
G01 X22.8673 Y72.8556 
G01 X22.9509 Y72.8332 
G01 X23.0374 Y72.8332 
G01 X23.1210 Y72.8556 
G01 X23.1959 Y72.8989 
G01 X23.2571 Y72.9600 
G01 X23.3003 Y73.0350 
G01 X23.3227 Y73.1185 
G01 X23.3227 Y74.6112 
G01 X23.5313 Y74.6112 
G01 X23.6148 Y74.6336 
G01 X23.6898 Y74.6769 
G01 X23.7095 Y74.6966 
G01 X23.7426 Y74.6393 
G01 X23.8038 Y74.5781 
G01 X23.8148 Y74.5717 
G01 X23.7920 Y74.5489 
G01 X23.7488 Y74.4740 
G01 X23.7264 Y74.3904 
G00 Z2.5400 
G00 X19.6810 Y75.0848 
G01 Z-0.1778 F254.00 
G01 X19.6747 Y75.0659 F408.00 
G01 X19.6658 Y75.0481 
G01 X19.6611 Y75.0250 
G01 X19.2333 Y73.7418 
G01 X19.2283 Y73.7331 
G01 X19.2197 Y73.7009 
G01 X19.0610 Y73.2247 
G01 X19.0558 Y73.1383 
G01 X19.0731 Y73.0535 
G01 X19.1118 Y72.9762 
G01 X19.1692 Y72.9114 
G01 X19.2414 Y72.8637 
G01 X19.3235 Y72.8364 
G01 X19.4099 Y72.8312 
G01 X19.4946 Y72.8485 
G01 X19.5720 Y72.8872 
G01 X19.6367 Y72.9446 
G01 X19.6844 Y73.0168 
G01 X19.7714 Y73.2777 
G01 X20.1867 Y73.2777 
G01 X20.2736 Y73.0168 
G01 X20.3213 Y72.9446 
G01 X20.3861 Y72.8872 
G01 X20.4634 Y72.8485 
G01 X20.5482 Y72.8312 
G01 X20.6346 Y72.8364 
G01 X20.7167 Y72.8637 
G01 X20.7889 Y72.9114 
G01 X20.8463 Y72.9762 
G01 X20.8850 Y73.0535 
G01 X20.9023 Y73.1383 
G01 X20.8971 Y73.2247 
G01 X20.7384 Y73.7009 
G01 X20.7297 Y73.7331 
G01 X20.7247 Y73.7418 
G01 X20.2970 Y75.0250 
G01 X20.2923 Y75.0481 
G01 X20.2834 Y75.0659 
G01 X20.2771 Y75.0848 
G01 X20.2641 Y75.1044 
G01 X20.2536 Y75.1254 
G01 X20.2404 Y75.1403 
G01 X20.2294 Y75.1570 
G01 X20.2118 Y75.1726 
G01 X20.1962 Y75.1902 
G01 X20.1796 Y75.2011 
G01 X20.1647 Y75.2144 
G01 X20.1436 Y75.2249 
G01 X20.1240 Y75.2379 
G01 X20.1051 Y75.2441 
G01 X20.0873 Y75.2531 
G01 X20.0642 Y75.2578 
G01 X20.0419 Y75.2652 
G01 X20.0220 Y75.2664 
G01 X20.0025 Y75.2704 
G01 X19.9790 Y75.2690 
G01 X19.9555 Y75.2704 
G01 X19.9360 Y75.2664 
G01 X19.9162 Y75.2652 
G01 X19.8938 Y75.2578 
G01 X19.8708 Y75.2531 
G01 X19.8530 Y75.2441 
G01 X19.8341 Y75.2379 
G01 X19.8144 Y75.2249 
G01 X19.7934 Y75.2144 
G01 X19.7785 Y75.2011 
G01 X19.7619 Y75.1902 
G01 X19.7463 Y75.1726 
G01 X19.7287 Y75.1570 
G01 X19.7177 Y75.1403 
G01 X19.7045 Y75.1254 
G01 X19.6939 Y75.1044 
G01 X19.6810 Y75.0848 
G00 Z2.5400 
G00 X18.2460 Y74.0336 
G01 Z-0.1778 F254.00 
G01 X18.2460 Y74.0336 F408.00 
G01 X18.2097 Y74.1926 
G01 X18.1390 Y74.3395 
G01 X18.0373 Y74.4670 
G01 X17.9098 Y74.5687 
G01 X17.7628 Y74.6394 
G01 X17.6038 Y74.6757 
G01 X17.4408 Y74.6757 
G01 X17.2818 Y74.6394 
G01 X17.1348 Y74.5687 
G01 X17.0073 Y74.4670 
G01 X16.9056 Y74.3395 
G01 X16.8349 Y74.1926 
G01 X16.7986 Y74.0336 
G01 X16.7986 Y73.3877 
G01 X16.8299 Y73.2504 
G01 X16.8910 Y73.1235 
G01 X16.9788 Y73.0134 
G01 X17.0889 Y72.9256 
G01 X17.2158 Y72.8645 
G01 X17.3531 Y72.8332 
G01 X17.9607 Y72.8332 
G01 X18.0442 Y72.8556 
G01 X18.1192 Y72.8989 
G01 X18.1804 Y72.9600 
G01 X18.2236 Y73.0350 
G01 X18.2460 Y73.1185 
G01 X18.2460 Y73.2051 
G01 X18.2236 Y73.2886 
G01 X18.1804 Y73.3636 
G01 X18.1192 Y73.4247 
G01 X18.0613 Y73.4581 
G01 X18.1192 Y73.4915 
G01 X18.1804 Y73.5527 
G01 X18.2236 Y73.6276 
G01 X18.2460 Y73.7112 
G01 X18.2460 Y73.9953 
G01 X18.2460 Y74.0336 
G00 Z2.5400 
G00 X15.2739 Y74.1526 
G01 Z-0.1778 F254.00 
G01 X15.2508 Y74.3549 F408.00 
G01 X15.2050 Y74.5534 
G01 X15.1371 Y74.7453 
G01 X15.1014 Y74.8186 
G01 X15.0846 Y74.8675 
G01 X15.0109 Y74.9913 
G01 X14.9134 Y75.0973 
G01 X14.7962 Y75.1810 
G01 X14.6643 Y75.2388 
G01 X14.5234 Y75.2684 
G01 X14.3794 Y75.2684 
G01 X14.2384 Y75.2388 
G01 X14.1066 Y75.1810 
G01 X13.9894 Y75.0973 
G01 X13.8919 Y74.9913 
G01 X13.8182 Y74.8675 
G01 X13.8014 Y74.8186 
G01 X13.7657 Y74.7453 
G01 X13.6977 Y74.5534 
G01 X13.6703 Y74.4345 
G01 X13.6597 Y74.4740 
G01 X13.6165 Y74.5489 
G01 X13.5553 Y74.6101 
G01 X13.4804 Y74.6533 
G01 X13.3968 Y74.6757 
G01 X12.8880 Y74.6757 
G01 X12.7507 Y74.6444 
G01 X12.6238 Y74.5833 
G01 X12.5137 Y74.4955 
G01 X12.4259 Y74.3854 
G01 X12.3648 Y74.2585 
G01 X12.3335 Y74.1212 
G01 X12.3335 Y73.3877 
G01 X12.3648 Y73.2504 
G01 X12.4259 Y73.1235 
G01 X12.5137 Y73.0134 
G01 X12.6238 Y72.9256 
G01 X12.7507 Y72.8645 
G01 X12.8880 Y72.8332 
G01 X13.3968 Y72.8332 
G01 X13.4804 Y72.8556 
G01 X13.5553 Y72.8989 
G01 X13.6165 Y72.9600 
G01 X13.6597 Y73.0350 
G01 X13.6821 Y73.1185 
G01 X13.6821 Y73.2051 
G01 X13.6597 Y73.2886 
G01 X13.6165 Y73.3636 
G01 X13.5553 Y73.4247 
G01 X13.4804 Y73.4680 
G01 X13.3968 Y73.4904 
G01 X12.9907 Y73.4904 
G01 X12.9907 Y74.0185 
G01 X13.3968 Y74.0185 
G01 X13.4804 Y74.0409 
G01 X13.5553 Y74.0842 
G01 X13.6165 Y74.1454 
G01 X13.6309 Y74.1704 
G01 X13.6289 Y74.1526 
G01 X13.6289 Y73.9490 
G01 X13.6519 Y73.7467 
G01 X13.6977 Y73.5482 
G01 X13.7657 Y73.3563 
G01 X13.8014 Y73.2830 
G01 X13.8182 Y73.2341 
G01 X13.8919 Y73.1103 
G01 X13.9894 Y73.0043 
G01 X14.1066 Y72.9206 
G01 X14.2384 Y72.8628 
G01 X14.3794 Y72.8332 
G01 X14.5234 Y72.8332 
G01 X14.6643 Y72.8628 
G01 X14.7962 Y72.9206 
G01 X14.9134 Y73.0043 
G01 X15.0109 Y73.1103 
G01 X15.0846 Y73.2341 
G01 X15.1013 Y73.2829 
G01 X15.1371 Y73.3563 
G01 X15.2050 Y73.5482 
G01 X15.2508 Y73.7467 
G01 X15.2739 Y73.9490 
G01 X15.2739 Y74.0941 
G01 X15.2739 Y74.1526 
G00 Z2.5400 
G00 X12.2648 Y74.9831 
G01 Z-0.1778 F254.00 
G01 X12.2424 Y75.0666 F408.00 
G01 X12.1992 Y75.1416 
G01 X12.1380 Y75.2027 
G01 X12.0631 Y75.2460 
G01 X11.9795 Y75.2684 
G01 X11.8930 Y75.2684 
G01 X11.8094 Y75.2460 
G01 X11.7345 Y75.2027 
G01 X11.6733 Y75.1416 
G01 X11.6300 Y75.0666 
G01 X11.6076 Y74.9831 
G01 X11.6076 Y74.6757 
G01 X11.3719 Y74.6757 
G01 X11.2347 Y74.6444 
G01 X11.1078 Y74.5833 
G01 X10.9977 Y74.4955 
G01 X10.9099 Y74.3854 
G01 X10.8488 Y74.2585 
G01 X10.8174 Y74.1212 
G01 X10.8174 Y73.3877 
G01 X10.8488 Y73.2504 
G01 X10.9099 Y73.1235 
G01 X10.9977 Y73.0134 
G01 X11.1078 Y72.9256 
G01 X11.2346 Y72.8645 
G01 X11.3719 Y72.8332 
G01 X11.9795 Y72.8332 
G01 X12.0631 Y72.8556 
G01 X12.1380 Y72.8989 
G01 X12.1992 Y72.9600 
G01 X12.2424 Y73.0350 
G01 X12.2648 Y73.1185 
G01 X12.2648 Y74.3904 
G01 X12.2648 Y74.9831 
G00 Z2.5400 
G00 X8.5950 Y72.8332 
G01 Z-0.1778 F254.00 
G01 X8.6786 Y72.8556 F408.00 
G01 X8.7535 Y72.8989 
G01 X8.8147 Y72.9600 
G01 X8.8579 Y73.0350 
G01 X8.8803 Y73.1185 
G01 X8.8803 Y73.2051 
G01 X8.8579 Y73.2886 
G01 X8.8147 Y73.3636 
G01 X8.7535 Y73.4247 
G01 X8.6786 Y73.4680 
G01 X8.5950 Y73.4904 
G01 X8.1889 Y73.4904 
G01 X8.1889 Y74.0185 
G01 X8.5950 Y74.0185 
G01 X8.6786 Y74.0409 
G01 X8.7535 Y74.0842 
G01 X8.8147 Y74.1454 
G01 X8.8579 Y74.2203 
G01 X8.8803 Y74.3039 
G01 X8.8803 Y74.3904 
G01 X8.8579 Y74.4740 
G01 X8.8147 Y74.5489 
G01 X8.7535 Y74.6101 
G01 X8.6786 Y74.6533 
G01 X8.5950 Y74.6757 
G01 X8.0862 Y74.6757 
G01 X7.9489 Y74.6444 
G01 X7.8220 Y74.5833 
G01 X7.7119 Y74.4955 
G01 X7.6241 Y74.3854 
G01 X7.5630 Y74.2585 
G01 X7.5317 Y74.1212 
G01 X7.5317 Y73.3877 
G01 X7.5630 Y73.2504 
G01 X7.6241 Y73.1235 
G01 X7.7119 Y73.0134 
G01 X7.8220 Y72.9256 
G01 X7.9489 Y72.8645 
G01 X8.0862 Y72.8332 
G01 X8.1999 Y72.8332 
G01 X8.5950 Y72.8332 
G00 Z2.5400 
G00 X8.8958 Y73.1185 
G01 Z-0.1778 F254.00 
G01 X8.9182 Y73.0350 F408.00 
G01 X8.9615 Y72.9600 
G01 X9.0227 Y72.8989 
G01 X9.0976 Y72.8556 
G01 X9.1812 Y72.8332 
G01 X9.2677 Y72.8332 
G01 X9.3513 Y72.8556 
G01 X9.4262 Y72.8989 
G01 X9.4874 Y72.9600 
G01 X9.5208 Y73.0179 
G01 X9.5541 Y72.9600 
G01 X9.6153 Y72.8989 
G01 X9.6903 Y72.8556 
G01 X9.7738 Y72.8332 
G01 X9.8604 Y72.8332 
G01 X9.9439 Y72.8556 
G01 X10.0189 Y72.8989 
G01 X10.0800 Y72.9600 
G01 X10.1134 Y73.0179 
G01 X10.1468 Y72.9600 
G01 X10.2080 Y72.8989 
G01 X10.2829 Y72.8556 
G01 X10.3665 Y72.8332 
G01 X10.4530 Y72.8332 
G01 X10.5366 Y72.8556 
G01 X10.6115 Y72.8989 
G01 X10.6727 Y72.9600 
G01 X10.7160 Y73.0350 
G01 X10.7384 Y73.1185 
G01 X10.7384 Y74.1212 
G01 X10.7070 Y74.2585 
G01 X10.6459 Y74.3854 
G01 X10.5581 Y74.4955 
G01 X10.4480 Y74.5833 
G01 X10.3211 Y74.6444 
G01 X10.1838 Y74.6757 
G01 X9.1812 Y74.6757 
G01 X9.0976 Y74.6533 
G01 X9.0227 Y74.6101 
G01 X8.9615 Y74.5489 
G01 X8.9182 Y74.4740 
G01 X8.8958 Y74.3904 
G01 X8.8958 Y74.3039 
G01 X8.8958 Y73.1185 
G00 Z2.5400 
G00 X16.7316 Y74.9831 
G01 Z-0.1778 F254.00 
G01 X16.7092 Y75.0666 F408.00 
G01 X16.6660 Y75.1416 
G01 X16.6048 Y75.2027 
G01 X16.5299 Y75.2460 
G01 X16.4463 Y75.2684 
G01 X16.3598 Y75.2684 
G01 X16.2762 Y75.2460 
G01 X16.2013 Y75.2027 
G01 X16.1401 Y75.1416 
G01 X16.0968 Y75.0666 
G01 X16.0744 Y74.9831 
G01 X16.0744 Y74.6757 
G01 X15.8387 Y74.6757 
G01 X15.7014 Y74.6444 
G01 X15.5746 Y74.5833 
G01 X15.4645 Y74.4955 
G01 X15.3767 Y74.3854 
G01 X15.3155 Y74.2585 
G01 X15.2842 Y74.1212 
G01 X15.2842 Y73.3877 
G01 X15.3155 Y73.2504 
G01 X15.3767 Y73.1235 
G01 X15.4645 Y73.0134 
G01 X15.5746 Y72.9256 
G01 X15.7014 Y72.8645 
G01 X15.8387 Y72.8332 
G01 X16.4463 Y72.8332 
G01 X16.5299 Y72.8556 
G01 X16.6048 Y72.8989 
G01 X16.6660 Y72.9600 
G01 X16.7092 Y73.0350 
G01 X16.7316 Y73.1185 
G01 X16.7316 Y74.3904 
G01 X16.7316 Y74.9831 
G00 Z2.5400 
G00 X29.8060 Y73.4904 
G01 Z-0.1778 F254.00 
G01 X29.2688 Y73.4904 F408.00 
G01 X29.1852 Y73.4680 
G01 X29.1103 Y73.4247 
G01 X29.0491 Y73.3636 
G01 X29.0059 Y73.2886 
G01 X28.9835 Y73.2051 
G01 X28.9835 Y73.1185 
G01 X29.0059 Y73.0350 
G01 X29.0491 Y72.9600 
G01 X29.1103 Y72.8989 
G01 X29.1852 Y72.8556 
G01 X29.2688 Y72.8332 
G01 X29.8924 Y72.8332 
G01 X30.0615 Y72.8691 
G01 X30.2195 Y72.9395 
G01 X30.3593 Y73.0411 
G01 X30.4750 Y73.1696 
G01 X30.5615 Y73.3193 
G01 X30.6149 Y73.4837 
G01 X30.6330 Y73.6557 
G01 X30.6149 Y73.8276 
G01 X30.5615 Y73.9921 
G01 X30.4893 Y74.1170 
G01 X30.5214 Y74.1572 
G01 X30.5922 Y74.3041 
G01 X30.6284 Y74.4631 
G01 X30.6284 Y74.6262 
G01 X30.5922 Y74.7852 
G01 X30.5214 Y74.9322 
G01 X30.4197 Y75.0597 
G01 X30.2922 Y75.1613 
G01 X30.1453 Y75.2321 
G01 X29.9863 Y75.2684 
G01 X29.2688 Y75.2684 
G01 X29.1852 Y75.2460 
G01 X29.1103 Y75.2027 
G01 X29.0491 Y75.1416 
G01 X29.0059 Y75.0666 
G01 X28.9835 Y74.9831 
G01 X28.9835 Y74.8965 
G01 X29.0059 Y74.8130 
G01 X29.0491 Y74.7380 
G01 X29.1103 Y74.6769 
G01 X29.1852 Y74.6336 
G01 X29.2688 Y74.6112 
G01 X29.9047 Y74.6112 
G01 X29.9122 Y74.6108 
G01 X29.9267 Y74.6075 
G01 X29.9401 Y74.6010 
G01 X29.9518 Y74.5917 
G01 X29.9611 Y74.5801 
G01 X29.9675 Y74.5667 
G01 X29.9708 Y74.5521 
G01 X29.9708 Y74.5372 
G01 X29.9675 Y74.5227 
G01 X29.9611 Y74.5093 
G01 X29.9518 Y74.4977 
G01 X29.9401 Y74.4884 
G01 X29.9267 Y74.4819 
G01 X29.9122 Y74.4786 
G01 X29.9047 Y74.4782 
G01 X29.4664 Y74.4782 
G01 X29.3828 Y74.4558 
G01 X29.3079 Y74.4125 
G01 X29.2467 Y74.3513 
G01 X29.2034 Y74.2764 
G01 X29.1810 Y74.1928 
G01 X29.1810 Y74.1063 
G01 X29.2034 Y74.0227 
G01 X29.2467 Y73.9478 
G01 X29.3079 Y73.8866 
G01 X29.3828 Y73.8434 
G01 X29.4664 Y73.8210 
G01 X29.8060 Y73.8210 
G01 X29.8232 Y73.8201 
G01 X29.8570 Y73.8129 
G01 X29.8886 Y73.7988 
G01 X29.9166 Y73.7785 
G01 X29.9397 Y73.7528 
G01 X29.9570 Y73.7229 
G01 X29.9676 Y73.6900 
G01 X29.9712 Y73.6557 
G01 X29.9676 Y73.6213 
G01 X29.9570 Y73.5885 
G01 X29.9397 Y73.5585 
G01 X29.9166 Y73.5329 
G01 X29.8886 Y73.5125 
G01 X29.8570 Y73.4985 
G01 X29.8232 Y73.4913 
G01 X29.8060 Y73.4904 
G00 Z2.5400 
G00 X31.3587 Y73.4933 
G01 Z-0.1778 F254.00 
G01 X31.3587 Y74.3904 F408.00 
G01 X31.3363 Y74.4740 
G01 X31.2930 Y74.5489 
G01 X31.2318 Y74.6101 
G01 X31.1569 Y74.6533 
G01 X31.0733 Y74.6757 
G01 X30.9868 Y74.6757 
G01 X30.9032 Y74.6533 
G01 X30.8283 Y74.6101 
G01 X30.7671 Y74.5489 
G01 X30.7239 Y74.4740 
G01 X30.7015 Y74.3904 
G01 X30.7015 Y73.3877 
G01 X30.7328 Y73.2504 
G01 X30.7939 Y73.1235 
G01 X30.8817 Y73.0134 
G01 X30.9918 Y72.9256 
G01 X31.1187 Y72.8645 
G01 X31.2560 Y72.8332 
G01 X31.8635 Y72.8332 
G01 X31.9471 Y72.8556 
G01 X32.0220 Y72.8989 
G01 X32.0832 Y72.9600 
G01 X32.1265 Y73.0350 
G01 X32.1489 Y73.1185 
G01 X32.1489 Y74.3904 
G01 X32.1265 Y74.4740 
G01 X32.0832 Y74.5489 
G01 X32.0220 Y74.6101 
G01 X31.9471 Y74.6533 
G01 X31.8635 Y74.6757 
G01 X31.7770 Y74.6757 
G01 X31.6934 Y74.6533 
G01 X31.6185 Y74.6101 
G01 X31.5573 Y74.5489 
G01 X31.5141 Y74.4740 
G01 X31.4917 Y74.3904 
G01 X31.4917 Y73.4904 
G01 X31.3587 Y73.4904 
G01 X31.3587 Y73.4933 
G00 Z2.5400 
G00 X33.9700 Y72.8332 
G01 Z-0.1778 F254.00 
G01 X34.0997 Y72.8332 F408.00 
G01 X34.0997 Y72.8332 
G01 X34.2688 Y72.8691 
G01 X34.4268 Y72.9395 
G01 X34.5667 Y73.0411 
G01 X34.6823 Y73.1696 
G01 X34.7688 Y73.3193 
G01 X34.8222 Y73.4837 
G01 X34.8403 Y73.6557 
G01 X34.8222 Y73.8276 
G01 X34.7688 Y73.9921 
G01 X34.6823 Y74.1418 
G01 X34.6434 Y74.1851 
G01 X34.7007 Y74.3041 
G01 X34.7370 Y74.4631 
G01 X34.7370 Y74.6262 
G01 X34.7007 Y74.7852 
G01 X34.6299 Y74.9322 
G01 X34.5283 Y75.0597 
G01 X34.4008 Y75.1613 
G01 X34.2538 Y75.2321 
G01 X34.0948 Y75.2684 
G01 X33.4761 Y75.2684 
G01 X33.3926 Y75.2460 
G01 X33.3176 Y75.2027 
G01 X33.2564 Y75.1416 
G01 X33.2132 Y75.0666 
G01 X33.1908 Y74.9831 
G01 X33.1908 Y73.1185 
G01 X33.2132 Y73.0350 
G01 X33.2564 Y72.9600 
G01 X33.3176 Y72.8989 
G01 X33.3926 Y72.8556 
G01 X33.4761 Y72.8332 
G01 X33.9700 Y72.8332 
G00 Z2.5400 
G00 X37.3974 Y74.0336 
G01 Z-0.1778 F254.00 
G01 X37.3974 Y74.0336 F408.00 
G01 X37.3611 Y74.1926 
G01 X37.2903 Y74.3395 
G01 X37.1886 Y74.4670 
G01 X37.0611 Y74.5687 
G01 X36.9142 Y74.6394 
G01 X36.7552 Y74.6757 
G01 X36.5921 Y74.6757 
G01 X36.4331 Y74.6394 
G01 X36.2862 Y74.5687 
G01 X36.1587 Y74.4670 
G01 X36.0911 Y74.3823 
G01 X36.0911 Y74.3904 
G01 X36.0688 Y74.4740 
G01 X36.0255 Y74.5489 
G01 X35.9643 Y74.6101 
G01 X35.8894 Y74.6533 
G01 X35.8058 Y74.6757 
G01 X35.1266 Y74.6757 
G01 X35.0430 Y74.6533 
G01 X34.9681 Y74.6101 
G01 X34.9069 Y74.5489 
G01 X34.8637 Y74.4740 
G01 X34.8413 Y74.3904 
G01 X34.8413 Y73.1185 
G01 X34.8637 Y73.0350 
G01 X34.9069 Y72.9600 
G01 X34.9681 Y72.8989 
G01 X35.0430 Y72.8556 
G01 X35.1266 Y72.8332 
G01 X35.2131 Y72.8332 
G01 X35.2967 Y72.8556 
G01 X35.3716 Y72.8989 
G01 X35.4328 Y72.9600 
G01 X35.4761 Y73.0350 
G01 X35.4985 Y73.1185 
G01 X35.4985 Y73.9498 
G01 X35.5608 Y73.8866 
G01 X35.6357 Y73.8434 
G01 X35.7193 Y73.8210 
G01 X35.8058 Y73.8210 
G01 X35.8894 Y73.8434 
G01 X35.9499 Y73.8783 
G01 X35.9499 Y73.3877 
G01 X35.9813 Y73.2504 
G01 X36.0424 Y73.1235 
G01 X36.1302 Y73.0134 
G01 X36.2403 Y72.9256 
G01 X36.3672 Y72.8645 
G01 X36.5044 Y72.8332 
G01 X37.1120 Y72.8332 
G01 X37.1956 Y72.8556 
G01 X37.2705 Y72.8989 
G01 X37.3317 Y72.9600 
G01 X37.3750 Y73.0350 
G01 X37.3974 Y73.1185 
G01 X37.3974 Y73.2051 
G01 X37.3750 Y73.2886 
G01 X37.3317 Y73.3636 
G01 X37.2705 Y73.4247 
G01 X37.2127 Y73.4581 
G01 X37.2705 Y73.4915 
G01 X37.3317 Y73.5527 
G01 X37.3750 Y73.6276 
G01 X37.3974 Y73.7112 
G01 X37.3974 Y73.9953 
G01 X37.3974 Y74.0336 
G00 Z2.5400 
G00 X38.8422 Y73.8100 
G01 Z-0.1778 F254.00 
G01 X38.8422 Y74.1212 F408.00 
G01 X38.8109 Y74.2585 
G01 X38.7498 Y74.3854 
G01 X38.6620 Y74.4955 
G01 X38.5519 Y74.5833 
G01 X38.4250 Y74.6444 
G01 X38.2877 Y74.6757 
G01 X38.1740 Y74.6757 
G01 X37.7789 Y74.6757 
G01 X37.6953 Y74.6533 
G01 X37.6204 Y74.6101 
G01 X37.5592 Y74.5489 
G01 X37.5160 Y74.4740 
G01 X37.4936 Y74.3904 
G01 X37.4936 Y74.3039 
G01 X37.5160 Y74.2203 
G01 X37.5592 Y74.1454 
G01 X37.6204 Y74.0842 
G01 X37.6728 Y74.0539 
G01 X37.5893 Y73.9874 
G01 X37.4945 Y73.8685 
G01 X37.4286 Y73.7316 
G01 X37.3948 Y73.5835 
G01 X37.3948 Y73.4315 
G01 X37.4286 Y73.2834 
G01 X37.4945 Y73.1465 
G01 X37.5893 Y73.0277 
G01 X37.7081 Y72.9329 
G01 X37.8450 Y72.8670 
G01 X37.9931 Y72.8332 
G01 X38.5569 Y72.8332 
G01 X38.6405 Y72.8556 
G01 X38.7154 Y72.8989 
G01 X38.7766 Y72.9600 
G01 X38.8198 Y73.0350 
G01 X38.8422 Y73.1185 
G01 X38.8422 Y73.8100 
G00 Z2.5400 
G00 X38.9808 Y74.9831 
G01 Z-0.1778 F254.00 
G01 X38.9808 Y73.7778 F408.00 
G01 X38.9780 Y73.7581 
G01 X38.9808 Y73.7347 
G01 X38.9808 Y73.1185 
G01 X39.0032 Y73.0350 
G01 X39.0464 Y72.9600 
G01 X39.1076 Y72.8989 
G01 X39.1825 Y72.8556 
G01 X39.2661 Y72.8332 
G01 X39.3526 Y72.8332 
G01 X39.4362 Y72.8556 
G01 X39.5111 Y72.8989 
G01 X39.5723 Y72.9600 
G01 X39.6156 Y73.0350 
G01 X39.6380 Y73.1185 
G01 X39.6380 Y73.3315 
G01 X39.8294 Y72.9698 
G01 X39.8883 Y72.9064 
G01 X39.9616 Y72.8605 
G01 X40.0443 Y72.8350 
G01 X40.1308 Y72.8318 
G01 X40.2151 Y72.8511 
G01 X40.2916 Y72.8916 
G01 X40.3550 Y72.9505 
G01 X40.4009 Y73.0238 
G01 X40.4264 Y73.1065 
G01 X40.4296 Y73.1930 
G01 X40.4103 Y73.2773 
G01 X40.0722 Y73.9158 
G01 X40.3314 Y74.1102 
G01 X40.3848 Y74.1783 
G01 X40.4188 Y74.2578 
G01 X40.4310 Y74.3435 
G01 X40.4207 Y74.4294 
G01 X40.3884 Y74.5097 
G01 X40.3365 Y74.5789 
G01 X40.2685 Y74.6323 
G01 X40.1889 Y74.6663 
G01 X40.1032 Y74.6785 
G01 X40.0173 Y74.6682 
G01 X39.9370 Y74.6360 
G01 X39.6380 Y74.4117 
G01 X39.6380 Y74.9831 
G01 X39.6156 Y75.0666 
G01 X39.5723 Y75.1416 
G01 X39.5111 Y75.2027 
G01 X39.4362 Y75.2460 
G01 X39.3526 Y75.2684 
G01 X39.2661 Y75.2684 
G01 X39.1825 Y75.2460 
G01 X39.1076 Y75.2027 
G01 X39.0464 Y75.1416 
G01 X39.0032 Y75.0666 
G01 X38.9808 Y74.9831 
G00 Z2.5400 
G00 X2.2566 Y84.1850 
G01 Z-0.1778 F254.00 
G01 X2.2566 Y83.8777 F408.00 
G01 X1.9492 Y83.8777 
G01 X1.8657 Y83.8553 
G01 X1.7907 Y83.8120 
G01 X1.7296 Y83.7508 
G01 X1.6863 Y83.6759 
G01 X1.6639 Y83.5923 
G01 X1.6639 Y83.5058 
G01 X1.6863 Y83.4222 
G01 X1.7296 Y83.3473 
G01 X1.7907 Y83.2861 
G01 X1.8657 Y83.2429 
G01 X1.9492 Y83.2205 
G01 X2.2566 Y83.2205 
G01 X2.2566 Y82.9131 
G01 X2.2790 Y82.8296 
G01 X2.3222 Y82.7546 
G01 X2.3834 Y82.6934 
G01 X2.4583 Y82.6502 
G01 X2.5419 Y82.6278 
G01 X2.6284 Y82.6278 
G01 X2.7120 Y82.6502 
G01 X2.7869 Y82.6934 
G01 X2.8481 Y82.7546 
G01 X2.8914 Y82.8296 
G01 X2.9138 Y82.9131 
G01 X2.9138 Y83.2205 
G01 X3.2211 Y83.2205 
G01 X3.3047 Y83.2429 
G01 X3.3796 Y83.2861 
G01 X3.4408 Y83.3473 
G01 X3.4840 Y83.4222 
G01 X3.5064 Y83.5058 
G01 X3.5064 Y83.5923 
G01 X3.4840 Y83.6759 
G01 X3.4408 Y83.7508 
G01 X3.3796 Y83.8120 
G01 X3.3047 Y83.8553 
G01 X3.2211 Y83.8777 
G01 X2.9138 Y83.8777 
G01 X2.9138 Y84.1850 
G01 X2.8914 Y84.2686 
G01 X2.8481 Y84.3435 
G01 X2.7869 Y84.4047 
G01 X2.7120 Y84.4479 
G01 X2.6284 Y84.4703 
G01 X2.5419 Y84.4703 
G01 X2.4583 Y84.4479 
G01 X2.3834 Y84.4047 
G01 X2.3222 Y84.3435 
G01 X2.2790 Y84.2686 
G01 X2.2566 Y84.1850 
G00 Z2.5400 
G00 X47.1828 Y82.6510 
G01 Z-0.1778 F254.00 
G01 X47.1828 Y82.6510 F408.00 
G01 X47.1465 Y82.8100 
G01 X47.0757 Y82.9569 
G01 X46.9741 Y83.0844 
G01 X46.8466 Y83.1861 
G01 X46.6996 Y83.2569 
G01 X46.5406 Y83.2931 
G01 X46.3830 Y83.2931 
G01 X46.2342 Y83.2618 
G01 X46.0950 Y83.2004 
G01 X45.9715 Y83.1117 
G01 X45.8689 Y82.9994 
G01 X45.8494 Y82.9663 
G01 X45.8456 Y82.9623 
G01 X45.8275 Y82.9292 
G01 X45.8083 Y82.8966 
G01 X45.8068 Y82.8912 
G01 X45.5328 Y82.3888 
G01 X45.5298 Y82.3843 
G01 X45.5196 Y82.3731 
G01 X45.5074 Y82.3643 
G01 X45.4936 Y82.3583 
G01 X45.4788 Y82.3552 
G01 X45.4713 Y82.3548 
G01 X45.4639 Y82.3552 
G01 X45.4493 Y82.3585 
G01 X45.4359 Y82.3650 
G01 X45.4243 Y82.3742 
G01 X45.4150 Y82.3859 
G01 X45.4085 Y82.3993 
G01 X45.4052 Y82.4138 
G01 X45.4048 Y82.4213 
G01 X45.4061 Y82.4544 
G01 X45.4167 Y82.5198 
G01 X45.4377 Y82.5826 
G01 X45.4684 Y82.6413 
G01 X45.4872 Y82.6686 
G01 X45.5132 Y82.7032 
G01 X45.5454 Y82.7835 
G01 X45.5558 Y82.8694 
G01 X45.5435 Y82.9551 
G01 X45.5096 Y83.0346 
G01 X45.4561 Y83.1027 
G01 X45.3869 Y83.1546 
G01 X45.3066 Y83.1868 
G01 X45.2207 Y83.1972 
G01 X45.1351 Y83.1850 
G01 X45.0555 Y83.1510 
G01 X44.9874 Y83.0975 
G01 X44.9615 Y83.0629 
G01 X44.9098 Y82.9940 
G01 X44.8297 Y82.8412 
G01 X44.7752 Y82.6777 
G01 X44.7476 Y82.5075 
G01 X44.7476 Y82.3397 
G01 X44.7839 Y82.1807 
G01 X44.8546 Y82.0338 
G01 X44.9563 Y81.9063 
G01 X45.0838 Y81.8046 
G01 X45.2308 Y81.7339 
G01 X45.3898 Y81.6976 
G01 X45.5474 Y81.6976 
G01 X45.6962 Y81.7289 
G01 X45.8354 Y81.7903 
G01 X45.9589 Y81.8791 
G01 X46.0615 Y81.9914 
G01 X46.0810 Y82.0244 
G01 X46.0848 Y82.0284 
G01 X46.1029 Y82.0616 
G01 X46.1221 Y82.0942 
G01 X46.1236 Y82.0995 
G01 X46.3976 Y82.6020 
G01 X46.4006 Y82.6065 
G01 X46.4108 Y82.6176 
G01 X46.4230 Y82.6264 
G01 X46.4368 Y82.6325 
G01 X46.4516 Y82.6356 
G01 X46.4591 Y82.6360 
G01 X46.4665 Y82.6355 
G01 X46.4811 Y82.6322 
G01 X46.4945 Y82.6258 
G01 X46.5061 Y82.6165 
G01 X46.5154 Y82.6048 
G01 X46.5219 Y82.5914 
G01 X46.5252 Y82.5769 
G01 X46.5256 Y82.5695 
G01 X46.5240 Y82.5295 
G01 X46.5115 Y82.4507 
G01 X46.4867 Y82.3748 
G01 X46.4503 Y82.3038 
G01 X46.4031 Y82.2393 
G01 X46.3759 Y82.2101 
G01 X46.3452 Y82.1796 
G01 X46.3016 Y82.1049 
G01 X46.2788 Y82.0214 
G01 X46.2785 Y81.9349 
G01 X46.3005 Y81.8512 
G01 X46.3435 Y81.7761 
G01 X46.4044 Y81.7147 
G01 X46.4791 Y81.6711 
G01 X46.5626 Y81.6484 
G01 X46.6078 Y81.6482 
G01 X46.5913 Y81.6316 
G01 X46.5480 Y81.5567 
G01 X46.5256 Y81.4731 
G01 X46.5256 Y80.9682 
G01 X46.1950 Y80.9682 
G01 X46.1950 Y81.2755 
G01 X46.1726 Y81.3591 
G01 X46.1294 Y81.4340 
G01 X46.0682 Y81.4952 
G01 X45.9933 Y81.5385 
G01 X45.9097 Y81.5609 
G01 X45.8232 Y81.5609 
G01 X45.7396 Y81.5385 
G01 X45.6647 Y81.4952 
G01 X45.6035 Y81.4340 
G01 X45.5602 Y81.3591 
G01 X45.5378 Y81.2755 
G01 X45.5378 Y80.9682 
G01 X45.4048 Y80.9682 
G01 X45.4048 Y81.4731 
G01 X45.3824 Y81.5567 
G01 X45.3391 Y81.6316 
G01 X45.2780 Y81.6928 
G01 X45.2030 Y81.7360 
G01 X45.1195 Y81.7584 
G01 X45.0329 Y81.7584 
G01 X44.9494 Y81.7360 
G01 X44.8744 Y81.6928 
G01 X44.8133 Y81.6316 
G01 X44.7700 Y81.5567 
G01 X44.7476 Y81.4731 
G01 X44.7476 Y80.5964 
G01 X44.7700 Y80.5128 
G01 X44.8133 Y80.4378 
G01 X44.8744 Y80.3767 
G01 X44.9494 Y80.3334 
G01 X45.0329 Y80.3110 
G01 X46.8975 Y80.3110 
G01 X46.9810 Y80.3334 
G01 X47.0560 Y80.3767 
G01 X47.1171 Y80.4378 
G01 X47.1604 Y80.5128 
G01 X47.1828 Y80.5964 
G01 X47.1828 Y81.4731 
G01 X47.1604 Y81.5567 
G01 X47.1171 Y81.6316 
G01 X47.0560 Y81.6928 
G01 X46.9810 Y81.7360 
G01 X46.8975 Y81.7584 
G01 X46.8537 Y81.7584 
G01 X46.9040 Y81.8083 
G01 X47.0127 Y81.9568 
G01 X47.0967 Y82.1206 
G01 X47.1538 Y82.2956 
G01 X47.1828 Y82.4774 
G01 X47.1828 Y82.6127 
G01 X47.1828 Y82.6510 
G00 Z2.5400 
G00 X26.0471 Y85.1328 
G01 Z-0.1778 F254.00 
G01 X26.0471 Y84.3824 F408.00 
G01 X26.0855 Y84.2897 
G01 X26.1565 Y84.2187 
G01 X26.2493 Y84.1802 
G01 X27.8747 Y84.1802 
G01 X27.9675 Y84.2187 
G01 X28.0385 Y84.2897 
G01 X28.0769 Y84.3824 
G01 X28.0769 Y84.4290 
G01 X28.8009 Y84.4290 
G01 X28.8845 Y84.4514 
G01 X28.9594 Y84.4947 
G01 X30.2018 Y85.7371 
G01 X30.2629 Y85.7982 
G01 X30.3062 Y85.8732 
G01 X30.3286 Y85.9567 
G01 X30.3286 Y90.8276 
G01 X30.4455 Y90.8461 
G01 X30.6240 Y90.9041 
G01 X30.7912 Y90.9893 
G01 X30.9430 Y91.0996 
G01 X31.0757 Y91.2323 
G01 X31.1860 Y91.3841 
G01 X31.2712 Y91.5513 
G01 X31.3292 Y91.7298 
G01 X31.3585 Y91.9151 
G01 X31.3585 Y92.1028 
G01 X31.3292 Y92.2881 
G01 X31.2712 Y92.4666 
G01 X31.1860 Y92.6338 
G01 X31.0757 Y92.7856 
G01 X30.9430 Y92.9183 
G01 X30.7912 Y93.0286 
G01 X30.6240 Y93.1138 
G01 X30.4455 Y93.1718 
G01 X30.2602 Y93.2012 
G01 X30.0725 Y93.2012 
G01 X29.8872 Y93.1718 
G01 X29.7087 Y93.1138 
G01 X29.5415 Y93.0286 
G01 X29.3897 Y92.9183 
G01 X29.2570 Y92.7856 
G01 X29.1467 Y92.6338 
G01 X29.0615 Y92.4666 
G01 X29.0035 Y92.2881 
G01 X28.9741 Y92.1028 
G01 X28.9741 Y91.9151 
G01 X29.0035 Y91.7298 
G01 X29.0615 Y91.5513 
G01 X29.1467 Y91.3841 
G01 X29.2570 Y91.2323 
G01 X29.3897 Y91.0996 
G01 X29.5415 Y90.9893 
G01 X29.6714 Y90.9231 
G01 X29.6714 Y86.1361 
G01 X28.6215 Y85.0862 
G01 X28.0769 Y85.0862 
G01 X28.0769 Y85.1328 
G01 X28.0385 Y85.2256 
G01 X27.9675 Y85.2966 
G01 X27.8747 Y85.3350 
G01 X26.2493 Y85.3350 
G01 X26.1565 Y85.2966 
G01 X26.0855 Y85.2256 
G01 X26.0471 Y85.1328 
G00 Z2.5400 
G00 X26.0471 Y86.4028 
G01 Z-0.1778 F254.00 
G01 X26.0471 Y86.3562 F408.00 
G01 X25.1085 Y86.3562 
G01 X24.7329 Y86.7318 
G01 X24.7329 Y90.8702 
G01 X24.8072 Y90.8461 
G01 X24.9925 Y90.8168 
G01 X25.1802 Y90.8168 
G01 X25.3655 Y90.8461 
G01 X25.5440 Y90.9041 
G01 X25.7112 Y90.9893 
G01 X25.8630 Y91.0996 
G01 X25.9957 Y91.2323 
G01 X26.1060 Y91.3841 
G01 X26.1912 Y91.5513 
G01 X26.2492 Y91.7298 
G01 X26.2785 Y91.9151 
G01 X26.2785 Y92.1028 
G01 X26.2492 Y92.2881 
G01 X26.1912 Y92.4666 
G01 X26.1060 Y92.6338 
G01 X25.9957 Y92.7856 
G01 X25.8630 Y92.9183 
G01 X25.7112 Y93.0286 
G01 X25.5440 Y93.1138 
G01 X25.3655 Y93.1718 
G01 X25.1802 Y93.2012 
G01 X24.9925 Y93.2012 
G01 X24.8072 Y93.1718 
G01 X24.6287 Y93.1138 
G01 X24.4615 Y93.0286 
G01 X24.3097 Y92.9183 
G01 X24.1770 Y92.7856 
G01 X24.0667 Y92.6338 
G01 X23.9815 Y92.4666 
G01 X23.9235 Y92.2881 
G01 X23.8941 Y92.1028 
G01 X23.8941 Y91.9151 
G01 X23.9235 Y91.7298 
G01 X23.9815 Y91.5513 
G01 X24.0667 Y91.3841 
G01 X24.0760 Y91.3713 
G01 X24.0757 Y86.5524 
G01 X24.0981 Y86.4688 
G01 X24.1414 Y86.3939 
G01 X24.2026 Y86.3327 
G01 X24.7982 Y85.7371 
G01 X24.8732 Y85.6938 
G01 X24.9567 Y85.6714 
G01 X25.0433 Y85.6714 
G01 X25.1268 Y85.6938 
G01 X25.1359 Y85.6990 
G01 X26.0471 Y85.6990 
G01 X26.0471 Y85.6524 
G01 X26.0855 Y85.5597 
G01 X26.1565 Y85.4887 
G01 X26.2493 Y85.4502 
G01 X27.8747 Y85.4502 
G01 X27.9675 Y85.4887 
G01 X28.0385 Y85.5597 
G01 X28.0769 Y85.6524 
G01 X28.0769 Y86.4028 
G01 X28.0385 Y86.4956 
G01 X27.9675 Y86.5666 
G01 X27.8747 Y86.6050 
G01 X26.2493 Y86.6050 
G01 X26.1565 Y86.5666 
G01 X26.0855 Y86.4956 
G01 X26.0471 Y86.4028 
G00 Z2.5400 
G00 X15.9163 Y93.2012 
G01 Z-0.1778 F254.00 
G01 X13.9363 Y93.2012 F408.00 
G01 X13.8436 Y93.1627 
G01 X13.7726 Y93.0917 
G01 X13.7341 Y92.9990 
G01 X13.7341 Y91.2815 
G01 X7.7943 Y85.3417 
G01 X7.7701 Y85.3592 
G01 X7.6029 Y85.4444 
G01 X7.4244 Y85.5024 
G01 X7.2391 Y85.5318 
G01 X7.0514 Y85.5318 
G01 X6.8661 Y85.5024 
G01 X6.6876 Y85.4444 
G01 X6.5204 Y85.3592 
G01 X6.3686 Y85.2489 
G01 X6.2359 Y85.1162 
G01 X6.1256 Y84.9644 
G01 X6.0404 Y84.7972 
G01 X5.9824 Y84.6188 
G01 X5.9531 Y84.4334 
G01 X5.9531 Y84.2458 
G01 X5.9824 Y84.0604 
G01 X6.0404 Y83.8819 
G01 X6.1256 Y83.7147 
G01 X6.2359 Y83.5629 
G01 X6.3686 Y83.4302 
G01 X6.5204 Y83.3199 
G01 X6.6876 Y83.2347 
G01 X6.8661 Y83.1767 
G01 X7.0514 Y83.1474 
G01 X7.2391 Y83.1474 
G01 X7.4244 Y83.1767 
G01 X7.6029 Y83.2347 
G01 X7.7701 Y83.3199 
G01 X7.9219 Y83.4302 
G01 X8.0546 Y83.5629 
G01 X8.1649 Y83.7147 
G01 X8.2501 Y83.8819 
G01 X8.2920 Y84.0110 
G01 X13.3711 Y84.0110 
G01 X14.7240 Y82.6581 
G01 X14.7240 Y81.4868 
G01 X14.7624 Y81.3940 
G01 X14.8334 Y81.3230 
G01 X14.9262 Y81.2846 
G01 X16.5252 Y81.2846 
G01 X16.6179 Y81.3230 
G01 X16.6889 Y81.3940 
G01 X16.7274 Y81.4868 
G01 X16.7274 Y81.7926 
G01 X17.8683 Y81.7926 
G01 X17.8683 Y81.3146 
G01 X17.9067 Y81.2218 
G01 X17.9777 Y81.1508 
G01 X18.0705 Y81.1124 
G01 X19.6695 Y81.1124 
G01 X19.7623 Y81.1508 
G01 X19.8333 Y81.2218 
G01 X19.8717 Y81.3146 
G01 X19.8717 Y81.6204 
G01 X19.9149 Y81.6204 
G01 X21.7371 Y79.7982 
G01 X21.7982 Y79.7371 
G01 X21.8732 Y79.6938 
